(.../pcb-gcode-3.6.2.4/pcb-gcode.ulp)
(Copyright 2005 - 2012 by John Johnson)
(See readme.txt for licensing terms.)
(This file generated from the board:)
(.../MUR_unified/Electronics/Main_PCB/try1.brd)
(Current profile is .../pcb-gcode-3.6.2.4/profiles/turbocnc.pp  )
(This file generated 15/12/2020 14:37)
(Settings from pcb-machine.h)
(spindle on time = 3.0000)
(spindle speed = 15000.0000)
(milling depth = -1.6000)
(tool change at 0.0000 0.0000 25.4000 )
(feed rate xy = F254.00 )
(feed rate z  = F127.00 )
(Z Axis Settings)
(  High     Up        Down     Drill)
(12.7000 	2.5400 	-0.0800 	-2.0000 )
(Settings from pcb-defaults.h)
(isolate min = 0.0254)
(isolate max = 0.3700)
(isolate step = 0.1200)
(Generated bottom outlines, bottom drill, )
(Unit of measure: mm)
(Metric Mode)
G21
(Absolute Coordinates)
G90
G97 S15000
G00 Z12.7000 
G00 X0.0000 Y0.0000 
M03
G04 P3.000000
G00 Z2.5400 
G00 X-1.0000 Y-1.0000 
G01 Z-1.6000 F127.00 
G01 X77.4700 Y-1.0000 F254.00 
G00 Z2.5400 
G00 X80.1000 Y-1.0000 
G01 Z-1.6000 F127.00 
G01 X161.0000 Y-1.0000 F254.00 
G01 X161.0000 Y48.2600 
G00 Z2.5400 
G00 X161.0000 Y50.7000 
G01 Z-1.6000 F127.00 
G01 X161.0000 Y101.0000 F254.00 
G01 X80.1000 Y101.0000 
G00 Z2.5400 
G00 X77.4700 Y101.0000 
G01 Z-1.6000 F127.00 
G01 X-1.0000 Y101.0000 F254.00 
G01 X-1.0000 Y52.0700 
G00 Z2.5400 
G00 X-1.0000 Y49.6000 
G01 Z-1.6000 F127.00 
G01 X-1.0000 Y-1.0000 F254.00 
G00 Z2.5400 
G00 X2.0000 Y14.0000 
G01 Z-1.6000 F127.00 
G01 X9.0000 Y14.0000 F254.00 
G01 X27.5000 Y32.5000 
G01 X27.5000 Y38.3650 
G00 Z2.5400 
G00 X27.5000 Y42.3650 
G01 Z-1.6000 F127.00 
G01 X27.5000 Y48.2300 F254.00 
G00 Z2.5400 
G00 X27.5000 Y52.2300 
G01 Z-1.6000 F127.00 
G01 X27.5000 Y58.0950 F254.00 
G00 Z2.5400 
G00 X27.5000 Y62.0950 
G01 Z-1.6000 F127.00 
G01 X27.5000 Y67.9600 F254.00 
G01 X9.4600 Y86.0000 
G01 X2.0000 Y86.0000 
G00 Z12.7000 
M05
M02
