(.../pcb-gcode-3.6.2.4/pcb-gcode.ulp)
(Copyright 2005 - 2012 by John Johnson)
(See readme.txt for licensing terms.)
(This file generated from the board:)
(.../MUR_unified/Electronics/Main_PCB/try1.brd)
(Current profile is .../pcb-gcode-3.6.2.4/profiles/turbocnc.pp  )
(This file generated 15/12/2020 14:37)
(Settings from pcb-machine.h)
(spindle on time = 3.0000)
(spindle speed = 20000.0000)
(tool change at 0.0000 0.0000 25.4000 )
(feed rate xy = F0.00  )
(feed rate z  = F508.00 )
(Z Axis Settings)
(  High     Up        Down     Drill)
(12.7000 	2.5400 	-0.0800 	-2.0000 )
(Settings from pcb-defaults.h)
(isolate min = 0.0254)
(isolate max = 0.3700)
(isolate step = 0.1200)
(Generated bottom outlines, bottom drill, )
(Unit of measure: mm)
( Tool|       Size       |  Min Sub |  Max Sub |   Count )
( T01 | 0.800mm 0.0315in | 0.0000in | 0.0000in |       0 )
( T02 | 0.813mm 0.0320in | 0.0000in | 0.0000in |       0 )
( T03 | 0.900mm 0.0354in | 0.0000in | 0.0000in |       0 )
( T04 | 0.965mm 0.0380in | 0.0000in | 0.0000in |       0 )
( T05 | 1.000mm 0.0394in | 0.0000in | 0.0000in |       0 )
( T06 | 1.016mm 0.0400in | 0.0000in | 0.0000in |       0 )
( T07 | 1.300mm 0.0512in | 0.0000in | 0.0000in |       0 )
( T08 | 1.321mm 0.0520in | 0.0000in | 0.0000in |       0 )
( T09 | 2.311mm 0.0910in | 0.0000in | 0.0000in |       0 )
( T10 | 3.200mm 0.1260in | 0.0000in | 0.0000in |       0 )
(Metric Mode)
G21
(Absolute Coordinates)
G90
G97 S20000
G00 Z12.7000 
G00 X0.0000 Y0.0000 
M03
G04 P3.000000
M05
G00 Z25.4000 
M06 T01  ; 0.8000 
G01 Z0.0000 F508.00 
M06 
G00 Z2.5400 
M03
G04 P3.000000
G00 X-64.7700 Y52.0700 
G01 Z-2.0000 F508.00 
G00 Z2.5400 
G00 X-68.5800 Y52.0700 
G01 Z-2.0000 F508.00 
G00 Z2.5400 
G00 X-100.3300 Y68.5800 
G01 Z-2.0000 F508.00 
G00 Z2.5400 
G00 X-102.0698 Y68.5800 
G01 Z-2.0000 F508.00 
G00 Z2.5400 
G00 X-102.0698 Y88.9000 
G01 Z-2.0000 F508.00 
G00 Z2.5400 
G00 X-100.3300 Y88.9000 
G01 Z-2.0000 F508.00 
G00 Z2.5400 
G00 X-127.1776 Y88.9000 
G01 Z-2.0000 F508.00 
G00 Z2.5400 
G00 X-138.4300 Y88.9000 
G01 Z-2.0000 F508.00 
G00 Z2.5400 
G00 X-127.1776 Y68.5800 
G01 Z-2.0000 F508.00 
G00 Z2.5400 
G00 X-138.4300 Y38.1000 
G01 Z-2.0000 F508.00 
G00 Z2.5400 
M05
G00 Z25.4000 
G00 X0.0000 Y0.0000 
M06 T02  ; 0.8128 
G01 Z0.0000 F508.00 
M06 
G00 Z2.5400 
M03
G04 P3.000000
G00 X-31.7500 Y17.7800 
G01 Z-2.0000 F508.00 
G00 Z2.5400 
G00 X-34.2900 Y17.7800 
G01 Z-2.0000 F508.00 
G00 Z2.5400 
G00 X-36.8300 Y17.7800 
G01 Z-2.0000 F508.00 
G00 Z2.5400 
G00 X-39.3700 Y17.7800 
G01 Z-2.0000 F508.00 
G00 Z2.5400 
G00 X-41.9100 Y17.7800 
G01 Z-2.0000 F508.00 
G00 Z2.5400 
G00 X-44.4500 Y17.7800 
G01 Z-2.0000 F508.00 
G00 Z2.5400 
G00 X-46.9900 Y17.7800 
G01 Z-2.0000 F508.00 
G00 Z2.5400 
G00 X-49.5300 Y17.7800 
G01 Z-2.0000 F508.00 
G00 Z2.5400 
G00 X-51.4350 Y11.4300 
G01 Z-2.0000 F508.00 
G00 Z2.5400 
G00 X-46.3550 Y11.4300 
G01 Z-2.0000 F508.00 
G00 Z2.5400 
G00 X-46.9900 Y25.4000 
G01 Z-2.0000 F508.00 
G00 Z2.5400 
G00 X-44.4500 Y25.4000 
G01 Z-2.0000 F508.00 
G00 Z2.5400 
G00 X-41.9100 Y25.4000 
G01 Z-2.0000 F508.00 
G00 Z2.5400 
G00 X-39.3700 Y25.4000 
G01 Z-2.0000 F508.00 
G00 Z2.5400 
G00 X-36.8300 Y25.4000 
G01 Z-2.0000 F508.00 
G00 Z2.5400 
G00 X-34.2900 Y25.4000 
G01 Z-2.0000 F508.00 
G00 Z2.5400 
G00 X-31.7500 Y25.4000 
G01 Z-2.0000 F508.00 
G00 Z2.5400 
G00 X-31.7500 Y29.2100 
G01 Z-2.0000 F508.00 
G00 Z2.5400 
G00 X-36.8300 Y29.2100 
G01 Z-2.0000 F508.00 
G00 Z2.5400 
G00 X-49.5300 Y25.4000 
G01 Z-2.0000 F508.00 
G00 Z2.5400 
G00 X-62.2300 Y19.0500 
G01 Z-2.0000 F508.00 
G00 Z2.5400 
G00 X-67.3100 Y19.0500 
G01 Z-2.0000 F508.00 
G00 Z2.5400 
G00 X-72.3900 Y19.0500 
G01 Z-2.0000 F508.00 
G00 Z2.5400 
G00 X-76.2000 Y24.1300 
G01 Z-2.0000 F508.00 
G00 Z2.5400 
G00 X-76.2000 Y26.6700 
G01 Z-2.0000 F508.00 
G00 Z2.5400 
G00 X-76.2000 Y29.2100 
G01 Z-2.0000 F508.00 
G00 Z2.5400 
G00 X-76.2000 Y31.7500 
G01 Z-2.0000 F508.00 
G00 Z2.5400 
G00 X-76.2000 Y34.2900 
G01 Z-2.0000 F508.00 
G00 Z2.5400 
G00 X-76.2000 Y36.8300 
G01 Z-2.0000 F508.00 
G00 Z2.5400 
G00 X-91.4400 Y36.8300 
G01 Z-2.0000 F508.00 
G00 Z2.5400 
G00 X-91.4400 Y34.2900 
G01 Z-2.0000 F508.00 
G00 Z2.5400 
G00 X-91.4400 Y31.7500 
G01 Z-2.0000 F508.00 
G00 Z2.5400 
G00 X-91.4400 Y29.2100 
G01 Z-2.0000 F508.00 
G00 Z2.5400 
G00 X-91.4400 Y26.6700 
G01 Z-2.0000 F508.00 
G00 Z2.5400 
G00 X-91.4400 Y24.1300 
G01 Z-2.0000 F508.00 
G00 Z2.5400 
G00 X-88.9000 Y11.4300 
G01 Z-2.0000 F508.00 
G00 Z2.5400 
G00 X-83.8200 Y11.4300 
G01 Z-2.0000 F508.00 
G00 Z2.5400 
G00 X-72.3900 Y11.4300 
G01 Z-2.0000 F508.00 
G00 Z2.5400 
G00 X-67.3100 Y11.4300 
G01 Z-2.0000 F508.00 
G00 Z2.5400 
G00 X-62.2300 Y11.4300 
G01 Z-2.0000 F508.00 
G00 Z2.5400 
G00 X-106.0450 Y39.3700 
G01 Z-2.0000 F508.00 
G00 Z2.5400 
G00 X-107.9500 Y38.1000 
G01 Z-2.0000 F508.00 
G00 Z2.5400 
G00 X-107.9500 Y40.6400 
G01 Z-2.0000 F508.00 
G00 Z2.5400 
G00 X-130.8100 Y52.0700 
G01 Z-2.0000 F508.00 
G00 Z2.5400 
G00 X-134.6200 Y52.0700 
G01 Z-2.0000 F508.00 
G00 Z2.5400 
G00 X-134.6200 Y64.7700 
G01 Z-2.0000 F508.00 
G00 Z2.5400 
G00 X-130.8100 Y64.7700 
G01 Z-2.0000 F508.00 
G00 Z2.5400 
G00 X-140.9700 Y13.9700 
G01 Z-2.0000 F508.00 
G00 Z2.5400 
G00 X-143.5100 Y13.9700 
G01 Z-2.0000 F508.00 
G00 Z2.5400 
G00 X-76.2000 Y73.6600 
G01 Z-2.0000 F508.00 
G00 Z2.5400 
G00 X-73.6600 Y73.6600 
G01 Z-2.0000 F508.00 
G00 Z2.5400 
G00 X-71.1200 Y73.6600 
G01 Z-2.0000 F508.00 
G00 Z2.5400 
G00 X-68.5800 Y73.6600 
G01 Z-2.0000 F508.00 
G00 Z2.5400 
G00 X-66.0400 Y73.6600 
G01 Z-2.0000 F508.00 
G00 Z2.5400 
G00 X-63.5000 Y73.6600 
G01 Z-2.0000 F508.00 
G00 Z2.5400 
G00 X-60.9600 Y73.6600 
G01 Z-2.0000 F508.00 
G00 Z2.5400 
G00 X-58.4200 Y73.6600 
G01 Z-2.0000 F508.00 
G00 Z2.5400 
G00 X-58.4200 Y86.3600 
G01 Z-2.0000 F508.00 
G00 Z2.5400 
G00 X-60.9600 Y86.3600 
G01 Z-2.0000 F508.00 
G00 Z2.5400 
G00 X-63.5000 Y86.3600 
G01 Z-2.0000 F508.00 
G00 Z2.5400 
G00 X-66.0400 Y86.3600 
G01 Z-2.0000 F508.00 
G00 Z2.5400 
G00 X-68.5800 Y86.3600 
G01 Z-2.0000 F508.00 
G00 Z2.5400 
G00 X-71.1200 Y86.3600 
G01 Z-2.0000 F508.00 
G00 Z2.5400 
G00 X-73.6600 Y86.3600 
G01 Z-2.0000 F508.00 
G00 Z2.5400 
G00 X-76.2000 Y86.3600 
G01 Z-2.0000 F508.00 
G00 Z2.5400 
G00 X-39.3700 Y83.1850 
G01 Z-2.0000 F508.00 
G00 Z2.5400 
G00 X-34.9250 Y83.1850 
G01 Z-2.0000 F508.00 
G00 Z2.5400 
G00 X-34.9250 Y70.4850 
G01 Z-2.0000 F508.00 
G00 Z2.5400 
G00 X-39.3700 Y70.4850 
G01 Z-2.0000 F508.00 
G00 Z2.5400 
M05
G00 Z25.4000 
G00 X0.0000 Y0.0000 
M06 T03  ; 0.9000 
G01 Z0.0000 F508.00 
M06 
G00 Z2.5400 
M03
G04 P3.000000
G00 X-5.0800 Y27.8000 
G01 Z-2.0000 F508.00 
G00 Z2.5400 
G00 X-5.0800 Y32.2000 
G01 Z-2.0000 F508.00 
G00 Z2.5400 
M05
G00 Z25.4000 
G00 X0.0000 Y0.0000 
M06 T04  ; 0.9652 
G01 Z0.0000 F508.00 
M06 
G00 Z2.5400 
M03
G04 P3.000000
G00 X-40.6400 Y48.2600 
G01 Z-2.0000 F508.00 
G00 Z2.5400 
G00 X-43.1800 Y48.2600 
G01 Z-2.0000 F508.00 
G00 Z2.5400 
G00 X-45.7200 Y48.2600 
G01 Z-2.0000 F508.00 
G00 Z2.5400 
G00 X-48.2600 Y48.2600 
G01 Z-2.0000 F508.00 
G00 Z2.5400 
G00 X-50.8000 Y48.2600 
G01 Z-2.0000 F508.00 
G00 Z2.5400 
G00 X-53.3400 Y48.2600 
G01 Z-2.0000 F508.00 
G00 Z2.5400 
G00 X-55.8800 Y48.2600 
G01 Z-2.0000 F508.00 
G00 Z2.5400 
G00 X-58.4200 Y48.2600 
G01 Z-2.0000 F508.00 
G00 Z2.5400 
G00 X-60.9600 Y48.2600 
G01 Z-2.0000 F508.00 
G00 Z2.5400 
G00 X-63.5000 Y48.2600 
G01 Z-2.0000 F508.00 
G00 Z2.5400 
G00 X-66.0400 Y48.2600 
G01 Z-2.0000 F508.00 
G00 Z2.5400 
G00 X-68.5800 Y48.2600 
G01 Z-2.0000 F508.00 
G00 Z2.5400 
G00 X-71.1200 Y48.2600 
G01 Z-2.0000 F508.00 
G00 Z2.5400 
G00 X-73.6600 Y48.2600 
G01 Z-2.0000 F508.00 
G00 Z2.5400 
G00 X-73.6600 Y50.8000 
G01 Z-2.0000 F508.00 
G00 Z2.5400 
G00 X-73.6600 Y53.3400 
G01 Z-2.0000 F508.00 
G00 Z2.5400 
G00 X-73.6600 Y55.8800 
G01 Z-2.0000 F508.00 
G00 Z2.5400 
G00 X-73.6600 Y58.4200 
G01 Z-2.0000 F508.00 
G00 Z2.5400 
G00 X-73.6600 Y60.9600 
G01 Z-2.0000 F508.00 
G00 Z2.5400 
G00 X-73.6600 Y63.5000 
G01 Z-2.0000 F508.00 
G00 Z2.5400 
G00 X-71.1200 Y63.5000 
G01 Z-2.0000 F508.00 
G00 Z2.5400 
G00 X-68.5800 Y63.5000 
G01 Z-2.0000 F508.00 
G00 Z2.5400 
G00 X-66.0400 Y63.5000 
G01 Z-2.0000 F508.00 
G00 Z2.5400 
G00 X-63.5000 Y63.5000 
G01 Z-2.0000 F508.00 
G00 Z2.5400 
G00 X-60.9600 Y63.5000 
G01 Z-2.0000 F508.00 
G00 Z2.5400 
G00 X-58.4200 Y63.5000 
G01 Z-2.0000 F508.00 
G00 Z2.5400 
G00 X-55.8800 Y63.5000 
G01 Z-2.0000 F508.00 
G00 Z2.5400 
G00 X-53.3400 Y63.5000 
G01 Z-2.0000 F508.00 
G00 Z2.5400 
G00 X-53.3400 Y60.9600 
G01 Z-2.0000 F508.00 
G00 Z2.5400 
G00 X-50.8000 Y60.9600 
G01 Z-2.0000 F508.00 
G00 Z2.5400 
G00 X-48.2600 Y60.9600 
G01 Z-2.0000 F508.00 
G00 Z2.5400 
G00 X-48.2600 Y63.5000 
G01 Z-2.0000 F508.00 
G00 Z2.5400 
G00 X-45.7200 Y63.5000 
G01 Z-2.0000 F508.00 
G00 Z2.5400 
G00 X-43.1800 Y63.5000 
G01 Z-2.0000 F508.00 
G00 Z2.5400 
G00 X-40.6400 Y63.5000 
G01 Z-2.0000 F508.00 
G00 Z2.5400 
G00 X-43.1800 Y60.9600 
G01 Z-2.0000 F508.00 
G00 Z2.5400 
G00 X-50.8000 Y63.5000 
G01 Z-2.0000 F508.00 
G00 Z2.5400 
M05
G00 Z25.4000 
G00 X0.0000 Y0.0000 
M06 T05  ; 1.0000 
G01 Z0.0000 F508.00 
M06 
G00 Z2.5400 
M03
G04 P3.000000
G00 X-8.8900 Y39.3700 
G01 Z-2.0000 F508.00 
G00 Z2.5400 
G00 X-15.2400 Y39.3700 
G01 Z-2.0000 F508.00 
G00 Z2.5400 
G00 X-31.7500 Y33.0200 
G01 Z-2.0000 F508.00 
G00 Z2.5400 
G00 X-39.3700 Y43.1800 
G01 Z-2.0000 F508.00 
G00 Z2.5400 
G00 X-52.0700 Y33.0200 
G01 Z-2.0000 F508.00 
G00 Z2.5400 
G00 X-53.3400 Y26.6700 
G01 Z-2.0000 F508.00 
G00 Z2.5400 
G00 X-53.3400 Y11.4300 
G01 Z-2.0000 F508.00 
G00 Z2.5400 
G00 X-76.2000 Y19.0500 
G01 Z-2.0000 F508.00 
G00 Z2.5400 
G00 X-92.7100 Y43.1800 
G01 Z-2.0000 F508.00 
G00 Z2.5400 
G00 X-55.3092 Y68.5800 
G01 Z-2.0000 F508.00 
G00 Z2.5400 
G00 X-55.2450 Y78.8670 
G01 Z-2.0000 F508.00 
G00 Z2.5400 
G00 X-31.7500 Y76.8350 
G01 Z-2.0000 F508.00 
G00 Z2.5400 
G00 X-25.4000 Y76.8350 
G01 Z-2.0000 F508.00 
G00 Z2.5400 
G00 X-25.4000 Y83.1850 
G01 Z-2.0000 F508.00 
G00 Z2.5400 
G00 X-31.7500 Y83.1850 
G01 Z-2.0000 F508.00 
G00 Z2.5400 
G00 X-16.5100 Y89.5350 
G01 Z-2.0000 F508.00 
G00 Z2.5400 
G00 X-11.4300 Y89.5350 
G01 Z-2.0000 F508.00 
G00 Z2.5400 
G00 X-140.9700 Y19.0500 
G01 Z-2.0000 F508.00 
G00 Z2.5400 
M05
G00 Z25.4000 
G00 X0.0000 Y0.0000 
M06 T06  ; 1.0160 
G01 Z0.0000 F508.00 
M06 
G00 Z2.5400 
M03
G04 P3.000000
G00 X-19.0500 Y86.3600 
G01 Z-2.0000 F508.00 
G00 Z2.5400 
G00 X-21.5900 Y86.3600 
G01 Z-2.0000 F508.00 
G00 Z2.5400 
G00 X-24.1300 Y86.3600 
G01 Z-2.0000 F508.00 
G00 Z2.5400 
G00 X-27.9400 Y86.3600 
G01 Z-2.0000 F508.00 
G00 Z2.5400 
G00 X-30.4800 Y86.3600 
G01 Z-2.0000 F508.00 
G00 Z2.5400 
G00 X-33.0200 Y86.3600 
G01 Z-2.0000 F508.00 
G00 Z2.5400 
G00 X-36.8300 Y86.3600 
G01 Z-2.0000 F508.00 
G00 Z2.5400 
G00 X-39.3700 Y86.3600 
G01 Z-2.0000 F508.00 
G00 Z2.5400 
G00 X-41.9100 Y86.3600 
G01 Z-2.0000 F508.00 
G00 Z2.5400 
G00 X-48.2600 Y86.3600 
G01 Z-2.0000 F508.00 
G00 Z2.5400 
G00 X-50.8000 Y86.3600 
G01 Z-2.0000 F508.00 
G00 Z2.5400 
G00 X-53.3400 Y86.3600 
G01 Z-2.0000 F508.00 
G00 Z2.5400 
G00 X-58.4200 Y68.5800 
G01 Z-2.0000 F508.00 
G00 Z2.5400 
G00 X-60.9600 Y68.5800 
G01 Z-2.0000 F508.00 
G00 Z2.5400 
G00 X-63.5000 Y68.5800 
G01 Z-2.0000 F508.00 
G00 Z2.5400 
G00 X-66.0400 Y68.5800 
G01 Z-2.0000 F508.00 
G00 Z2.5400 
G00 X-107.9500 Y50.8000 
G01 Z-2.0000 F508.00 
G00 Z2.5400 
G00 X-115.5700 Y50.8000 
G01 Z-2.0000 F508.00 
G00 Z2.5400 
M05
G00 Z25.4000 
G00 X0.0000 Y0.0000 
M06 T07  ; 1.3000 
G01 Z0.0000 F508.00 
M06 
G00 Z2.5400 
M03
G04 P3.000000
G00 X-5.9000 Y47.2500 
G01 Z-2.0000 F508.00 
G00 Z2.5400 
G00 X-5.9000 Y52.7500 
G01 Z-2.0000 F508.00 
G00 Z2.5400 
G00 X-13.9489 Y5.1050 
G01 Z-2.0000 F508.00 
G00 Z2.5400 
G00 X-19.0289 Y5.1050 
G01 Z-2.0000 F508.00 
G00 Z2.5400 
G00 X-24.1089 Y5.1050 
G01 Z-2.0000 F508.00 
G00 Z2.5400 
G00 X-29.1889 Y5.1050 
G01 Z-2.0000 F508.00 
G00 Z2.5400 
G00 X-34.2689 Y5.1050 
G01 Z-2.0000 F508.00 
G00 Z2.5400 
G00 X-39.3489 Y5.1050 
G01 Z-2.0000 F508.00 
G00 Z2.5400 
G00 X-44.4289 Y5.1050 
G01 Z-2.0000 F508.00 
G00 Z2.5400 
G00 X-49.5089 Y5.1050 
G01 Z-2.0000 F508.00 
G00 Z2.5400 
G00 X-57.1289 Y5.1050 
G01 Z-2.0000 F508.00 
G00 Z2.5400 
G00 X-62.2089 Y5.1050 
G01 Z-2.0000 F508.00 
G00 Z2.5400 
G00 X-67.2889 Y5.1050 
G01 Z-2.0000 F508.00 
G00 Z2.5400 
G00 X-72.3689 Y5.1050 
G01 Z-2.0000 F508.00 
G00 Z2.5400 
G00 X-83.7989 Y5.1050 
G01 Z-2.0000 F508.00 
G00 Z2.5400 
G00 X-88.8789 Y5.1050 
G01 Z-2.0000 F508.00 
G00 Z2.5400 
G00 X-93.9589 Y5.1050 
G01 Z-2.0000 F508.00 
G00 Z2.5400 
G00 X-99.0389 Y5.1050 
G01 Z-2.0000 F508.00 
G00 Z2.5400 
G00 X-110.4689 Y5.1050 
G01 Z-2.0000 F508.00 
G00 Z2.5400 
G00 X-115.5489 Y5.1050 
G01 Z-2.0000 F508.00 
G00 Z2.5400 
G00 X-120.6289 Y5.1050 
G01 Z-2.0000 F508.00 
G00 Z2.5400 
G00 X-125.7089 Y5.1050 
G01 Z-2.0000 F508.00 
G00 Z2.5400 
G00 X-130.7889 Y5.1050 
G01 Z-2.0000 F508.00 
G00 Z2.5400 
G00 X-135.8689 Y5.1050 
G01 Z-2.0000 F508.00 
G00 Z2.5400 
G00 X-140.9489 Y5.1050 
G01 Z-2.0000 F508.00 
G00 Z2.5400 
G00 X-146.0289 Y5.1050 
G01 Z-2.0000 F508.00 
G00 Z2.5400 
G00 X-154.9150 Y16.4889 
G01 Z-2.0000 F508.00 
G00 Z2.5400 
G00 X-154.9150 Y21.5689 
G01 Z-2.0000 F508.00 
G00 Z2.5400 
G00 X-154.9150 Y36.8089 
G01 Z-2.0000 F508.00 
G00 Z2.5400 
G00 X-154.9150 Y41.8889 
G01 Z-2.0000 F508.00 
G00 Z2.5400 
G00 X-154.9150 Y57.1289 
G01 Z-2.0000 F508.00 
G00 Z2.5400 
G00 X-154.9150 Y62.2089 
G01 Z-2.0000 F508.00 
G00 Z2.5400 
G00 X-154.9150 Y78.7189 
G01 Z-2.0000 F508.00 
G00 Z2.5400 
G00 X-154.9150 Y83.7989 
G01 Z-2.0000 F508.00 
G00 Z2.5400 
G00 X-143.5311 Y95.2250 
G01 Z-2.0000 F508.00 
G00 Z2.5400 
G00 X-138.4511 Y95.2250 
G01 Z-2.0000 F508.00 
G00 Z2.5400 
G00 X-127.0211 Y95.2250 
G01 Z-2.0000 F508.00 
G00 Z2.5400 
G00 X-121.9411 Y95.2250 
G01 Z-2.0000 F508.00 
G00 Z2.5400 
G00 X-116.8611 Y95.2250 
G01 Z-2.0000 F508.00 
G00 Z2.5400 
G00 X-110.5111 Y95.2250 
G01 Z-2.0000 F508.00 
G00 Z2.5400 
G00 X-105.4311 Y95.2250 
G01 Z-2.0000 F508.00 
G00 Z2.5400 
G00 X-100.3511 Y95.2250 
G01 Z-2.0000 F508.00 
G00 Z2.5400 
G00 X-95.2711 Y95.2250 
G01 Z-2.0000 F508.00 
G00 Z2.5400 
G00 X-83.8411 Y95.2250 
G01 Z-2.0000 F508.00 
G00 Z2.5400 
G00 X-78.7611 Y95.2250 
G01 Z-2.0000 F508.00 
G00 Z2.5400 
G00 X-73.6811 Y95.2250 
G01 Z-2.0000 F508.00 
G00 Z2.5400 
G00 X-68.6011 Y95.2250 
G01 Z-2.0000 F508.00 
G00 Z2.5400 
G00 X-63.5211 Y95.2250 
G01 Z-2.0000 F508.00 
G00 Z2.5400 
G00 X-58.4411 Y95.2250 
G01 Z-2.0000 F508.00 
G00 Z2.5400 
G00 X-53.3611 Y95.2250 
G01 Z-2.0000 F508.00 
G00 Z2.5400 
G00 X-48.2811 Y95.2250 
G01 Z-2.0000 F508.00 
G00 Z2.5400 
M05
G00 Z25.4000 
G00 X0.0000 Y0.0000 
M06 T08  ; 1.3208 
G01 Z0.0000 F508.00 
M06 
G00 Z2.5400 
M03
G04 P3.000000
G00 X-20.6100 Y42.4700 
G01 Z-2.0000 F508.00 
G00 Z2.5400 
G00 X-20.6100 Y47.5500 
G01 Z-2.0000 F508.00 
G00 Z2.5400 
G00 X-20.6100 Y52.6300 
G01 Z-2.0000 F508.00 
G00 Z2.5400 
G00 X-20.6100 Y57.7100 
G01 Z-2.0000 F508.00 
G00 Z2.5400 
G00 X-35.5300 Y57.6800 
G01 Z-2.0000 F508.00 
G00 Z2.5400 
G00 X-35.7900 Y42.4700 
G01 Z-2.0000 F508.00 
G00 Z2.5400 
M05
G00 Z25.4000 
G00 X0.0000 Y0.0000 
M06 T09  ; 2.3114 
G01 Z0.0000 F508.00 
M06 
G00 Z2.5400 
M03
G04 P3.000000
G00 X-6.8100 Y63.4341 
G01 Z-2.0000 F508.00 
G00 Z2.5400 
G00 X-6.8100 Y76.5659 
G01 Z-2.0000 F508.00 
G00 Z2.5400 
M05
G00 Z25.4000 
G00 X0.0000 Y0.0000 
M06 T10  ; 3.2000 
G01 Z0.0000 F508.00 
M06 
G00 Z2.5400 
M03
G04 P3.000000
G00 X-5.0000 Y18.0000 
G01 Z-2.0000 F508.00 
G00 Z2.5400 
G00 X-5.0800 Y5.0800 
G01 Z-2.0000 F508.00 
G00 Z2.5400 
G00 X-5.0000 Y82.0000 
G01 Z-2.0000 F508.00 
G00 Z2.5400 
G00 X-5.0800 Y95.2500 
G01 Z-2.0000 F508.00 
G00 Z2.5400 
G00 X-154.9400 Y95.2500 
G01 Z-2.0000 F508.00 
G00 Z2.5400 
G00 X-154.9400 Y5.0800 
G01 Z-2.0000 F508.00 
G00 Z2.5400 
T01 
G00 Z12.7000 
M05
M02
