(.../pcb-gcode-3.6.2.4/pcb-gcode.ulp)
(Copyright 2005 - 2012 by John Johnson)
(See readme.txt for licensing terms.)
(This file generated from the board:)
(.../MUR_unified/Electronics/Main_PCB/try1.brd)
(Current profile is .../pcb-gcode-3.6.2.4/profiles/turbocnc.pp  )
(This file generated 15/12/2020 14:34)
(Settings from pcb-machine.h)
(spindle on time = 3.0000)
(  Tool Size)
(0.1778 )
(spindle speed = 30000.0000)
(tool change at 0.0000 0.0000 25.4000 )
(feed rate xy = F2000.00 )
(feed rate z  = F254.00 )
(Z Axis Settings)
(  High     Up        Down     Drill)
(12.7000 	2.5400 	-0.0800 	-2.0000 )
(Settings from pcb-defaults.h)
(isolate min = 0.0254)
(isolate max = 0.3700)
(isolate step = 0.1200)
(Generated bottom outlines, bottom drill, )
(Unit of measure: mm)
(Metric Mode)
G21
(Absolute Coordinates)
G90
G97 S30000
G00 Z12.7000 
G00 X0.0000 Y0.0000 
M03
G04 P3.000000
G00 Z2.5400 
G00 X-2.2290 Y1.7898 
G01 Z-0.0800 F254.00 
G01 X-1.4204 Y2.7229 F2000.00 
G01 X-1.4170 Y2.7311 
G01 X-1.4138 Y2.7343 
G01 X-0.9027 Y3.8534 
G01 X-0.7264 Y5.0800 
G01 X-0.9027 Y6.3066 
G01 X-1.4138 Y7.4257 
G01 X-1.4170 Y7.4288 
G01 X-1.4204 Y7.4371 
G01 X-2.2290 Y8.3702 
G01 X-3.2714 Y9.0402 
G01 X-4.4604 Y9.3893 
G01 X-5.6996 Y9.3893 
G01 X-6.8886 Y9.0402 
G01 X-7.9310 Y8.3702 
G01 X-8.7396 Y7.4371 
G01 X-8.7430 Y7.4289 
G01 X-8.7462 Y7.4257 
G01 X-9.2573 Y6.3066 
G01 X-9.4336 Y5.0800 
G01 X-9.2573 Y3.8534 
G01 X-8.7462 Y2.7343 
G01 X-8.7430 Y2.7311 
G01 X-8.7396 Y2.7229 
G01 X-7.9310 Y1.7898 
G01 X-6.8886 Y1.1198 
G01 X-5.6996 Y0.7707 
G01 X-4.4604 Y0.7707 
G01 X-3.2714 Y1.1198 
G01 X-2.2290 Y1.7898 
G00 Z2.5400 
G00 X-13.0796 Y4.3625 
G01 Z-0.0800 F254.00 
G01 X-12.9741 Y4.5077 F2000.00 
G01 X-12.8927 Y4.6675 
G01 X-12.8702 Y4.7367 
G01 X-12.8969 Y4.7367 
G01 X-12.9162 Y4.6773 
G01 X-12.9959 Y4.5210 
G01 X-13.0990 Y4.3791 
G01 X-13.2230 Y4.2551 
G01 X-13.3649 Y4.1520 
G01 X-13.5212 Y4.0723 
G01 X-13.5806 Y4.0530 
G01 X-13.5806 Y4.0263 
G01 X-13.5114 Y4.0488 
G01 X-13.3516 Y4.1302 
G01 X-13.2064 Y4.2357 
G01 X-13.0796 Y4.3625 
G00 Z2.5400 
G00 X-12.8969 Y5.4733 
G01 Z-0.0800 F254.00 
G01 X-12.8702 Y5.4733 F2000.00 
G01 X-12.8927 Y5.5425 
G01 X-12.9741 Y5.7023 
G01 X-13.0796 Y5.8475 
G01 X-13.2064 Y5.9743 
G01 X-13.3516 Y6.0798 
G01 X-13.5114 Y6.1612 
G01 X-13.5806 Y6.1837 
G01 X-13.5806 Y6.1570 
G01 X-13.5212 Y6.1377 
G01 X-13.3649 Y6.0580 
G01 X-13.2230 Y5.9549 
G01 X-13.0990 Y5.8309 
G01 X-12.9959 Y5.6890 
G01 X-12.9162 Y5.5327 
G01 X-12.8969 Y5.4733 
G00 Z2.5400 
G00 X-14.3172 Y6.1570 
G01 Z-0.0800 F254.00 
G01 X-14.3172 Y6.1837 F2000.00 
G01 X-14.3864 Y6.1612 
G01 X-14.5462 Y6.0798 
G01 X-14.6914 Y5.9743 
G01 X-14.8182 Y5.8475 
G01 X-14.9237 Y5.7023 
G01 X-15.0051 Y5.5425 
G01 X-15.0276 Y5.4733 
G01 X-15.0009 Y5.4733 
G01 X-14.9816 Y5.5327 
G01 X-14.9019 Y5.6890 
G01 X-14.7988 Y5.8309 
G01 X-14.6748 Y5.9549 
G01 X-14.5329 Y6.0580 
G01 X-14.3766 Y6.1377 
G01 X-14.3172 Y6.1570 
G00 Z2.5400 
G00 X-14.3172 Y4.0530 
G01 Z-0.0800 F254.00 
G01 X-14.3766 Y4.0723 F2000.00 
G01 X-14.5329 Y4.1520 
G01 X-14.6748 Y4.2551 
G01 X-14.7988 Y4.3791 
G01 X-14.9019 Y4.5210 
G01 X-14.9816 Y4.6773 
G01 X-15.0009 Y4.7367 
G01 X-15.0276 Y4.7367 
G01 X-15.0051 Y4.6675 
G01 X-14.9237 Y4.5077 
G01 X-14.8182 Y4.3625 
G01 X-14.6914 Y4.2357 
G01 X-14.5462 Y4.1302 
G01 X-14.3864 Y4.0488 
G01 X-14.3172 Y4.0263 
G01 X-14.3172 Y4.0530 
G00 Z2.5400 
G00 X-18.2864 Y4.2357 
G01 Z-0.0800 F254.00 
G01 X-18.1596 Y4.3625 F2000.00 
G01 X-18.0541 Y4.5077 
G01 X-17.9727 Y4.6675 
G01 X-17.9502 Y4.7367 
G01 X-17.9769 Y4.7367 
G01 X-17.9962 Y4.6773 
G01 X-18.0759 Y4.5210 
G01 X-18.1790 Y4.3791 
G01 X-18.3030 Y4.2551 
G01 X-18.4449 Y4.1520 
G01 X-18.6012 Y4.0723 
G01 X-18.6606 Y4.0530 
G01 X-18.6606 Y4.0263 
G01 X-18.5914 Y4.0488 
G01 X-18.4316 Y4.1302 
G01 X-18.2864 Y4.2357 
G00 Z2.5400 
G00 X-19.3972 Y4.0530 
G01 Z-0.0800 F254.00 
G01 X-19.4566 Y4.0723 F2000.00 
G01 X-19.6129 Y4.1520 
G01 X-19.7548 Y4.2551 
G01 X-19.8788 Y4.3791 
G01 X-19.9819 Y4.5210 
G01 X-20.0616 Y4.6773 
G01 X-20.0809 Y4.7367 
G01 X-20.1076 Y4.7367 
G01 X-20.0851 Y4.6675 
G01 X-20.0037 Y4.5077 
G01 X-19.8982 Y4.3625 
G01 X-19.7714 Y4.2357 
G01 X-19.6262 Y4.1302 
G01 X-19.4664 Y4.0488 
G01 X-19.3972 Y4.0263 
G01 X-19.3972 Y4.0530 
G00 Z2.5400 
G00 X-19.3972 Y6.1570 
G01 Z-0.0800 F254.00 
G01 X-19.3972 Y6.1837 F2000.00 
G01 X-19.4664 Y6.1612 
G01 X-19.6262 Y6.0798 
G01 X-19.7714 Y5.9743 
G01 X-19.8982 Y5.8475 
G01 X-20.0037 Y5.7023 
G01 X-20.0851 Y5.5425 
G01 X-20.1076 Y5.4733 
G01 X-20.0809 Y5.4733 
G01 X-20.0616 Y5.5327 
G01 X-19.9819 Y5.6890 
G01 X-19.8788 Y5.8309 
G01 X-19.7548 Y5.9549 
G01 X-19.6129 Y6.0580 
G01 X-19.4566 Y6.1377 
G01 X-19.3972 Y6.1570 
G00 Z2.5400 
G00 X-18.6606 Y6.1570 
G01 Z-0.0800 F254.00 
G01 X-18.6012 Y6.1377 F2000.00 
G01 X-18.4449 Y6.0580 
G01 X-18.3030 Y5.9549 
G01 X-18.1790 Y5.8309 
G01 X-18.0759 Y5.6890 
G01 X-17.9962 Y5.5327 
G01 X-17.9769 Y5.4733 
G01 X-17.9502 Y5.4733 
G01 X-17.9727 Y5.5425 
G01 X-18.0541 Y5.7023 
G01 X-18.1596 Y5.8475 
G01 X-18.2864 Y5.9743 
G01 X-18.4316 Y6.0798 
G01 X-18.5914 Y6.1612 
G01 X-18.6606 Y6.1837 
G01 X-18.6606 Y6.1570 
G00 Z2.5400 
G00 X-23.0135 Y5.8369 
G01 Z-0.0800 F254.00 
G01 X-23.3770 Y6.2004 F2000.00 
G01 X-23.4074 Y6.2130 
G01 X-23.4523 Y6.2579 
G01 X-23.4752 Y6.2808 
G01 X-23.4959 Y6.3306 
G01 X-23.5120 Y6.3695 
G01 X-23.5120 Y6.4170 
G01 X-23.5120 Y6.4655 
G01 X-23.5120 Y10.2576 
G01 X-23.6029 Y10.4770 
G01 X-25.5284 Y12.4025 
G01 X-25.5651 Y12.4912 
G01 X-25.5651 Y20.7469 
G01 X-25.6560 Y20.9663 
G01 X-25.8239 Y21.1342 
G01 X-25.8918 Y21.2021 
G01 X-28.5228 Y23.8331 
G01 X-28.6907 Y24.0010 
G01 X-28.9101 Y24.0919 
G01 X-30.6742 Y24.0919 
G01 X-30.6994 Y24.1024 
G01 X-30.7629 Y24.1286 
G01 X-30.8307 Y24.1965 
G01 X-30.8675 Y24.2852 
G01 X-30.8675 Y24.3812 
G01 X-30.8519 Y24.4188 
G01 X-30.8307 Y24.4699 
G01 X-30.7975 Y24.5501 
G01 X-30.7975 Y26.2499 
G01 X-30.8216 Y26.3081 
G01 X-30.8229 Y26.3112 
G01 X-30.8229 Y28.7381 
G01 X-30.7975 Y28.7994 
G01 X-30.7975 Y29.6206 
G01 X-30.8229 Y29.6819 
G01 X-30.8229 Y32.5351 
G01 X-30.7862 Y32.6238 
G01 X-30.7079 Y32.8127 
G01 X-30.7079 Y33.2273 
G01 X-30.7862 Y33.4162 
G01 X-30.8218 Y33.5023 
G01 X-30.8229 Y33.5049 
G01 X-30.8229 Y33.8540 
G01 X-30.7862 Y33.9427 
G01 X-30.7183 Y34.0106 
G01 X-29.9548 Y34.7740 
G01 X-29.6940 Y35.0348 
G01 X-29.5529 Y35.3756 
G01 X-29.5529 Y72.5696 
G01 X-29.6940 Y72.9104 
G01 X-34.6504 Y77.8667 
G01 X-34.6871 Y77.9554 
G01 X-34.6871 Y78.0514 
G01 X-34.6504 Y78.1401 
G01 X-34.5825 Y78.2080 
G01 X-34.4938 Y78.2447 
G01 X-22.0962 Y78.2447 
G01 X-21.7554 Y78.3858 
G01 X-13.1840 Y86.9572 
G01 X-13.0429 Y87.2980 
G01 X-13.0429 Y94.1644 
G01 X-13.1840 Y94.5052 
G01 X-13.4448 Y94.7660 
G01 X-13.7856 Y94.9071 
G01 X-43.3644 Y94.9071 
G01 X-43.7052 Y94.7660 
G01 X-48.7852 Y89.6860 
G01 X-49.0460 Y89.4252 
G01 X-49.1871 Y89.0844 
G01 X-49.1871 Y87.6383 
G01 X-49.2238 Y87.5496 
G01 X-49.2887 Y87.3930 
G01 X-49.2916 Y87.3860 
G01 X-49.3254 Y87.3043 
G01 X-49.3933 Y87.2364 
G01 X-49.4820 Y87.1997 
G01 X-49.5780 Y87.1997 
G01 X-49.6032 Y87.2101 
G01 X-49.6667 Y87.2364 
G01 X-49.7346 Y87.3043 
G01 X-49.7713 Y87.3930 
G01 X-49.9064 Y87.7191 
G01 X-50.2029 Y88.0156 
G01 X-50.5903 Y88.1761 
G01 X-51.0097 Y88.1761 
G01 X-51.3971 Y88.0156 
G01 X-51.6936 Y87.7191 
G01 X-51.8654 Y87.3043 
G01 X-51.9333 Y87.2364 
G01 X-52.0220 Y87.1997 
G01 X-52.1180 Y87.1997 
G01 X-52.2067 Y87.2364 
G01 X-52.2746 Y87.3043 
G01 X-52.3113 Y87.3930 
G01 X-52.3762 Y87.5496 
G01 X-52.4113 Y87.6344 
G01 X-52.4129 Y87.6383 
G01 X-52.4129 Y94.1046 
G01 X-52.3762 Y94.1933 
G01 X-52.3083 Y94.2612 
G01 X-52.2196 Y94.2979 
G01 X-49.2333 Y94.2979 
G01 X-49.1446 Y94.2612 
G01 X-49.0767 Y94.1933 
G01 X-49.0130 Y94.1296 
G01 X-48.5381 Y93.9329 
G01 X-48.0241 Y93.9329 
G01 X-47.5492 Y94.1296 
G01 X-47.1857 Y94.4931 
G01 X-46.9890 Y94.9680 
G01 X-46.9890 Y95.4820 
G01 X-47.1857 Y95.9569 
G01 X-47.5492 Y96.3204 
G01 X-48.0241 Y96.5171 
G01 X-48.5381 Y96.5171 
G01 X-49.0130 Y96.3204 
G01 X-49.1446 Y96.1888 
G01 X-49.2333 Y96.1521 
G01 X-52.4089 Y96.1521 
G01 X-52.4976 Y96.1888 
G01 X-52.5655 Y96.2567 
G01 X-52.6292 Y96.3204 
G01 X-53.1041 Y96.5171 
G01 X-53.6181 Y96.5171 
G01 X-54.0930 Y96.3204 
G01 X-54.4565 Y95.9569 
G01 X-54.6532 Y95.4820 
G01 X-54.6532 Y94.9680 
G01 X-54.4565 Y94.4931 
G01 X-54.3717 Y94.4083 
G01 X-54.3038 Y94.3404 
G01 X-54.2782 Y94.2785 
G01 X-54.2671 Y94.2517 
G01 X-54.2671 Y87.6383 
G01 X-54.3038 Y87.5496 
G01 X-54.3941 Y87.3317 
G01 X-54.3941 Y85.3883 
G01 X-54.2336 Y85.0009 
G01 X-53.9371 Y84.7044 
G01 X-53.5497 Y84.5439 
G01 X-53.1303 Y84.5439 
G01 X-52.7429 Y84.7044 
G01 X-52.4464 Y85.0009 
G01 X-52.3113 Y85.3270 
G01 X-52.2746 Y85.4157 
G01 X-52.2067 Y85.4836 
G01 X-52.1447 Y85.5092 
G01 X-52.1180 Y85.5203 
G01 X-52.0220 Y85.5203 
G01 X-51.9333 Y85.4836 
G01 X-51.8654 Y85.4157 
G01 X-51.8324 Y85.3359 
G01 X-51.8287 Y85.3270 
G01 X-51.7638 Y85.1704 
G01 X-51.7285 Y85.0850 
G01 X-51.7271 Y85.0817 
G01 X-51.7271 Y84.8910 
G01 X-51.7638 Y84.8023 
G01 X-51.8317 Y84.7344 
G01 X-54.0683 Y82.4978 
G01 X-54.1570 Y82.4611 
G01 X-90.1004 Y82.4611 
G01 X-90.4412 Y82.3200 
G01 X-91.7873 Y80.9738 
G01 X-91.8760 Y80.9371 
G01 X-133.5133 Y80.9371 
G01 X-133.8541 Y80.7960 
G01 X-151.4773 Y63.1727 
G01 X-151.5660 Y63.1360 
G01 X-153.9628 Y63.1360 
G01 X-153.9985 Y63.1508 
G01 X-154.0515 Y63.1727 
G01 X-154.1194 Y63.2406 
G01 X-154.1831 Y63.3043 
G01 X-154.6580 Y63.5010 
G01 X-155.1720 Y63.5010 
G01 X-155.6469 Y63.3043 
G01 X-156.0104 Y62.9408 
G01 X-156.2071 Y62.4659 
G01 X-156.2071 Y61.9519 
G01 X-156.0104 Y61.4770 
G01 X-155.6469 Y61.1135 
G01 X-155.1720 Y60.9168 
G01 X-154.6580 Y60.9168 
G01 X-154.1831 Y61.1135 
G01 X-154.1194 Y61.1772 
G01 X-154.0531 Y61.2435 
G01 X-154.0006 Y61.2661 
G01 X-153.9628 Y61.2818 
G01 X-150.9456 Y61.2818 
G01 X-150.6048 Y61.4229 
G01 X-150.3440 Y61.6837 
G01 X-150.2762 Y61.7516 
G01 X-132.9816 Y79.0462 
G01 X-132.8929 Y79.0829 
G01 X-91.2556 Y79.0829 
G01 X-90.9148 Y79.2240 
G01 X-90.6540 Y79.4848 
G01 X-90.5862 Y79.5527 
G01 X-89.5687 Y80.5702 
G01 X-89.4800 Y80.6069 
G01 X-53.5366 Y80.6069 
G01 X-53.1958 Y80.7480 
G01 X-50.2748 Y83.6690 
G01 X-50.0140 Y83.9298 
G01 X-49.8729 Y84.2706 
G01 X-49.8729 Y85.0817 
G01 X-49.8362 Y85.1704 
G01 X-49.7713 Y85.3270 
G01 X-49.7346 Y85.4157 
G01 X-49.6667 Y85.4836 
G01 X-49.6047 Y85.5092 
G01 X-49.5780 Y85.5203 
G01 X-49.4820 Y85.5203 
G01 X-49.3933 Y85.4836 
G01 X-49.3254 Y85.4157 
G01 X-49.2927 Y85.3367 
G01 X-49.2887 Y85.3270 
G01 X-49.1536 Y85.0009 
G01 X-48.8936 Y84.7409 
G01 X-48.8569 Y84.6522 
G01 X-48.8569 Y82.8492 
G01 X-48.8936 Y82.7605 
G01 X-48.9615 Y82.6926 
G01 X-52.1535 Y79.5006 
G01 X-52.2422 Y79.4639 
G01 X-54.3162 Y79.4639 
G01 X-54.3414 Y79.4744 
G01 X-54.4049 Y79.5006 
G01 X-54.4728 Y79.5685 
G01 X-54.6547 Y79.7504 
G01 X-55.0377 Y79.9091 
G01 X-55.4523 Y79.9091 
G01 X-55.8353 Y79.7505 
G01 X-56.1285 Y79.4573 
G01 X-56.2871 Y79.0743 
G01 X-56.2871 Y78.6597 
G01 X-56.1285 Y78.2767 
G01 X-55.8353 Y77.9835 
G01 X-55.4523 Y77.8249 
G01 X-55.0377 Y77.8249 
G01 X-54.6547 Y77.9835 
G01 X-54.4728 Y78.1655 
G01 X-54.4049 Y78.2334 
G01 X-54.3429 Y78.2590 
G01 X-54.3162 Y78.2701 
G01 X-51.8243 Y78.2701 
G01 X-51.6049 Y78.3610 
G01 X-47.9219 Y82.0440 
G01 X-47.7540 Y82.2119 
G01 X-47.6631 Y82.4313 
G01 X-47.6631 Y84.6522 
G01 X-47.6264 Y84.7409 
G01 X-47.5585 Y84.8088 
G01 X-47.3664 Y85.0009 
G01 X-47.2059 Y85.3883 
G01 X-47.2059 Y87.3317 
G01 X-47.2962 Y87.5496 
G01 X-47.3317 Y87.6353 
G01 X-47.3329 Y87.6383 
G01 X-47.3329 Y88.4640 
G01 X-47.2962 Y88.5527 
G01 X-47.2283 Y88.6206 
G01 X-42.8327 Y93.0162 
G01 X-42.7440 Y93.0529 
G01 X-15.0904 Y93.0529 
G01 X-15.0017 Y93.0162 
G01 X-14.9338 Y92.9483 
G01 X-14.8971 Y92.8596 
G01 X-14.8971 Y87.9184 
G01 X-14.9338 Y87.8297 
G01 X-14.9752 Y87.7883 
G01 X-17.5500 Y85.2135 
G01 X-17.5766 Y85.1869 
G01 X-17.6179 Y85.1456 
G01 X-17.7066 Y85.1089 
G01 X-17.8026 Y85.1089 
G01 X-17.8913 Y85.1456 
G01 X-17.9592 Y85.2135 
G01 X-17.9959 Y85.3022 
G01 X-17.9959 Y87.3317 
G01 X-18.1564 Y87.7191 
G01 X-18.4529 Y88.0156 
G01 X-18.8403 Y88.1761 
G01 X-19.2597 Y88.1761 
G01 X-19.6471 Y88.0156 
G01 X-19.9436 Y87.7191 
G01 X-20.1154 Y87.3043 
G01 X-20.1833 Y87.2364 
G01 X-20.2720 Y87.1997 
G01 X-20.3680 Y87.1997 
G01 X-20.4567 Y87.2364 
G01 X-20.5246 Y87.3043 
G01 X-20.5259 Y87.3076 
G01 X-20.6262 Y87.5496 
G01 X-20.6615 Y87.6350 
G01 X-20.6629 Y87.6383 
G01 X-20.6629 Y89.0844 
G01 X-20.8040 Y89.4252 
G01 X-22.0062 Y90.6273 
G01 X-22.0534 Y90.6745 
G01 X-22.0740 Y90.6952 
G01 X-22.3348 Y90.9560 
G01 X-22.6756 Y91.0971 
G01 X-38.2844 Y91.0971 
G01 X-38.6252 Y90.9560 
G01 X-39.8273 Y89.7538 
G01 X-39.8745 Y89.7066 
G01 X-39.8952 Y89.6860 
G01 X-40.1560 Y89.4252 
G01 X-40.2971 Y89.0844 
G01 X-40.2971 Y87.6383 
G01 X-40.3338 Y87.5496 
G01 X-40.4241 Y87.3317 
G01 X-40.4241 Y85.3883 
G01 X-40.3338 Y85.1704 
G01 X-40.2983 Y85.0847 
G01 X-40.2971 Y85.0817 
G01 X-40.2971 Y84.3054 
G01 X-40.3338 Y84.2167 
G01 X-40.4017 Y84.1488 
G01 X-40.4904 Y84.1121 
G01 X-41.8404 Y84.1121 
G01 X-42.1812 Y83.9710 
G01 X-49.1744 Y76.9777 
G01 X-49.2423 Y76.9098 
G01 X-49.3310 Y76.8731 
G01 X-129.9784 Y76.8731 
G01 X-130.3192 Y76.7320 
G01 X-130.6478 Y76.4033 
G01 X-148.0810 Y58.9702 
G01 X-148.2221 Y58.6294 
G01 X-148.2221 Y49.9449 
G01 X-148.2588 Y49.8562 
G01 X-148.3267 Y49.7883 
G01 X-154.8973 Y43.2177 
G01 X-154.9860 Y43.1810 
G01 X-155.1720 Y43.1810 
G01 X-155.6469 Y42.9843 
G01 X-156.0104 Y42.6208 
G01 X-156.2071 Y42.1459 
G01 X-156.2071 Y41.6319 
G01 X-156.0104 Y41.1570 
G01 X-155.6469 Y40.7935 
G01 X-155.1720 Y40.5968 
G01 X-154.6580 Y40.5968 
G01 X-154.1831 Y40.7935 
G01 X-153.8196 Y41.1570 
G01 X-153.6229 Y41.6319 
G01 X-153.6229 Y41.8179 
G01 X-153.5862 Y41.9066 
G01 X-153.5183 Y41.9745 
G01 X-146.7698 Y48.7229 
G01 X-146.5090 Y48.9837 
G01 X-146.3679 Y49.3245 
G01 X-146.3679 Y58.0090 
G01 X-146.3312 Y58.0977 
G01 X-146.2633 Y58.1656 
G01 X-129.4467 Y74.9822 
G01 X-129.3580 Y75.0189 
G01 X-76.7227 Y75.0189 
G01 X-76.6340 Y74.9822 
G01 X-76.5661 Y74.9143 
G01 X-76.5294 Y74.8256 
G01 X-76.5294 Y74.7296 
G01 X-76.5661 Y74.6409 
G01 X-76.6340 Y74.5730 
G01 X-77.1525 Y74.0545 
G01 X-77.1525 Y73.2655 
G01 X-76.5945 Y72.7075 
G01 X-75.8055 Y72.7075 
G01 X-75.5545 Y72.9585 
G01 X-75.4899 Y73.0231 
G01 X-75.4866 Y73.0264 
G01 X-75.3979 Y73.0631 
G01 X-74.4621 Y73.0631 
G01 X-74.3734 Y73.0264 
G01 X-74.3055 Y72.9585 
G01 X-74.0545 Y72.7075 
G01 X-73.6036 Y72.7075 
G01 X-73.5149 Y72.6708 
G01 X-73.4470 Y72.6029 
G01 X-71.7536 Y70.9095 
G01 X-71.7169 Y70.8208 
G01 X-71.7169 Y64.4099 
G01 X-71.7536 Y64.3212 
G01 X-71.9921 Y64.0827 
G01 X-72.1487 Y63.7046 
G01 X-72.1487 Y63.2954 
G01 X-71.9921 Y62.9173 
G01 X-71.7027 Y62.6279 
G01 X-71.3246 Y62.4713 
G01 X-70.9154 Y62.4713 
G01 X-70.5373 Y62.6279 
G01 X-70.2479 Y62.9173 
G01 X-70.0913 Y63.2954 
G01 X-70.0913 Y63.7046 
G01 X-70.2479 Y64.0827 
G01 X-70.4864 Y64.3212 
G01 X-70.5231 Y64.4099 
G01 X-70.5231 Y71.2387 
G01 X-70.6140 Y71.4581 
G01 X-70.7927 Y71.6369 
G01 X-71.4175 Y72.2616 
G01 X-71.4745 Y72.3187 
G01 X-71.4854 Y72.3295 
G01 X-71.5221 Y72.4182 
G01 X-71.5221 Y72.5142 
G01 X-71.4854 Y72.6029 
G01 X-71.4175 Y72.6708 
G01 X-71.3288 Y72.7075 
G01 X-70.7255 Y72.7075 
G01 X-70.4066 Y73.0264 
G01 X-70.3179 Y73.0631 
G01 X-69.3821 Y73.0631 
G01 X-69.2934 Y73.0264 
G01 X-69.2255 Y72.9585 
G01 X-69.2136 Y72.9466 
G01 X-69.1769 Y72.8579 
G01 X-69.1769 Y64.4098 
G01 X-69.1873 Y64.3846 
G01 X-69.2136 Y64.3212 
G01 X-69.2815 Y64.2533 
G01 X-69.4521 Y64.0827 
G01 X-69.6087 Y63.7046 
G01 X-69.6087 Y63.2954 
G01 X-69.4521 Y62.9173 
G01 X-69.1627 Y62.6279 
G01 X-68.7846 Y62.4713 
G01 X-68.3754 Y62.4713 
G01 X-67.9973 Y62.6279 
G01 X-67.7079 Y62.9173 
G01 X-67.5513 Y63.2954 
G01 X-67.5513 Y63.7046 
G01 X-67.7079 Y64.0827 
G01 X-67.8785 Y64.2533 
G01 X-67.9464 Y64.3212 
G01 X-67.9720 Y64.3831 
G01 X-67.9831 Y64.4098 
G01 X-67.9831 Y72.8579 
G01 X-67.9464 Y72.9466 
G01 X-67.6275 Y73.2655 
G01 X-67.6275 Y74.0545 
G01 X-68.1460 Y74.5730 
G01 X-68.2032 Y74.6303 
G01 X-68.2139 Y74.6409 
G01 X-68.2506 Y74.7296 
G01 X-68.2506 Y74.8256 
G01 X-68.2139 Y74.9143 
G01 X-68.1460 Y74.9822 
G01 X-68.0573 Y75.0189 
G01 X-66.5627 Y75.0189 
G01 X-66.4740 Y74.9822 
G01 X-66.4061 Y74.9143 
G01 X-66.3694 Y74.8256 
G01 X-66.3694 Y74.7296 
G01 X-66.4061 Y74.6409 
G01 X-66.4740 Y74.5730 
G01 X-66.9925 Y74.0545 
G01 X-66.9925 Y73.2655 
G01 X-66.4345 Y72.7075 
G01 X-65.6455 Y72.7075 
G01 X-65.3266 Y73.0264 
G01 X-65.2379 Y73.0631 
G01 X-64.3021 Y73.0631 
G01 X-64.2134 Y73.0264 
G01 X-64.1455 Y72.9585 
G01 X-64.0994 Y72.9124 
G01 X-64.0627 Y72.8237 
G01 X-64.0060 Y72.6869 
G01 X-62.8630 Y71.5439 
G01 X-62.6951 Y71.3760 
G01 X-62.4757 Y71.2851 
G01 X-55.1632 Y71.2851 
G01 X-55.0745 Y71.2484 
G01 X-55.0066 Y71.1805 
G01 X-54.2276 Y70.4015 
G01 X-54.1909 Y70.3128 
G01 X-54.1909 Y69.4700 
G01 X-54.2013 Y69.4448 
G01 X-54.2276 Y69.3813 
G01 X-54.2955 Y69.3134 
G01 X-54.3842 Y69.2767 
G01 X-54.4802 Y69.2767 
G01 X-54.5054 Y69.2871 
G01 X-54.5689 Y69.3134 
G01 X-54.6368 Y69.3813 
G01 X-54.7189 Y69.4634 
G01 X-55.1019 Y69.6221 
G01 X-55.5165 Y69.6221 
G01 X-55.8995 Y69.4634 
G01 X-56.0814 Y69.2815 
G01 X-56.1493 Y69.2136 
G01 X-56.2113 Y69.1880 
G01 X-56.2380 Y69.1769 
G01 X-57.1726 Y69.1769 
G01 X-57.2613 Y69.2136 
G01 X-57.3292 Y69.2815 
G01 X-57.3659 Y69.3702 
G01 X-57.3659 Y69.5517 
G01 X-57.5264 Y69.9391 
G01 X-57.8229 Y70.2356 
G01 X-58.2103 Y70.3961 
G01 X-58.6297 Y70.3961 
G01 X-59.0171 Y70.2356 
G01 X-59.3136 Y69.9391 
G01 X-59.4741 Y69.5517 
G01 X-59.4741 Y67.6083 
G01 X-59.3136 Y67.2209 
G01 X-59.0171 Y66.9244 
G01 X-58.6297 Y66.7639 
G01 X-58.2103 Y66.7639 
G01 X-57.8229 Y66.9244 
G01 X-57.5264 Y67.2209 
G01 X-57.3659 Y67.6083 
G01 X-57.3659 Y67.7898 
G01 X-57.3292 Y67.8785 
G01 X-57.2613 Y67.9464 
G01 X-57.1726 Y67.9831 
G01 X-56.2380 Y67.9831 
G01 X-56.2128 Y67.9726 
G01 X-56.1493 Y67.9464 
G01 X-56.0814 Y67.8785 
G01 X-55.8995 Y67.6965 
G01 X-55.5165 Y67.5379 
G01 X-55.1019 Y67.5379 
G01 X-54.7189 Y67.6965 
G01 X-54.6368 Y67.7787 
G01 X-54.5689 Y67.8466 
G01 X-54.5069 Y67.8722 
G01 X-54.4802 Y67.8833 
G01 X-54.3842 Y67.8833 
G01 X-54.2955 Y67.8466 
G01 X-54.2276 Y67.7787 
G01 X-54.2020 Y67.7167 
G01 X-54.1909 Y67.6900 
G01 X-54.1909 Y67.3552 
G01 X-54.2276 Y67.2665 
G01 X-54.2955 Y67.1986 
G01 X-56.2181 Y65.2760 
G01 X-56.3860 Y65.1081 
G01 X-56.4769 Y64.8887 
G01 X-56.4769 Y64.4098 
G01 X-56.4873 Y64.3846 
G01 X-56.5136 Y64.3212 
G01 X-56.5815 Y64.2533 
G01 X-56.7521 Y64.0827 
G01 X-56.9087 Y63.7046 
G01 X-56.9087 Y63.2954 
G01 X-56.7521 Y62.9173 
G01 X-56.4627 Y62.6279 
G01 X-56.0846 Y62.4713 
G01 X-55.6754 Y62.4713 
G01 X-55.2973 Y62.6279 
G01 X-55.0079 Y62.9173 
G01 X-54.8513 Y63.2954 
G01 X-54.8513 Y63.7046 
G01 X-55.0079 Y64.0827 
G01 X-55.1610 Y64.2358 
G01 X-55.2288 Y64.3036 
G01 X-55.2545 Y64.3656 
G01 X-55.2656 Y64.3923 
G01 X-55.2656 Y64.4883 
G01 X-55.2288 Y64.5770 
G01 X-53.1719 Y66.6340 
G01 X-53.0832 Y66.6707 
G01 X-52.9872 Y66.6707 
G01 X-52.8985 Y66.6340 
G01 X-52.8306 Y66.5661 
G01 X-52.7939 Y66.4774 
G01 X-52.7939 Y66.2122 
G01 X-52.8306 Y66.1235 
G01 X-52.8985 Y66.0556 
G01 X-53.6781 Y65.2760 
G01 X-53.8460 Y65.1081 
G01 X-53.9369 Y64.8887 
G01 X-53.9369 Y64.4099 
G01 X-53.9736 Y64.3212 
G01 X-54.0415 Y64.2533 
G01 X-54.2121 Y64.0827 
G01 X-54.3687 Y63.7046 
G01 X-54.3687 Y63.2954 
G01 X-54.2687 Y63.0539 
G01 X-54.2498 Y63.0084 
G01 X-54.2319 Y62.9652 
G01 X-54.2319 Y62.8692 
G01 X-54.2687 Y62.7805 
G01 X-60.5355 Y56.5136 
G01 X-60.6242 Y56.4769 
G01 X-64.2537 Y56.4769 
G01 X-64.4731 Y56.3860 
G01 X-64.6671 Y56.1920 
G01 X-66.2672 Y54.5919 
G01 X-66.3090 Y54.5501 
G01 X-66.3351 Y54.5240 
G01 X-66.4238 Y54.4873 
G01 X-66.5198 Y54.4873 
G01 X-66.6085 Y54.5240 
G01 X-66.6764 Y54.5919 
G01 X-66.7131 Y54.6806 
G01 X-66.7131 Y57.4858 
G01 X-66.6764 Y57.5745 
G01 X-66.6085 Y57.6424 
G01 X-63.1619 Y61.0890 
G01 X-62.9940 Y61.2569 
G01 X-62.9031 Y61.4763 
G01 X-62.9031 Y62.5902 
G01 X-62.8926 Y62.6154 
G01 X-62.8664 Y62.6788 
G01 X-62.7985 Y62.7467 
G01 X-62.6279 Y62.9173 
G01 X-62.4713 Y63.2954 
G01 X-62.4713 Y63.7046 
G01 X-62.6140 Y64.0491 
G01 X-62.6316 Y64.0917 
G01 X-62.6507 Y64.1378 
G01 X-62.6507 Y64.2338 
G01 X-62.6140 Y64.3225 
G01 X-62.5461 Y64.3904 
G01 X-62.4841 Y64.4160 
G01 X-62.4574 Y64.4271 
G01 X-62.0690 Y64.4271 
G01 X-62.0212 Y64.4271 
G01 X-61.9760 Y64.4084 
G01 X-61.9325 Y64.3904 
G01 X-61.8976 Y64.3555 
G01 X-61.8515 Y64.3093 
G01 X-61.8360 Y64.2721 
G01 X-61.8147 Y64.2207 
G01 X-61.8147 Y64.1729 
G01 X-61.8147 Y64.1247 
G01 X-61.8335 Y64.0792 
G01 X-61.8514 Y64.0360 
G01 X-61.9887 Y63.7046 
G01 X-61.9887 Y63.2954 
G01 X-61.8321 Y62.9173 
G01 X-61.5427 Y62.6279 
G01 X-61.1646 Y62.4713 
G01 X-60.7554 Y62.4713 
G01 X-60.3773 Y62.6279 
G01 X-60.0879 Y62.9173 
G01 X-59.9313 Y63.2954 
G01 X-59.9313 Y63.7046 
G01 X-60.0879 Y64.0827 
G01 X-60.2791 Y64.2739 
G01 X-60.3470 Y64.3418 
G01 X-60.4540 Y64.6001 
G01 X-60.6898 Y64.8359 
G01 X-60.9781 Y65.1242 
G01 X-61.0427 Y65.1888 
G01 X-61.0460 Y65.1921 
G01 X-61.0827 Y65.2808 
G01 X-61.0827 Y65.3768 
G01 X-61.0460 Y65.4655 
G01 X-60.9791 Y65.5323 
G01 X-60.8894 Y65.5701 
G01 X-60.6242 Y65.5701 
G01 X-60.5355 Y65.5334 
G01 X-60.5166 Y65.5145 
G01 X-59.3115 Y64.3093 
G01 X-59.2747 Y64.2206 
G01 X-59.2747 Y64.1246 
G01 X-59.4487 Y63.7046 
G01 X-59.4487 Y63.2954 
G01 X-59.2921 Y62.9173 
G01 X-59.0027 Y62.6279 
G01 X-58.6246 Y62.4713 
G01 X-58.2154 Y62.4713 
G01 X-57.8373 Y62.6279 
G01 X-57.5479 Y62.9173 
G01 X-57.3913 Y63.2954 
G01 X-57.3913 Y63.7046 
G01 X-57.5479 Y64.0827 
G01 X-57.7391 Y64.2739 
G01 X-57.8070 Y64.3418 
G01 X-57.9140 Y64.6001 
G01 X-58.1498 Y64.8359 
G01 X-59.8190 Y66.5051 
G01 X-59.9869 Y66.6730 
G01 X-60.2049 Y66.7633 
G01 X-60.2407 Y66.7781 
G01 X-60.2936 Y66.8001 
G01 X-60.3615 Y66.8680 
G01 X-60.3764 Y66.9040 
G01 X-60.3982 Y66.9566 
G01 X-60.3982 Y67.0526 
G01 X-60.3770 Y67.1038 
G01 X-60.3615 Y67.1413 
G01 X-60.2936 Y67.2092 
G01 X-60.3109 Y67.2279 
G01 X-60.4014 Y67.1373 
G01 X-60.5449 Y67.0414 
G01 X-60.5917 Y67.0221 
G01 X-60.5917 Y66.9572 
G01 X-60.6284 Y66.8685 
G01 X-60.6963 Y66.8006 
G01 X-60.7850 Y66.7639 
G01 X-61.1350 Y66.7639 
G01 X-61.2237 Y66.8006 
G01 X-61.2916 Y66.8685 
G01 X-61.3283 Y66.9572 
G01 X-61.3283 Y67.0220 
G01 X-61.3751 Y67.0414 
G01 X-61.5186 Y67.1373 
G01 X-61.6407 Y67.2594 
G01 X-61.7366 Y67.4029 
G01 X-61.8026 Y67.5624 
G01 X-61.8363 Y67.7317 
G01 X-61.8363 Y68.2117 
G01 X-61.8617 Y68.2117 
G01 X-61.8617 Y67.7470 
G01 X-61.8395 Y67.6068 
G01 X-61.7956 Y67.4719 
G01 X-61.7312 Y67.3454 
G01 X-61.6478 Y67.2306 
G01 X-61.6270 Y67.2098 
G01 X-61.5601 Y67.1429 
G01 X-61.5442 Y67.1059 
G01 X-61.5223 Y67.0532 
G01 X-61.5223 Y66.9572 
G01 X-61.5523 Y66.8848 
G01 X-61.5591 Y66.8685 
G01 X-61.6259 Y66.8017 
G01 X-61.6629 Y66.7857 
G01 X-61.7156 Y66.7639 
G01 X-62.0578 Y66.7639 
G01 X-62.1465 Y66.8006 
G01 X-62.2144 Y66.8685 
G01 X-62.5147 Y67.1688 
G01 X-62.5514 Y67.2575 
G01 X-62.5514 Y67.3535 
G01 X-62.5147 Y67.4422 
G01 X-62.4459 Y67.6083 
G01 X-62.4459 Y69.5517 
G01 X-62.6064 Y69.9391 
G01 X-62.9029 Y70.2356 
G01 X-63.2903 Y70.3961 
G01 X-63.7097 Y70.3961 
G01 X-64.0971 Y70.2356 
G01 X-64.3936 Y69.9391 
G01 X-64.5287 Y69.6130 
G01 X-64.5654 Y69.5243 
G01 X-64.6333 Y69.4564 
G01 X-64.6953 Y69.4308 
G01 X-64.7220 Y69.4197 
G01 X-64.8180 Y69.4197 
G01 X-64.9067 Y69.4564 
G01 X-64.9746 Y69.5243 
G01 X-65.0073 Y69.6033 
G01 X-65.0113 Y69.6130 
G01 X-65.1464 Y69.9391 
G01 X-65.4429 Y70.2356 
G01 X-65.8303 Y70.3961 
G01 X-66.2497 Y70.3961 
G01 X-66.6371 Y70.2356 
G01 X-66.9336 Y69.9391 
G01 X-67.0941 Y69.5517 
G01 X-67.0941 Y67.6083 
G01 X-66.9336 Y67.2209 
G01 X-66.6371 Y66.9244 
G01 X-66.4892 Y66.8631 
G01 X-66.4367 Y66.8414 
G01 X-66.4005 Y66.8264 
G01 X-66.3557 Y66.7816 
G01 X-66.3326 Y66.7585 
G01 X-64.1512 Y64.5770 
G01 X-64.1144 Y64.4883 
G01 X-64.1144 Y64.3923 
G01 X-64.1249 Y64.3671 
G01 X-64.1512 Y64.3036 
G01 X-64.2190 Y64.2358 
G01 X-64.3721 Y64.0827 
G01 X-64.5287 Y63.7046 
G01 X-64.5287 Y63.2954 
G01 X-64.3721 Y62.9173 
G01 X-64.2015 Y62.7467 
G01 X-64.1336 Y62.6788 
G01 X-64.1080 Y62.6169 
G01 X-64.0969 Y62.5902 
G01 X-64.0969 Y61.8942 
G01 X-64.1336 Y61.8055 
G01 X-64.1480 Y61.7912 
G01 X-64.9972 Y60.9419 
G01 X-65.0508 Y60.8884 
G01 X-65.0651 Y60.8740 
G01 X-65.1538 Y60.8373 
G01 X-65.2498 Y60.8373 
G01 X-65.3385 Y60.8740 
G01 X-65.4064 Y60.9419 
G01 X-65.4431 Y61.0306 
G01 X-65.4431 Y62.5902 
G01 X-65.4326 Y62.6154 
G01 X-65.4064 Y62.6788 
G01 X-65.3385 Y62.7467 
G01 X-65.1679 Y62.9173 
G01 X-65.0113 Y63.2954 
G01 X-65.0113 Y63.7046 
G01 X-65.1679 Y64.0827 
G01 X-65.4573 Y64.3721 
G01 X-65.8354 Y64.5287 
G01 X-66.2446 Y64.5287 
G01 X-66.6227 Y64.3721 
G01 X-66.9121 Y64.0827 
G01 X-67.0687 Y63.7046 
G01 X-67.0687 Y63.2954 
G01 X-66.9121 Y62.9173 
G01 X-66.7415 Y62.7467 
G01 X-66.6736 Y62.6788 
G01 X-66.6480 Y62.6169 
G01 X-66.6369 Y62.5902 
G01 X-66.6369 Y61.2592 
G01 X-66.6736 Y61.1705 
G01 X-66.7415 Y61.1026 
G01 X-68.9181 Y58.9260 
G01 X-69.0860 Y58.7581 
G01 X-69.1769 Y58.5387 
G01 X-69.1769 Y52.7912 
G01 X-69.2136 Y52.7025 
G01 X-69.3390 Y52.5771 
G01 X-69.4753 Y52.2481 
G01 X-69.4753 Y51.8919 
G01 X-69.3390 Y51.5628 
G01 X-69.0871 Y51.3110 
G01 X-68.7581 Y51.1747 
G01 X-68.4019 Y51.1747 
G01 X-68.2849 Y51.2232 
G01 X-68.2375 Y51.2428 
G01 X-68.1962 Y51.2599 
G01 X-68.1002 Y51.2599 
G01 X-68.0115 Y51.2232 
G01 X-67.9436 Y51.1553 
G01 X-67.9180 Y51.0933 
G01 X-67.9069 Y51.0666 
G01 X-67.9069 Y49.4078 
G01 X-67.9217 Y49.3721 
G01 X-67.9436 Y49.3191 
G01 X-68.0115 Y49.2512 
G01 X-68.1002 Y49.2145 
G01 X-68.1962 Y49.2145 
G01 X-68.2378 Y49.2317 
G01 X-68.2849 Y49.2512 
G01 X-68.3754 Y49.2887 
G01 X-68.7846 Y49.2887 
G01 X-69.1627 Y49.1321 
G01 X-69.4521 Y48.8427 
G01 X-69.6087 Y48.4646 
G01 X-69.6087 Y48.2146 
G01 X-69.6059 Y48.2062 
G01 X-69.6087 Y48.1668 
G01 X-69.6087 Y48.1274 
G01 X-69.6121 Y48.1192 
G01 X-69.6127 Y48.1104 
G01 X-69.6303 Y48.0752 
G01 X-69.6454 Y48.0387 
G01 X-69.6517 Y48.0324 
G01 X-69.6556 Y48.0245 
G01 X-69.6854 Y47.9987 
G01 X-69.7133 Y47.9708 
G01 X-69.7215 Y47.9674 
G01 X-69.7282 Y47.9616 
G01 X-69.7656 Y47.9492 
G01 X-69.8020 Y47.9341 
G01 X-69.8108 Y47.9341 
G01 X-69.8192 Y47.9313 
G01 X-69.8586 Y47.9341 
G01 X-69.8980 Y47.9341 
G01 X-69.9062 Y47.9375 
G01 X-69.9150 Y47.9381 
G01 X-69.9502 Y47.9557 
G01 X-69.9867 Y47.9708 
G01 X-69.9929 Y47.9771 
G01 X-70.0008 Y47.9810 
G01 X-70.0267 Y48.0108 
G01 X-70.0546 Y48.0387 
G01 X-70.0579 Y48.0469 
G01 X-70.0637 Y48.0535 
G01 X-70.0762 Y48.0910 
G01 X-70.0913 Y48.1274 
G01 X-70.0913 Y48.1362 
G01 X-70.0941 Y48.1446 
G01 X-70.0913 Y48.1840 
G01 X-70.0913 Y48.4646 
G01 X-70.2479 Y48.8427 
G01 X-70.5373 Y49.1321 
G01 X-70.9154 Y49.2887 
G01 X-71.3246 Y49.2887 
G01 X-71.7027 Y49.1321 
G01 X-71.9921 Y48.8427 
G01 X-72.1487 Y48.4646 
G01 X-72.1487 Y48.1274 
G01 X-72.1854 Y48.0387 
G01 X-72.2533 Y47.9708 
G01 X-72.3420 Y47.9341 
G01 X-72.4380 Y47.9341 
G01 X-72.5267 Y47.9708 
G01 X-72.5946 Y48.0387 
G01 X-72.6313 Y48.1274 
G01 X-72.6313 Y48.4646 
G01 X-72.7879 Y48.8427 
G01 X-73.0773 Y49.1321 
G01 X-73.4554 Y49.2887 
G01 X-73.8646 Y49.2887 
G01 X-74.2427 Y49.1321 
G01 X-74.5321 Y48.8427 
G01 X-74.6887 Y48.4646 
G01 X-74.6887 Y48.1274 
G01 X-74.7254 Y48.0387 
G01 X-74.7933 Y47.9708 
G01 X-75.0726 Y47.6915 
G01 X-75.1405 Y47.6236 
G01 X-75.2292 Y47.5869 
G01 X-79.7108 Y47.5869 
G01 X-79.7995 Y47.6236 
G01 X-79.8674 Y47.6915 
G01 X-99.6964 Y67.5205 
G01 X-99.7331 Y67.6092 
G01 X-99.7331 Y67.8588 
G01 X-99.7183 Y67.8945 
G01 X-99.6964 Y67.9475 
G01 X-99.6285 Y68.0154 
G01 X-99.5710 Y68.0729 
G01 X-99.4347 Y68.4019 
G01 X-99.4347 Y68.7581 
G01 X-99.5710 Y69.0871 
G01 X-99.8229 Y69.3390 
G01 X-100.1519 Y69.4753 
G01 X-100.5081 Y69.4753 
G01 X-100.8371 Y69.3390 
G01 X-100.9953 Y69.1808 
G01 X-101.0632 Y69.1129 
G01 X-101.1252 Y69.0873 
G01 X-101.1519 Y69.0762 
G01 X-101.2479 Y69.0762 
G01 X-101.3366 Y69.1129 
G01 X-101.5627 Y69.3390 
G01 X-101.8917 Y69.4753 
G01 X-102.2479 Y69.4753 
G01 X-102.5769 Y69.3390 
G01 X-102.8288 Y69.0871 
G01 X-102.9651 Y68.7581 
G01 X-102.9651 Y68.4065 
G01 X-103.0018 Y68.3178 
G01 X-103.0697 Y68.2499 
G01 X-103.1584 Y68.2132 
G01 X-103.2544 Y68.2132 
G01 X-103.3431 Y68.2499 
G01 X-103.4110 Y68.3178 
G01 X-104.1792 Y69.0860 
G01 X-104.3985 Y69.1769 
G01 X-126.4564 Y69.1769 
G01 X-126.5451 Y69.2136 
G01 X-126.6130 Y69.2815 
G01 X-126.6705 Y69.3390 
G01 X-126.9995 Y69.4753 
G01 X-127.3557 Y69.4753 
G01 X-127.6847 Y69.3390 
G01 X-127.9366 Y69.0871 
G01 X-128.0729 Y68.7581 
G01 X-128.0729 Y68.4019 
G01 X-127.9366 Y68.0729 
G01 X-127.6847 Y67.8210 
G01 X-127.3557 Y67.6847 
G01 X-126.9995 Y67.6847 
G01 X-126.6705 Y67.8210 
G01 X-126.5451 Y67.9464 
G01 X-126.4564 Y67.9831 
G01 X-104.8165 Y67.9831 
G01 X-104.7278 Y67.9464 
G01 X-81.2334 Y44.4520 
G01 X-81.0140 Y44.3611 
G01 X-71.7633 Y44.3611 
G01 X-71.5439 Y44.4520 
G01 X-71.3081 Y44.6878 
G01 X-68.8013 Y47.1946 
G01 X-68.7126 Y47.2313 
G01 X-68.3754 Y47.2313 
G01 X-68.2849 Y47.2688 
G01 X-68.2402 Y47.2873 
G01 X-68.1962 Y47.3055 
G01 X-68.1002 Y47.3055 
G01 X-68.0115 Y47.2688 
G01 X-67.9447 Y47.2020 
G01 X-67.9225 Y47.1500 
G01 X-67.9069 Y47.1122 
G01 X-67.9069 Y46.0192 
G01 X-67.9436 Y45.9305 
G01 X-68.0115 Y45.8626 
G01 X-71.3305 Y42.5436 
G01 X-71.4192 Y42.5069 
G01 X-78.8587 Y42.5069 
G01 X-79.0781 Y42.4160 
G01 X-79.3139 Y42.1802 
G01 X-84.1581 Y37.3360 
G01 X-84.3260 Y37.1681 
G01 X-84.4169 Y36.9487 
G01 X-84.4169 Y24.4292 
G01 X-84.4536 Y24.3405 
G01 X-84.5215 Y24.2726 
G01 X-99.5660 Y9.2281 
G01 X-99.6569 Y9.0087 
G01 X-99.6569 Y6.4568 
G01 X-99.6569 Y6.4093 
G01 X-99.6569 Y6.3608 
G01 X-99.6629 Y6.3463 
G01 X-99.6936 Y6.2721 
G01 X-99.7615 Y6.2042 
G01 X-99.7708 Y6.2004 
G01 X-100.1343 Y5.8369 
G01 X-100.3310 Y5.3620 
G01 X-100.3310 Y4.8480 
G01 X-100.1343 Y4.3731 
G01 X-99.7708 Y4.0096 
G01 X-99.2959 Y3.8129 
G01 X-98.7819 Y3.8129 
G01 X-98.3070 Y4.0096 
G01 X-97.9435 Y4.3731 
G01 X-97.7468 Y4.8480 
G01 X-97.7468 Y5.3620 
G01 X-97.9435 Y5.8369 
G01 X-98.3070 Y6.2004 
G01 X-98.3281 Y6.2091 
G01 X-98.3585 Y6.2217 
G01 X-98.4253 Y6.2885 
G01 X-98.4565 Y6.3623 
G01 X-98.4631 Y6.3783 
G01 X-98.4631 Y6.4257 
G01 X-98.4631 Y6.4743 
G01 X-98.4631 Y8.5908 
G01 X-98.4264 Y8.6795 
G01 X-83.4819 Y23.6240 
G01 X-83.3140 Y23.7919 
G01 X-83.2231 Y24.0113 
G01 X-83.2231 Y36.5308 
G01 X-83.1864 Y36.6195 
G01 X-83.1185 Y36.6874 
G01 X-78.5295 Y41.2764 
G01 X-78.4408 Y41.3131 
G01 X-71.0013 Y41.3131 
G01 X-70.7819 Y41.4040 
G01 X-66.8040 Y45.3819 
G01 X-66.7131 Y45.6013 
G01 X-66.7131 Y47.1122 
G01 X-66.6983 Y47.1479 
G01 X-66.6764 Y47.2009 
G01 X-66.6085 Y47.2688 
G01 X-66.5198 Y47.3055 
G01 X-66.4238 Y47.3055 
G01 X-66.3822 Y47.2883 
G01 X-66.3351 Y47.2688 
G01 X-66.2446 Y47.2313 
G01 X-65.8354 Y47.2313 
G01 X-65.7449 Y47.2688 
G01 X-65.7002 Y47.2873 
G01 X-65.6562 Y47.3055 
G01 X-65.5602 Y47.3055 
G01 X-65.4715 Y47.2688 
G01 X-65.4047 Y47.2020 
G01 X-65.3825 Y47.1500 
G01 X-65.3669 Y47.1122 
G01 X-65.3669 Y43.4792 
G01 X-65.4036 Y43.3905 
G01 X-65.4715 Y43.3226 
G01 X-68.7905 Y40.0036 
G01 X-68.8792 Y39.9669 
G01 X-77.5887 Y39.9669 
G01 X-77.8081 Y39.8760 
G01 X-78.0321 Y39.6520 
G01 X-81.5502 Y36.1339 
G01 X-81.5620 Y36.1221 
G01 X-81.6181 Y36.0660 
G01 X-81.7860 Y35.8981 
G01 X-81.8769 Y35.6787 
G01 X-81.8769 Y21.8892 
G01 X-81.9136 Y21.8005 
G01 X-81.9815 Y21.7326 
G01 X-94.4860 Y9.2281 
G01 X-94.5769 Y9.0087 
G01 X-94.5769 Y6.4568 
G01 X-94.5769 Y6.4093 
G01 X-94.5769 Y6.3608 
G01 X-94.5829 Y6.3463 
G01 X-94.6136 Y6.2721 
G01 X-94.6815 Y6.2042 
G01 X-94.6908 Y6.2004 
G01 X-95.0543 Y5.8369 
G01 X-95.2510 Y5.3620 
G01 X-95.2510 Y4.8480 
G01 X-95.0543 Y4.3731 
G01 X-94.6908 Y4.0096 
G01 X-94.2159 Y3.8129 
G01 X-93.7019 Y3.8129 
G01 X-93.2270 Y4.0096 
G01 X-92.8635 Y4.3731 
G01 X-92.6668 Y4.8480 
G01 X-92.6668 Y5.3620 
G01 X-92.8635 Y5.8369 
G01 X-93.2270 Y6.2004 
G01 X-93.2481 Y6.2091 
G01 X-93.2785 Y6.2217 
G01 X-93.3453 Y6.2885 
G01 X-93.3765 Y6.3623 
G01 X-93.3831 Y6.3783 
G01 X-93.3831 Y6.4257 
G01 X-93.3831 Y6.4743 
G01 X-93.3831 Y8.5908 
G01 X-93.3464 Y8.6795 
G01 X-93.2960 Y8.7299 
G01 X-90.0781 Y11.9478 
G01 X-90.0251 Y11.9697 
G01 X-89.9894 Y11.9845 
G01 X-89.8934 Y11.9845 
G01 X-89.8047 Y11.9478 
G01 X-89.7368 Y11.8799 
G01 X-89.7149 Y11.8269 
G01 X-89.7001 Y11.7912 
G01 X-89.7001 Y11.7475 
G01 X-89.6747 Y11.7475 
G01 X-89.6747 Y11.7509 
G01 X-89.2209 Y12.2047 
G01 X-89.2175 Y12.2047 
G01 X-89.2175 Y12.2301 
G01 X-89.2612 Y12.2301 
G01 X-89.3499 Y12.2668 
G01 X-89.4178 Y12.3347 
G01 X-89.4545 Y12.4234 
G01 X-89.4545 Y12.5194 
G01 X-89.4178 Y12.6081 
G01 X-89.3499 Y12.6760 
G01 X-80.9419 Y21.0840 
G01 X-80.7740 Y21.2519 
G01 X-80.6831 Y21.4713 
G01 X-80.6831 Y35.2608 
G01 X-80.6464 Y35.3495 
G01 X-80.5785 Y35.4174 
G01 X-77.3274 Y38.6685 
G01 X-77.2595 Y38.7364 
G01 X-77.1708 Y38.7731 
G01 X-68.4613 Y38.7731 
G01 X-68.2419 Y38.8640 
G01 X-64.5428 Y42.5631 
G01 X-64.5340 Y42.5719 
G01 X-64.4749 Y42.6310 
G01 X-64.3862 Y42.6677 
G01 X-64.2902 Y42.6677 
G01 X-64.2015 Y42.6310 
G01 X-64.1336 Y42.5631 
G01 X-64.0969 Y42.4744 
G01 X-64.0969 Y40.9392 
G01 X-64.1336 Y40.8505 
G01 X-64.2015 Y40.7826 
G01 X-70.0605 Y34.9236 
G01 X-70.1492 Y34.8869 
G01 X-75.3979 Y34.8869 
G01 X-75.4866 Y34.9236 
G01 X-75.5545 Y34.9915 
G01 X-75.8055 Y35.2425 
G01 X-76.5945 Y35.2425 
G01 X-77.1525 Y34.6845 
G01 X-77.1525 Y33.8955 
G01 X-76.5945 Y33.3375 
G01 X-75.8055 Y33.3375 
G01 X-75.4866 Y33.6564 
G01 X-75.3979 Y33.6931 
G01 X-70.2655 Y33.6931 
G01 X-70.1768 Y33.6564 
G01 X-70.1089 Y33.5885 
G01 X-70.0722 Y33.4998 
G01 X-70.0722 Y33.4038 
G01 X-70.1089 Y33.3151 
G01 X-70.1768 Y33.2472 
G01 X-71.0404 Y32.3836 
G01 X-71.1291 Y32.3469 
G01 X-75.3979 Y32.3469 
G01 X-75.4866 Y32.3836 
G01 X-75.5545 Y32.4515 
G01 X-75.8055 Y32.7025 
G01 X-76.5945 Y32.7025 
G01 X-77.1525 Y32.1445 
G01 X-77.1525 Y31.3555 
G01 X-76.5945 Y30.7975 
G01 X-75.8055 Y30.7975 
G01 X-75.4866 Y31.1164 
G01 X-75.3979 Y31.1531 
G01 X-71.2454 Y31.1531 
G01 X-71.1567 Y31.1164 
G01 X-71.0888 Y31.0485 
G01 X-71.0521 Y30.9598 
G01 X-71.0521 Y30.8638 
G01 X-71.0888 Y30.7751 
G01 X-71.1567 Y30.7072 
G01 X-72.0203 Y29.8436 
G01 X-72.1090 Y29.8069 
G01 X-75.3979 Y29.8069 
G01 X-75.4866 Y29.8436 
G01 X-75.5545 Y29.9115 
G01 X-75.8055 Y30.1625 
G01 X-76.5945 Y30.1625 
G01 X-77.1525 Y29.6045 
G01 X-77.1525 Y28.8155 
G01 X-76.5945 Y28.2575 
G01 X-75.8055 Y28.2575 
G01 X-75.4866 Y28.5764 
G01 X-75.3979 Y28.6131 
G01 X-72.3522 Y28.6131 
G01 X-72.2636 Y28.5764 
G01 X-72.1957 Y28.5085 
G01 X-72.1589 Y28.4198 
G01 X-72.1589 Y28.3238 
G01 X-72.1957 Y28.2351 
G01 X-72.2636 Y28.1672 
G01 X-73.1272 Y27.3036 
G01 X-73.2159 Y27.2669 
G01 X-75.3979 Y27.2669 
G01 X-75.4866 Y27.3036 
G01 X-75.8055 Y27.6225 
G01 X-76.5945 Y27.6225 
G01 X-77.1525 Y27.0645 
G01 X-77.1525 Y26.2755 
G01 X-76.5945 Y25.7175 
G01 X-75.8055 Y25.7175 
G01 X-75.5545 Y25.9685 
G01 X-75.4899 Y26.0331 
G01 X-75.4866 Y26.0364 
G01 X-75.3979 Y26.0731 
G01 X-73.4591 Y26.0731 
G01 X-73.3704 Y26.0364 
G01 X-73.3026 Y25.9685 
G01 X-73.2658 Y25.8798 
G01 X-73.2658 Y25.7838 
G01 X-73.3026 Y25.6951 
G01 X-73.3704 Y25.6272 
G01 X-74.2341 Y24.7636 
G01 X-74.3227 Y24.7269 
G01 X-75.3979 Y24.7269 
G01 X-75.4866 Y24.7636 
G01 X-75.5545 Y24.8315 
G01 X-75.8055 Y25.0825 
G01 X-76.5945 Y25.0825 
G01 X-77.1525 Y24.5245 
G01 X-77.1525 Y23.7355 
G01 X-76.5945 Y23.1775 
G01 X-75.8055 Y23.1775 
G01 X-75.5545 Y23.4285 
G01 X-75.4899 Y23.4931 
G01 X-75.4866 Y23.4964 
G01 X-75.3979 Y23.5331 
G01 X-73.9048 Y23.5331 
G01 X-73.6854 Y23.6240 
G01 X-52.8340 Y44.4754 
G01 X-52.7431 Y44.6948 
G01 X-52.7431 Y47.3501 
G01 X-52.7064 Y47.4388 
G01 X-52.6385 Y47.5067 
G01 X-52.4679 Y47.6773 
G01 X-52.3113 Y48.0554 
G01 X-52.3113 Y48.4646 
G01 X-52.4679 Y48.8427 
G01 X-52.7573 Y49.1321 
G01 X-53.1354 Y49.2887 
G01 X-53.5446 Y49.2887 
G01 X-53.9227 Y49.1321 
G01 X-54.2121 Y48.8427 
G01 X-54.3687 Y48.4646 
G01 X-54.3687 Y48.0554 
G01 X-54.2121 Y47.6773 
G01 X-53.9736 Y47.4388 
G01 X-53.9369 Y47.3501 
G01 X-53.9369 Y45.1127 
G01 X-53.9736 Y45.0241 
G01 X-54.8372 Y44.1604 
G01 X-54.8908 Y44.1069 
G01 X-54.9051 Y44.0926 
G01 X-54.9938 Y44.0558 
G01 X-55.0898 Y44.0558 
G01 X-55.1785 Y44.0926 
G01 X-55.2464 Y44.1604 
G01 X-55.2831 Y44.2491 
G01 X-55.2831 Y47.3501 
G01 X-55.2464 Y47.4388 
G01 X-55.1785 Y47.5067 
G01 X-55.0079 Y47.6773 
G01 X-54.8513 Y48.0554 
G01 X-54.8513 Y48.4646 
G01 X-55.0079 Y48.8427 
G01 X-55.2973 Y49.1321 
G01 X-55.6754 Y49.2887 
G01 X-56.0846 Y49.2887 
G01 X-56.4627 Y49.1321 
G01 X-56.7521 Y48.8427 
G01 X-56.9087 Y48.4646 
G01 X-56.9087 Y48.0554 
G01 X-56.7521 Y47.6773 
G01 X-56.5136 Y47.4388 
G01 X-56.4769 Y47.3501 
G01 X-56.4769 Y44.0059 
G01 X-56.5136 Y43.9172 
G01 X-56.5280 Y43.9028 
G01 X-57.3772 Y43.0536 
G01 X-57.4308 Y43.0000 
G01 X-57.4451 Y42.9857 
G01 X-57.5338 Y42.9489 
G01 X-57.6298 Y42.9489 
G01 X-57.7185 Y42.9857 
G01 X-57.7864 Y43.0536 
G01 X-57.8231 Y43.1422 
G01 X-57.8231 Y47.3501 
G01 X-57.7864 Y47.4388 
G01 X-57.7185 Y47.5067 
G01 X-57.5479 Y47.6773 
G01 X-57.3913 Y48.0554 
G01 X-57.3913 Y48.4646 
G01 X-57.5479 Y48.8427 
G01 X-57.8373 Y49.1321 
G01 X-58.2154 Y49.2887 
G01 X-58.6246 Y49.2887 
G01 X-59.0027 Y49.1321 
G01 X-59.2921 Y48.8427 
G01 X-59.4487 Y48.4646 
G01 X-59.4487 Y48.0554 
G01 X-59.2921 Y47.6773 
G01 X-59.0536 Y47.4388 
G01 X-59.0169 Y47.3501 
G01 X-59.0169 Y42.8990 
G01 X-59.0536 Y42.8103 
G01 X-59.0680 Y42.7959 
G01 X-59.9172 Y41.9467 
G01 X-59.9708 Y41.8931 
G01 X-59.9851 Y41.8788 
G01 X-60.0738 Y41.8421 
G01 X-60.1698 Y41.8421 
G01 X-60.2585 Y41.8788 
G01 X-60.3264 Y41.9467 
G01 X-60.3631 Y42.0354 
G01 X-60.3631 Y47.3501 
G01 X-60.3526 Y47.3754 
G01 X-60.3264 Y47.4388 
G01 X-60.2585 Y47.5067 
G01 X-60.0879 Y47.6773 
G01 X-59.9313 Y48.0554 
G01 X-59.9313 Y48.4646 
G01 X-60.0879 Y48.8427 
G01 X-60.3773 Y49.1321 
G01 X-60.7554 Y49.2887 
G01 X-61.1646 Y49.2887 
G01 X-61.5427 Y49.1321 
G01 X-61.8321 Y48.8427 
G01 X-61.9887 Y48.4646 
G01 X-61.9887 Y48.0554 
G01 X-61.8321 Y47.6773 
G01 X-61.6615 Y47.5067 
G01 X-61.5936 Y47.4388 
G01 X-61.5680 Y47.3769 
G01 X-61.5569 Y47.3501 
G01 X-61.5569 Y41.9191 
G01 X-61.5936 Y41.8304 
G01 X-61.6615 Y41.7625 
G01 X-62.5251 Y40.8989 
G01 X-62.6138 Y40.8622 
G01 X-62.7098 Y40.8622 
G01 X-62.7985 Y40.8989 
G01 X-62.8664 Y40.9668 
G01 X-62.9031 Y41.0555 
G01 X-62.9031 Y47.3501 
G01 X-62.8926 Y47.3754 
G01 X-62.8664 Y47.4388 
G01 X-62.7985 Y47.5067 
G01 X-62.6279 Y47.6773 
G01 X-62.4713 Y48.0554 
G01 X-62.4713 Y48.4646 
G01 X-62.6279 Y48.8427 
G01 X-62.9173 Y49.1321 
G01 X-63.2954 Y49.2887 
G01 X-63.7046 Y49.2887 
G01 X-63.7951 Y49.2512 
G01 X-63.8398 Y49.2327 
G01 X-63.8838 Y49.2145 
G01 X-63.9798 Y49.2145 
G01 X-64.0685 Y49.2512 
G01 X-64.1353 Y49.3180 
G01 X-64.1574 Y49.3700 
G01 X-64.1731 Y49.4078 
G01 X-64.1731 Y51.3488 
G01 X-64.1583 Y51.3845 
G01 X-64.1364 Y51.4375 
G01 X-64.0685 Y51.5054 
G01 X-64.0110 Y51.5628 
G01 X-63.8747 Y51.8919 
G01 X-63.8747 Y52.2481 
G01 X-64.0110 Y52.5771 
G01 X-64.2629 Y52.8290 
G01 X-64.5919 Y52.9653 
G01 X-64.9481 Y52.9653 
G01 X-65.0651 Y52.9168 
G01 X-65.1124 Y52.8972 
G01 X-65.1538 Y52.8801 
G01 X-65.2498 Y52.8801 
G01 X-65.3385 Y52.9168 
G01 X-65.4064 Y52.9847 
G01 X-65.4320 Y53.0467 
G01 X-65.4431 Y53.0734 
G01 X-65.4431 Y53.6758 
G01 X-65.4064 Y53.7645 
G01 X-65.3385 Y53.8324 
G01 X-63.9245 Y55.2464 
G01 X-63.8358 Y55.2831 
G01 X-60.2063 Y55.2831 
G01 X-59.9869 Y55.3740 
G01 X-59.8190 Y55.5419 
G01 X-54.6595 Y60.7014 
G01 X-54.5708 Y60.7381 
G01 X-54.4748 Y60.7381 
G01 X-54.4495 Y60.7277 
G01 X-54.3861 Y60.7014 
G01 X-54.3182 Y60.6335 
G01 X-54.2815 Y60.5448 
G01 X-54.2121 Y60.3773 
G01 X-54.0415 Y60.2067 
G01 X-53.9736 Y60.1388 
G01 X-53.9480 Y60.0769 
G01 X-53.9369 Y60.0502 
G01 X-53.9369 Y58.3013 
G01 X-53.8460 Y58.0819 
G01 X-50.9250 Y55.1609 
G01 X-50.7571 Y54.9930 
G01 X-50.5377 Y54.9021 
G01 X-45.6382 Y54.9021 
G01 X-45.5495 Y54.8654 
G01 X-45.4816 Y54.7975 
G01 X-42.5436 Y51.8595 
G01 X-42.5069 Y51.7708 
G01 X-42.5069 Y49.4078 
G01 X-42.5217 Y49.3721 
G01 X-42.5436 Y49.3191 
G01 X-42.6115 Y49.2512 
G01 X-42.7002 Y49.2145 
G01 X-42.7962 Y49.2145 
G01 X-42.8378 Y49.2317 
G01 X-42.8849 Y49.2512 
G01 X-42.9754 Y49.2887 
G01 X-43.3846 Y49.2887 
G01 X-43.7627 Y49.1321 
G01 X-44.0521 Y48.8427 
G01 X-44.2087 Y48.4646 
G01 X-44.2087 Y48.0554 
G01 X-44.0521 Y47.6773 
G01 X-43.8815 Y47.5067 
G01 X-43.8136 Y47.4388 
G01 X-43.7880 Y47.3769 
G01 X-43.7769 Y47.3501 
G01 X-43.7769 Y31.4396 
G01 X-43.8136 Y31.3509 
G01 X-43.8815 Y31.2830 
G01 X-44.9560 Y30.2085 
G01 X-45.0469 Y29.9891 
G01 X-45.0469 Y26.8625 
G01 X-45.0836 Y26.7738 
G01 X-45.1515 Y26.7059 
G01 X-45.2575 Y26.5999 
G01 X-45.4025 Y26.2499 
G01 X-45.4025 Y24.5501 
G01 X-45.2575 Y24.2001 
G01 X-44.9895 Y23.9321 
G01 X-44.6395 Y23.7871 
G01 X-44.2605 Y23.7871 
G01 X-44.1549 Y23.8309 
G01 X-44.1105 Y23.8492 
G01 X-44.0662 Y23.8676 
G01 X-43.9702 Y23.8676 
G01 X-43.8815 Y23.8309 
G01 X-43.8147 Y23.7640 
G01 X-43.7925 Y23.7121 
G01 X-43.7769 Y23.6743 
G01 X-43.7769 Y23.6303 
G01 X-43.6860 Y23.4109 
G01 X-39.9208 Y19.6457 
G01 X-39.8530 Y19.5778 
G01 X-39.8162 Y19.4891 
G01 X-39.8162 Y19.3931 
G01 X-39.8530 Y19.3045 
G01 X-39.9208 Y19.2366 
G01 X-40.1775 Y18.9799 
G01 X-40.3225 Y18.6299 
G01 X-40.3225 Y17.0632 
G01 X-40.3592 Y16.9745 
G01 X-40.4271 Y16.9066 
G01 X-40.5116 Y16.8221 
G01 X-40.5795 Y16.7542 
G01 X-40.6415 Y16.7285 
G01 X-40.6682 Y16.7175 
G01 X-40.7642 Y16.7175 
G01 X-40.8529 Y16.7542 
G01 X-40.9208 Y16.8221 
G01 X-40.9464 Y16.8841 
G01 X-40.9575 Y16.9108 
G01 X-40.9575 Y18.6299 
G01 X-41.1025 Y18.9799 
G01 X-41.3704 Y19.2479 
G01 X-41.7205 Y19.3929 
G01 X-42.0995 Y19.3929 
G01 X-42.4495 Y19.2479 
G01 X-42.7175 Y18.9799 
G01 X-42.8625 Y18.6299 
G01 X-42.8625 Y17.0632 
G01 X-42.8992 Y16.9745 
G01 X-42.9671 Y16.9066 
G01 X-43.3027 Y16.5711 
G01 X-43.3276 Y16.5418 
G01 X-43.3364 Y16.5374 
G01 X-43.3433 Y16.5305 
G01 X-43.3789 Y16.5157 
G01 X-43.4132 Y16.4982 
G01 X-43.4229 Y16.4975 
G01 X-43.4320 Y16.4937 
G01 X-43.4705 Y16.4937 
G01 X-43.5089 Y16.4907 
G01 X-43.5182 Y16.4937 
G01 X-43.5280 Y16.4937 
G01 X-43.5636 Y16.5085 
G01 X-43.6002 Y16.5204 
G01 X-43.6076 Y16.5267 
G01 X-43.6166 Y16.5305 
G01 X-43.6439 Y16.5577 
G01 X-43.6732 Y16.5827 
G01 X-43.6776 Y16.5914 
G01 X-43.6845 Y16.5983 
G01 X-43.6993 Y16.6339 
G01 X-43.7168 Y16.6682 
G01 X-43.7175 Y16.6780 
G01 X-43.7213 Y16.6870 
G01 X-43.7213 Y16.7255 
G01 X-43.7243 Y16.7639 
G01 X-43.7213 Y16.7732 
G01 X-43.7213 Y16.7830 
G01 X-43.7065 Y16.8186 
G01 X-43.6696 Y16.9322 
G01 X-43.6499 Y17.0566 
G01 X-43.6499 Y17.4625 
G01 X-43.6753 Y17.4625 
G01 X-43.6753 Y17.0433 
G01 X-43.7051 Y16.8936 
G01 X-43.7635 Y16.7526 
G01 X-43.8483 Y16.6258 
G01 X-43.9562 Y16.5178 
G01 X-44.0830 Y16.4331 
G01 X-44.1325 Y16.4126 
G01 X-44.1325 Y16.3830 
G01 X-44.1134 Y16.3909 
G01 X-44.1036 Y16.3909 
G01 X-44.0943 Y16.3939 
G01 X-44.0559 Y16.3909 
G01 X-44.0174 Y16.3909 
G01 X-44.0084 Y16.3871 
G01 X-43.9986 Y16.3864 
G01 X-43.9643 Y16.3689 
G01 X-43.9287 Y16.3541 
G01 X-43.9218 Y16.3472 
G01 X-43.9131 Y16.3428 
G01 X-43.8881 Y16.3135 
G01 X-43.8609 Y16.2862 
G01 X-43.8571 Y16.2772 
G01 X-43.8508 Y16.2698 
G01 X-43.8389 Y16.2331 
G01 X-43.8241 Y16.1976 
G01 X-43.8241 Y16.1878 
G01 X-43.8211 Y16.1785 
G01 X-43.8241 Y16.1401 
G01 X-43.8241 Y16.1016 
G01 X-43.8279 Y16.0925 
G01 X-43.8286 Y16.0828 
G01 X-43.8461 Y16.0485 
G01 X-43.8609 Y16.0129 
G01 X-43.8678 Y16.0060 
G01 X-43.8722 Y15.9972 
G01 X-43.9015 Y15.9722 
G01 X-44.0592 Y15.8145 
G01 X-44.1271 Y15.7466 
G01 X-44.2158 Y15.7099 
G01 X-68.8257 Y15.7099 
G01 X-69.0451 Y15.6190 
G01 X-72.1770 Y12.4871 
G01 X-72.1945 Y12.4696 
G01 X-72.2449 Y12.4192 
G01 X-72.3336 Y12.3825 
G01 X-72.7845 Y12.3825 
G01 X-73.3425 Y11.8245 
G01 X-73.3425 Y11.0194 
G01 X-73.3171 Y10.9581 
G01 X-73.3171 Y6.0361 
G01 X-73.3538 Y5.9474 
G01 X-73.4643 Y5.8369 
G01 X-73.6610 Y5.3620 
G01 X-73.6610 Y4.8480 
G01 X-73.4643 Y4.3731 
G01 X-73.1008 Y4.0096 
G01 X-72.6259 Y3.8129 
G01 X-72.1119 Y3.8129 
G01 X-71.6370 Y4.0096 
G01 X-71.2735 Y4.3731 
G01 X-71.0768 Y4.8480 
G01 X-71.0768 Y5.3620 
G01 X-71.2735 Y5.8369 
G01 X-71.4262 Y5.9896 
G01 X-71.4629 Y6.0783 
G01 X-71.4629 Y10.9581 
G01 X-71.4375 Y11.0194 
G01 X-71.4375 Y11.4864 
G01 X-71.4008 Y11.5751 
G01 X-71.3329 Y11.6430 
G01 X-68.4965 Y14.4794 
G01 X-68.4078 Y14.5161 
G01 X-65.8566 Y14.5161 
G01 X-65.7679 Y14.4794 
G01 X-65.7000 Y14.4115 
G01 X-65.6633 Y14.3228 
G01 X-65.6633 Y14.2268 
G01 X-65.7000 Y14.1381 
G01 X-65.7679 Y14.0702 
G01 X-67.4189 Y12.4192 
G01 X-67.5076 Y12.3825 
G01 X-67.7045 Y12.3825 
G01 X-68.2625 Y11.8245 
G01 X-68.2625 Y11.0355 
G01 X-68.2527 Y11.0257 
G01 X-68.2160 Y10.9370 
G01 X-68.2160 Y6.0572 
G01 X-68.2527 Y5.9685 
G01 X-68.3206 Y5.9006 
G01 X-68.3843 Y5.8369 
G01 X-68.5810 Y5.3620 
G01 X-68.5810 Y4.8480 
G01 X-68.3843 Y4.3731 
G01 X-68.0208 Y4.0096 
G01 X-67.5459 Y3.8129 
G01 X-67.0319 Y3.8129 
G01 X-66.5570 Y4.0096 
G01 X-66.1935 Y4.3731 
G01 X-65.9968 Y4.8480 
G01 X-65.9968 Y5.3620 
G01 X-66.1935 Y5.8369 
G01 X-66.3251 Y5.9685 
G01 X-66.3618 Y6.0572 
G01 X-66.3618 Y10.9792 
G01 X-66.3575 Y10.9896 
G01 X-66.3575 Y11.7404 
G01 X-66.3208 Y11.8291 
G01 X-66.2529 Y11.8970 
G01 X-64.6865 Y13.4634 
G01 X-64.5978 Y13.5001 
G01 X-61.4964 Y13.5001 
G01 X-61.4077 Y13.4634 
G01 X-61.3398 Y13.3955 
G01 X-61.3031 Y13.3068 
G01 X-61.3031 Y13.2108 
G01 X-61.3398 Y13.1221 
G01 X-61.4077 Y13.0542 
G01 X-62.0427 Y12.4192 
G01 X-62.1314 Y12.3825 
G01 X-62.6245 Y12.3825 
G01 X-63.1825 Y11.8245 
G01 X-63.1825 Y11.0355 
G01 X-63.1727 Y11.0257 
G01 X-63.1360 Y10.9370 
G01 X-63.1360 Y6.0571 
G01 X-63.1508 Y6.0215 
G01 X-63.1727 Y5.9685 
G01 X-63.2406 Y5.9006 
G01 X-63.3043 Y5.8369 
G01 X-63.5010 Y5.3620 
G01 X-63.5010 Y4.8480 
G01 X-63.3043 Y4.3731 
G01 X-62.9408 Y4.0096 
G01 X-62.4659 Y3.8129 
G01 X-61.9519 Y3.8129 
G01 X-61.4770 Y4.0096 
G01 X-61.1135 Y4.3731 
G01 X-60.9168 Y4.8480 
G01 X-60.9168 Y5.3620 
G01 X-61.1135 Y5.8369 
G01 X-61.1772 Y5.9006 
G01 X-61.2435 Y5.9669 
G01 X-61.2661 Y6.0194 
G01 X-61.2818 Y6.0571 
G01 X-61.2818 Y10.9792 
G01 X-61.2775 Y10.9896 
G01 X-61.2775 Y11.4442 
G01 X-61.2408 Y11.5329 
G01 X-61.1729 Y11.6008 
G01 X-60.3263 Y12.4474 
G01 X-60.2376 Y12.4841 
G01 X-54.2942 Y12.4841 
G01 X-54.2585 Y12.4693 
G01 X-54.2055 Y12.4474 
G01 X-54.1376 Y12.3795 
G01 X-54.1165 Y12.3286 
G01 X-54.1009 Y12.2908 
G01 X-54.1009 Y12.1948 
G01 X-54.1157 Y12.1591 
G01 X-54.1376 Y12.1061 
G01 X-54.2055 Y12.0382 
G01 X-54.2234 Y12.0203 
G01 X-54.3821 Y11.6373 
G01 X-54.3821 Y11.2227 
G01 X-54.2234 Y10.8397 
G01 X-53.9303 Y10.5465 
G01 X-53.5473 Y10.3879 
G01 X-53.1327 Y10.3879 
G01 X-52.9438 Y10.4662 
G01 X-52.8577 Y10.5018 
G01 X-52.8551 Y10.5029 
G01 X-51.9069 Y10.5029 
G01 X-51.8182 Y10.4662 
G01 X-51.7569 Y10.4408 
G01 X-51.6890 Y10.3729 
G01 X-50.4727 Y9.1566 
G01 X-50.4360 Y9.0679 
G01 X-50.4360 Y6.0571 
G01 X-50.4508 Y6.0215 
G01 X-50.4727 Y5.9685 
G01 X-50.5406 Y5.9006 
G01 X-50.6043 Y5.8369 
G01 X-50.8010 Y5.3620 
G01 X-50.8010 Y4.8480 
G01 X-50.6043 Y4.3731 
G01 X-50.2408 Y4.0096 
G01 X-49.7659 Y3.8129 
G01 X-49.2519 Y3.8129 
G01 X-48.7770 Y4.0096 
G01 X-48.4135 Y4.3731 
G01 X-48.2168 Y4.8480 
G01 X-48.2168 Y5.3620 
G01 X-48.4135 Y5.8369 
G01 X-48.4772 Y5.9006 
G01 X-48.5435 Y5.9669 
G01 X-48.5661 Y6.0194 
G01 X-48.5818 Y6.0571 
G01 X-48.5818 Y9.6883 
G01 X-48.7229 Y10.0291 
G01 X-49.0516 Y10.3577 
G01 X-50.4458 Y11.7519 
G01 X-50.4712 Y11.8132 
G01 X-50.6962 Y12.0382 
G01 X-50.7611 Y12.1031 
G01 X-50.7641 Y12.1061 
G01 X-50.8008 Y12.1948 
G01 X-50.8008 Y12.2908 
G01 X-50.7641 Y12.3795 
G01 X-50.6972 Y12.4463 
G01 X-50.6075 Y12.4841 
G01 X-46.9670 Y12.4841 
G01 X-46.8783 Y12.4474 
G01 X-46.8104 Y12.3795 
G01 X-46.7737 Y12.2908 
G01 X-46.7737 Y12.1948 
G01 X-46.8104 Y12.1061 
G01 X-46.8783 Y12.0382 
G01 X-47.1551 Y11.7614 
G01 X-47.1551 Y11.7475 
G01 X-47.1297 Y11.7475 
G01 X-47.1297 Y11.7509 
G01 X-46.6759 Y12.2047 
G01 X-46.0341 Y12.2047 
G01 X-45.5803 Y11.7509 
G01 X-45.5803 Y11.7475 
G01 X-45.5549 Y11.7475 
G01 X-45.5549 Y11.7614 
G01 X-45.8317 Y12.0382 
G01 X-45.8927 Y12.0992 
G01 X-45.8996 Y12.1061 
G01 X-45.9363 Y12.1948 
G01 X-45.9363 Y12.2908 
G01 X-45.8996 Y12.3795 
G01 X-45.8317 Y12.4474 
G01 X-45.7430 Y12.4841 
G01 X-37.6003 Y12.4841 
G01 X-37.3809 Y12.5750 
G01 X-37.1451 Y12.8108 
G01 X-33.7840 Y16.1719 
G01 X-33.7453 Y16.2654 
G01 X-33.7413 Y16.2748 
G01 X-33.7085 Y16.3540 
G01 X-33.6406 Y16.4219 
G01 X-33.4825 Y16.5800 
G01 X-33.3375 Y16.9301 
G01 X-33.3375 Y18.6299 
G01 X-33.4825 Y18.9799 
G01 X-33.7505 Y19.2479 
G01 X-34.1005 Y19.3929 
G01 X-34.4795 Y19.3929 
G01 X-34.8295 Y19.2479 
G01 X-35.0975 Y18.9799 
G01 X-35.2425 Y18.6299 
G01 X-35.2425 Y16.9301 
G01 X-35.1678 Y16.7497 
G01 X-35.1322 Y16.6639 
G01 X-35.1310 Y16.6610 
G01 X-35.1310 Y16.5650 
G01 X-35.1678 Y16.4764 
G01 X-35.2356 Y16.4085 
G01 X-37.9295 Y13.7146 
G01 X-38.0182 Y13.6779 
G01 X-41.4330 Y13.6779 
G01 X-41.5217 Y13.7146 
G01 X-41.5896 Y13.7825 
G01 X-41.6263 Y13.8712 
G01 X-41.6263 Y13.9672 
G01 X-41.5896 Y14.0559 
G01 X-41.5217 Y14.1238 
G01 X-39.5151 Y16.1304 
G01 X-39.4264 Y16.1671 
G01 X-39.1805 Y16.1671 
G01 X-38.8304 Y16.3121 
G01 X-38.5625 Y16.5800 
G01 X-38.4175 Y16.9301 
G01 X-38.4175 Y18.6299 
G01 X-38.5033 Y18.8371 
G01 X-38.5215 Y18.8810 
G01 X-38.5401 Y18.9258 
G01 X-38.5401 Y19.0218 
G01 X-38.5033 Y19.1105 
G01 X-38.4355 Y19.1784 
G01 X-38.3735 Y19.2040 
G01 X-38.3468 Y19.2151 
G01 X-37.8912 Y19.2151 
G01 X-37.8025 Y19.1784 
G01 X-37.7346 Y19.1105 
G01 X-37.7078 Y19.0836 
G01 X-37.6710 Y18.9949 
G01 X-37.6710 Y18.8989 
G01 X-37.7078 Y18.8103 
G01 X-37.7825 Y18.6299 
G01 X-37.7825 Y16.9301 
G01 X-37.6375 Y16.5800 
G01 X-37.3695 Y16.3121 
G01 X-37.0195 Y16.1671 
G01 X-36.6405 Y16.1671 
G01 X-36.2904 Y16.3121 
G01 X-36.0225 Y16.5800 
G01 X-35.8775 Y16.9301 
G01 X-35.8775 Y18.6299 
G01 X-36.0225 Y18.9799 
G01 X-36.1806 Y19.1381 
G01 X-36.2485 Y19.2060 
G01 X-36.2806 Y19.2833 
G01 X-36.2853 Y19.2946 
G01 X-36.3240 Y19.3881 
G01 X-36.5598 Y19.6239 
G01 X-36.7211 Y19.7852 
G01 X-36.7890 Y19.8531 
G01 X-36.8146 Y19.9151 
G01 X-36.8257 Y19.9418 
G01 X-36.8257 Y20.0378 
G01 X-36.7890 Y20.1265 
G01 X-36.7211 Y20.1944 
G01 X-36.6591 Y20.2200 
G01 X-36.6324 Y20.2311 
G01 X-30.9062 Y20.2311 
G01 X-30.8175 Y20.1944 
G01 X-30.7496 Y20.1265 
G01 X-29.8436 Y19.2205 
G01 X-29.8069 Y19.1318 
G01 X-29.8069 Y15.5392 
G01 X-29.8436 Y15.4505 
G01 X-29.9115 Y15.3826 
G01 X-38.8062 Y6.4880 
G01 X-38.8286 Y6.4656 
G01 X-38.8740 Y6.4201 
G01 X-38.8948 Y6.4115 
G01 X-38.9627 Y6.3834 
G01 X-39.0102 Y6.3834 
G01 X-39.0587 Y6.3834 
G01 X-39.0919 Y6.3971 
G01 X-39.6059 Y6.3971 
G01 X-40.0808 Y6.2004 
G01 X-40.4443 Y5.8369 
G01 X-40.6410 Y5.3620 
G01 X-40.6410 Y4.8480 
G01 X-40.4443 Y4.3731 
G01 X-40.0808 Y4.0096 
G01 X-39.6059 Y3.8129 
G01 X-39.0919 Y3.8129 
G01 X-38.6170 Y4.0096 
G01 X-38.2535 Y4.3731 
G01 X-38.0568 Y4.8480 
G01 X-38.0568 Y5.3620 
G01 X-38.0682 Y5.3896 
G01 X-38.0682 Y5.4371 
G01 X-38.0683 Y5.4856 
G01 X-38.0412 Y5.5510 
G01 X-38.0315 Y5.5743 
G01 X-37.9809 Y5.6250 
G01 X-37.9637 Y5.6422 
G01 X-29.1689 Y14.4370 
G01 X-29.0802 Y14.4737 
G01 X-28.9842 Y14.4737 
G01 X-28.8955 Y14.4370 
G01 X-28.8276 Y14.3691 
G01 X-28.7909 Y14.2804 
G01 X-28.7909 Y12.8761 
G01 X-28.8276 Y12.7874 
G01 X-28.8955 Y12.7195 
G01 X-34.6070 Y7.0080 
G01 X-34.7749 Y6.8401 
G01 X-34.8658 Y6.6207 
G01 X-34.8658 Y6.3695 
G01 X-34.9025 Y6.2809 
G01 X-34.9704 Y6.2130 
G01 X-35.0008 Y6.2004 
G01 X-35.3643 Y5.8369 
G01 X-35.5610 Y5.3620 
G01 X-35.5610 Y4.8480 
G01 X-35.3643 Y4.3731 
G01 X-35.0008 Y4.0096 
G01 X-34.5259 Y3.8129 
G01 X-34.0119 Y3.8129 
G01 X-33.5370 Y4.0096 
G01 X-33.1735 Y4.3731 
G01 X-32.9768 Y4.8480 
G01 X-32.9768 Y5.3620 
G01 X-33.1735 Y5.8369 
G01 X-33.4950 Y6.1584 
G01 X-33.5317 Y6.2471 
G01 X-33.5317 Y6.3431 
G01 X-33.4950 Y6.4318 
G01 X-33.4271 Y6.4996 
G01 X-30.1638 Y9.7630 
G01 X-30.0751 Y9.7997 
G01 X-29.9791 Y9.7997 
G01 X-29.8904 Y9.7630 
G01 X-29.8225 Y9.6951 
G01 X-29.7858 Y9.6064 
G01 X-29.7858 Y6.4655 
G01 X-29.7858 Y6.4180 
G01 X-29.7858 Y6.3695 
G01 X-29.8017 Y6.3312 
G01 X-29.8225 Y6.2809 
G01 X-29.8448 Y6.2586 
G01 X-29.8904 Y6.2130 
G01 X-29.9208 Y6.2004 
G01 X-30.2843 Y5.8369 
G01 X-30.4810 Y5.3620 
G01 X-30.4810 Y4.8480 
G01 X-30.2843 Y4.3731 
G01 X-29.9208 Y4.0096 
G01 X-29.4459 Y3.8129 
G01 X-28.9319 Y3.8129 
G01 X-28.4570 Y4.0096 
G01 X-28.0935 Y4.3731 
G01 X-27.8968 Y4.8480 
G01 X-27.8968 Y5.3620 
G01 X-28.0935 Y5.8369 
G01 X-28.4570 Y6.2004 
G01 X-28.4874 Y6.2130 
G01 X-28.5323 Y6.2579 
G01 X-28.5553 Y6.2808 
G01 X-28.5759 Y6.3306 
G01 X-28.5920 Y6.3695 
G01 X-28.5920 Y6.4170 
G01 X-28.5920 Y6.4655 
G01 X-28.5920 Y9.8858 
G01 X-28.5553 Y9.9745 
G01 X-28.4874 Y10.0424 
G01 X-26.8399 Y11.6899 
G01 X-26.8086 Y11.7211 
G01 X-26.7199 Y11.7579 
G01 X-26.6239 Y11.7579 
G01 X-26.5353 Y11.7211 
G01 X-26.4674 Y11.6532 
G01 X-24.7425 Y9.9284 
G01 X-24.7058 Y9.8397 
G01 X-24.7058 Y6.4655 
G01 X-24.7058 Y6.4180 
G01 X-24.7058 Y6.3695 
G01 X-24.7217 Y6.3312 
G01 X-24.7425 Y6.2809 
G01 X-24.7648 Y6.2586 
G01 X-24.8104 Y6.2130 
G01 X-24.8408 Y6.2004 
G01 X-25.2043 Y5.8369 
G01 X-25.4010 Y5.3620 
G01 X-25.4010 Y4.8480 
G01 X-25.2043 Y4.3731 
G01 X-24.8408 Y4.0096 
G01 X-24.3659 Y3.8129 
G01 X-23.8519 Y3.8129 
G01 X-23.3770 Y4.0096 
G01 X-23.0135 Y4.3731 
G01 X-22.8168 Y4.8480 
G01 X-22.8168 Y5.3620 
G01 X-23.0135 Y5.8369 
G00 Z2.5400 
G00 X-23.2590 Y5.8309 
G01 Z-0.0800 F254.00 
G01 X-23.1559 Y5.6890 F2000.00 
G01 X-23.0762 Y5.5327 
G01 X-23.0220 Y5.3659 
G01 X-22.9946 Y5.1927 
G01 X-22.9946 Y5.0173 
G01 X-23.0220 Y4.8441 
G01 X-23.0762 Y4.6773 
G01 X-23.1559 Y4.5210 
G01 X-23.2590 Y4.3791 
G01 X-23.3830 Y4.2551 
G01 X-23.5249 Y4.1520 
G01 X-23.6812 Y4.0723 
G01 X-23.8480 Y4.0181 
G01 X-24.0212 Y3.9907 
G01 X-24.1966 Y3.9907 
G01 X-24.3698 Y4.0181 
G01 X-24.5366 Y4.0723 
G01 X-24.6929 Y4.1520 
G01 X-24.8348 Y4.2551 
G01 X-24.9588 Y4.3791 
G01 X-25.0619 Y4.5210 
G01 X-25.1416 Y4.6773 
G01 X-25.1958 Y4.8441 
G01 X-25.2232 Y5.0173 
G01 X-25.2232 Y5.1927 
G01 X-25.1958 Y5.3659 
G01 X-25.1416 Y5.5327 
G01 X-25.0619 Y5.6890 
G01 X-24.9588 Y5.8309 
G01 X-24.8348 Y5.9549 
G01 X-24.6929 Y6.0580 
G01 X-24.5366 Y6.1377 
G01 X-24.5280 Y6.1405 
G01 X-24.5280 Y9.9653 
G01 X-26.4974 Y11.9347 
G01 X-26.5525 Y12.0302 
G01 X-26.5811 Y12.1368 
G01 X-26.5811 Y20.4546 
G01 X-29.2024 Y23.0759 
G01 X-33.7102 Y23.0759 
G01 X-33.8168 Y23.1045 
G01 X-33.9123 Y23.1596 
G01 X-33.9904 Y23.2377 
G01 X-34.6254 Y23.8727 
G01 X-34.6805 Y23.9682 
G01 X-34.7091 Y24.0748 
G01 X-34.7091 Y24.0879 
G01 X-34.7838 Y24.1379 
G01 X-34.8917 Y24.2458 
G01 X-34.9765 Y24.3726 
G01 X-35.0349 Y24.5136 
G01 X-35.0647 Y24.6633 
G01 X-35.0647 Y26.1367 
G01 X-35.0349 Y26.2864 
G01 X-34.9765 Y26.4274 
G01 X-34.8917 Y26.5542 
G01 X-34.7838 Y26.6621 
G01 X-34.6570 Y26.7469 
G01 X-34.5160 Y26.8053 
G01 X-34.3663 Y26.8351 
G01 X-34.2137 Y26.8351 
G01 X-34.0640 Y26.8053 
G01 X-33.9230 Y26.7469 
G01 X-33.7962 Y26.6621 
G01 X-33.6882 Y26.5542 
G01 X-33.6035 Y26.4274 
G01 X-33.5451 Y26.2864 
G01 X-33.5153 Y26.1367 
G01 X-33.5153 Y24.6633 
G01 X-33.5451 Y24.5136 
G01 X-33.6035 Y24.3726 
G01 X-33.6882 Y24.2458 
G01 X-33.7507 Y24.1834 
G01 X-33.4814 Y23.9141 
G01 X-28.9737 Y23.9141 
G01 X-28.8671 Y23.8855 
G01 X-28.7715 Y23.8304 
G01 X-28.6935 Y23.7523 
G01 X-25.9047 Y20.9635 
G01 X-25.8266 Y20.8855 
G01 X-25.7715 Y20.7899 
G01 X-25.7429 Y20.6833 
G01 X-25.7429 Y12.3656 
G01 X-23.7735 Y10.3962 
G01 X-23.7184 Y10.3007 
G01 X-23.6898 Y10.1941 
G01 X-23.6898 Y6.1405 
G01 X-23.6812 Y6.1377 
G01 X-23.5249 Y6.0580 
G01 X-23.3830 Y5.9549 
G01 X-23.2590 Y5.8309 
G00 Z2.5400 
G00 X-28.3390 Y5.8309 
G01 Z-0.0800 F254.00 
G01 X-28.2359 Y5.6890 F2000.00 
G01 X-28.1562 Y5.5327 
G01 X-28.1020 Y5.3659 
G01 X-28.0746 Y5.1927 
G01 X-28.0746 Y5.0173 
G01 X-28.1020 Y4.8441 
G01 X-28.1562 Y4.6773 
G01 X-28.2359 Y4.5210 
G01 X-28.3390 Y4.3791 
G01 X-28.4630 Y4.2551 
G01 X-28.6049 Y4.1520 
G01 X-28.7612 Y4.0723 
G01 X-28.9280 Y4.0181 
G01 X-29.1012 Y3.9907 
G01 X-29.2766 Y3.9907 
G01 X-29.4498 Y4.0181 
G01 X-29.6166 Y4.0723 
G01 X-29.7729 Y4.1520 
G01 X-29.9148 Y4.2551 
G01 X-30.0388 Y4.3791 
G01 X-30.1419 Y4.5210 
G01 X-30.2216 Y4.6773 
G01 X-30.2758 Y4.8441 
G01 X-30.3032 Y5.0173 
G01 X-30.3032 Y5.1927 
G01 X-30.2758 Y5.3659 
G01 X-30.2216 Y5.5327 
G01 X-30.1419 Y5.6890 
G01 X-30.0388 Y5.8309 
G01 X-29.9148 Y5.9549 
G01 X-29.7729 Y6.0580 
G01 X-29.6166 Y6.1377 
G01 X-29.6080 Y6.1405 
G01 X-29.6080 Y10.2402 
G01 X-29.5794 Y10.3468 
G01 X-29.5243 Y10.4423 
G01 X-27.5971 Y12.3695 
G01 X-27.5971 Y20.0555 
G01 X-29.7285 Y22.1869 
G01 X-35.3612 Y22.1869 
G01 X-35.4678 Y22.2155 
G01 X-35.5633 Y22.2706 
G01 X-37.1654 Y23.8727 
G01 X-37.2205 Y23.9682 
G01 X-37.2491 Y24.0748 
G01 X-37.2491 Y24.0879 
G01 X-37.3238 Y24.1379 
G01 X-37.4317 Y24.2458 
G01 X-37.5165 Y24.3726 
G01 X-37.5749 Y24.5136 
G01 X-37.6047 Y24.6633 
G01 X-37.6047 Y26.1367 
G01 X-37.5749 Y26.2864 
G01 X-37.5165 Y26.4274 
G01 X-37.4317 Y26.5542 
G01 X-37.3238 Y26.6621 
G01 X-37.1970 Y26.7469 
G01 X-37.0560 Y26.8053 
G01 X-36.9063 Y26.8351 
G01 X-36.7537 Y26.8351 
G01 X-36.6040 Y26.8053 
G01 X-36.4630 Y26.7469 
G01 X-36.3362 Y26.6621 
G01 X-36.2283 Y26.5542 
G01 X-36.1435 Y26.4274 
G01 X-36.0851 Y26.2864 
G01 X-36.0553 Y26.1367 
G01 X-36.0553 Y24.6633 
G01 X-36.0851 Y24.5136 
G01 X-36.1435 Y24.3726 
G01 X-36.2283 Y24.2458 
G01 X-36.2907 Y24.1834 
G01 X-35.1324 Y23.0251 
G01 X-29.4997 Y23.0251 
G01 X-29.3931 Y22.9965 
G01 X-29.2976 Y22.9414 
G01 X-26.8426 Y20.4864 
G01 X-26.7875 Y20.3909 
G01 X-26.7589 Y20.2843 
G01 X-26.7589 Y12.1407 
G01 X-26.7875 Y12.0341 
G01 X-26.8426 Y11.9386 
G01 X-28.7698 Y10.0114 
G01 X-28.7698 Y6.1405 
G01 X-28.7612 Y6.1377 
G01 X-28.6049 Y6.0580 
G01 X-28.4630 Y5.9549 
G01 X-28.3390 Y5.8309 
G00 Z2.5400 
G00 X-33.4190 Y5.8309 
G01 Z-0.0800 F254.00 
G01 X-33.3159 Y5.6890 F2000.00 
G01 X-33.2362 Y5.5327 
G01 X-33.1820 Y5.3659 
G01 X-33.1546 Y5.1927 
G01 X-33.1546 Y5.0173 
G01 X-33.1820 Y4.8441 
G01 X-33.2362 Y4.6773 
G01 X-33.3159 Y4.5210 
G01 X-33.4190 Y4.3791 
G01 X-33.5430 Y4.2551 
G01 X-33.6849 Y4.1520 
G01 X-33.8412 Y4.0723 
G01 X-34.0080 Y4.0181 
G01 X-34.1812 Y3.9907 
G01 X-34.3566 Y3.9907 
G01 X-34.5298 Y4.0181 
G01 X-34.6966 Y4.0723 
G01 X-34.8529 Y4.1520 
G01 X-34.9948 Y4.2551 
G01 X-35.1188 Y4.3791 
G01 X-35.2219 Y4.5210 
G01 X-35.3016 Y4.6773 
G01 X-35.3558 Y4.8441 
G01 X-35.3832 Y5.0173 
G01 X-35.3832 Y5.1927 
G01 X-35.3558 Y5.3659 
G01 X-35.3016 Y5.5327 
G01 X-35.2219 Y5.6890 
G01 X-35.1188 Y5.8309 
G01 X-34.9948 Y5.9549 
G01 X-34.8529 Y6.0580 
G01 X-34.6966 Y6.1377 
G01 X-34.6880 Y6.1405 
G01 X-34.6880 Y6.5572 
G01 X-34.6594 Y6.6638 
G01 X-34.6043 Y6.7593 
G01 X-34.5262 Y6.8374 
G01 X-28.6131 Y12.7505 
G01 X-28.6131 Y19.6565 
G01 X-30.2545 Y21.2979 
G01 X-37.0122 Y21.2979 
G01 X-37.1188 Y21.3265 
G01 X-37.2143 Y21.3816 
G01 X-39.7054 Y23.8727 
G01 X-39.7605 Y23.9682 
G01 X-39.7891 Y24.0748 
G01 X-39.7891 Y24.0879 
G01 X-39.8638 Y24.1379 
G01 X-39.9717 Y24.2458 
G01 X-40.0565 Y24.3726 
G01 X-40.1149 Y24.5136 
G01 X-40.1447 Y24.6633 
G01 X-40.1447 Y26.1367 
G01 X-40.1149 Y26.2864 
G01 X-40.0565 Y26.4274 
G01 X-39.9717 Y26.5542 
G01 X-39.8638 Y26.6621 
G01 X-39.7370 Y26.7469 
G01 X-39.5960 Y26.8053 
G01 X-39.4463 Y26.8351 
G01 X-39.2937 Y26.8351 
G01 X-39.1440 Y26.8053 
G01 X-39.0030 Y26.7469 
G01 X-38.8762 Y26.6621 
G01 X-38.7683 Y26.5542 
G01 X-38.6835 Y26.4274 
G01 X-38.6251 Y26.2864 
G01 X-38.5953 Y26.1367 
G01 X-38.5953 Y24.6633 
G01 X-38.6251 Y24.5136 
G01 X-38.6835 Y24.3726 
G01 X-38.7683 Y24.2458 
G01 X-38.8307 Y24.1834 
G01 X-36.7834 Y22.1361 
G01 X-30.0258 Y22.1361 
G01 X-29.9192 Y22.1075 
G01 X-29.8236 Y22.0524 
G01 X-27.8586 Y20.0874 
G01 X-27.8035 Y19.9918 
G01 X-27.7749 Y19.8852 
G01 X-27.7749 Y12.5217 
G01 X-27.8035 Y12.4151 
G01 X-27.8586 Y12.3196 
G01 X-27.9367 Y12.2415 
G01 X-33.8498 Y6.3284 
G01 X-33.8498 Y6.1405 
G01 X-33.8412 Y6.1377 
G01 X-33.6849 Y6.0580 
G01 X-33.5430 Y5.9549 
G01 X-33.4190 Y5.8309 
G00 Z2.5400 
G00 X-38.3190 Y5.5383 
G01 Z-0.0800 F254.00 
G01 X-38.3162 Y5.5327 F2000.00 
G01 X-38.2620 Y5.3659 
G01 X-38.2346 Y5.1927 
G01 X-38.2346 Y5.0173 
G01 X-38.2620 Y4.8441 
G01 X-38.3162 Y4.6773 
G01 X-38.3959 Y4.5210 
G01 X-38.4990 Y4.3791 
G01 X-38.6230 Y4.2551 
G01 X-38.7649 Y4.1520 
G01 X-38.9212 Y4.0723 
G01 X-39.0880 Y4.0181 
G01 X-39.2612 Y3.9907 
G01 X-39.4366 Y3.9907 
G01 X-39.6098 Y4.0181 
G01 X-39.7766 Y4.0723 
G01 X-39.9329 Y4.1520 
G01 X-40.0748 Y4.2551 
G01 X-40.1988 Y4.3791 
G01 X-40.3019 Y4.5210 
G01 X-40.3816 Y4.6773 
G01 X-40.4358 Y4.8441 
G01 X-40.4632 Y5.0173 
G01 X-40.4632 Y5.1927 
G01 X-40.4358 Y5.3659 
G01 X-40.3816 Y5.5327 
G01 X-40.3019 Y5.6890 
G01 X-40.1988 Y5.8309 
G01 X-40.0748 Y5.9549 
G01 X-39.9329 Y6.0580 
G01 X-39.7766 Y6.1377 
G01 X-39.6098 Y6.1919 
G01 X-39.4366 Y6.2193 
G01 X-39.2612 Y6.2193 
G01 X-39.0880 Y6.1919 
G01 X-38.9212 Y6.1377 
G01 X-38.9105 Y6.1322 
G01 X-29.6291 Y15.4136 
G01 X-29.6291 Y19.2574 
G01 X-30.7806 Y20.4089 
G01 X-38.6632 Y20.4089 
G01 X-38.7698 Y20.4375 
G01 X-38.8653 Y20.4926 
G01 X-38.9434 Y20.5707 
G01 X-42.2454 Y23.8727 
G01 X-42.3005 Y23.9682 
G01 X-42.3291 Y24.0748 
G01 X-42.3291 Y24.0879 
G01 X-42.4038 Y24.1379 
G01 X-42.5117 Y24.2458 
G01 X-42.5965 Y24.3726 
G01 X-42.6549 Y24.5136 
G01 X-42.6847 Y24.6633 
G01 X-42.6847 Y26.1367 
G01 X-42.6549 Y26.2864 
G01 X-42.5965 Y26.4274 
G01 X-42.5117 Y26.5542 
G01 X-42.4038 Y26.6621 
G01 X-42.2770 Y26.7469 
G01 X-42.1360 Y26.8053 
G01 X-41.9863 Y26.8351 
G01 X-41.8337 Y26.8351 
G01 X-41.6840 Y26.8053 
G01 X-41.5430 Y26.7469 
G01 X-41.4162 Y26.6621 
G01 X-41.3083 Y26.5542 
G01 X-41.2235 Y26.4274 
G01 X-41.1651 Y26.2864 
G01 X-41.1353 Y26.1367 
G01 X-41.1353 Y24.6633 
G01 X-41.1651 Y24.5136 
G01 X-41.2235 Y24.3726 
G01 X-41.3083 Y24.2458 
G01 X-41.3707 Y24.1834 
G01 X-38.4344 Y21.2471 
G01 X-30.5518 Y21.2471 
G01 X-30.4452 Y21.2185 
G01 X-30.3497 Y21.1634 
G01 X-28.9527 Y19.7664 
G01 X-28.8746 Y19.6883 
G01 X-28.8195 Y19.5928 
G01 X-28.7909 Y19.4862 
G01 X-28.7909 Y15.1848 
G01 X-28.8195 Y15.0782 
G01 X-28.8746 Y14.9827 
G01 X-38.3190 Y5.5383 
G00 Z2.5400 
G00 X-37.9813 Y9.5631 
G01 Z-0.0800 F254.00 
G01 X-37.7619 Y9.6540 F2000.00 
G01 X-37.5940 Y9.8219 
G01 X-37.5261 Y9.8898 
G01 X-31.2440 Y16.1719 
G01 X-31.2053 Y16.2653 
G01 X-31.1851 Y16.3140 
G01 X-31.1685 Y16.3540 
G01 X-31.1006 Y16.4219 
G01 X-30.9425 Y16.5800 
G01 X-30.7975 Y16.9301 
G01 X-30.7975 Y18.6299 
G01 X-30.9425 Y18.9799 
G01 X-31.2105 Y19.2479 
G01 X-31.5605 Y19.3929 
G01 X-31.9395 Y19.3929 
G01 X-32.2895 Y19.2479 
G01 X-32.5575 Y18.9799 
G01 X-32.7025 Y18.6299 
G01 X-32.7025 Y16.9301 
G01 X-32.6278 Y16.7497 
G01 X-32.5922 Y16.6639 
G01 X-32.5910 Y16.6610 
G01 X-32.5910 Y16.5650 
G01 X-32.6278 Y16.4764 
G01 X-32.6957 Y16.4085 
G01 X-38.3105 Y10.7936 
G01 X-38.3992 Y10.7569 
G01 X-42.0287 Y10.7569 
G01 X-42.2481 Y10.6660 
G01 X-42.4839 Y10.4302 
G01 X-44.7202 Y8.1939 
G01 X-44.9560 Y7.9581 
G01 X-45.0469 Y7.7387 
G01 X-45.0469 Y6.4568 
G01 X-45.0469 Y6.4093 
G01 X-45.0469 Y6.3608 
G01 X-45.0529 Y6.3463 
G01 X-45.0836 Y6.2721 
G01 X-45.1515 Y6.2042 
G01 X-45.1608 Y6.2004 
G01 X-45.5243 Y5.8369 
G01 X-45.7210 Y5.3620 
G01 X-45.7210 Y4.8480 
G01 X-45.5243 Y4.3731 
G01 X-45.1608 Y4.0096 
G01 X-44.6859 Y3.8129 
G01 X-44.1719 Y3.8129 
G01 X-43.6970 Y4.0096 
G01 X-43.3335 Y4.3731 
G01 X-43.1368 Y4.8480 
G01 X-43.1368 Y5.3620 
G01 X-43.3335 Y5.8369 
G01 X-43.6970 Y6.2004 
G01 X-43.7181 Y6.2091 
G01 X-43.7485 Y6.2217 
G01 X-43.8153 Y6.2885 
G01 X-43.8465 Y6.3623 
G01 X-43.8531 Y6.3783 
G01 X-43.8531 Y6.4257 
G01 X-43.8531 Y6.4743 
G01 X-43.8531 Y7.3208 
G01 X-43.8164 Y7.4095 
G01 X-43.7485 Y7.4774 
G01 X-41.6995 Y9.5264 
G01 X-41.6108 Y9.5631 
G01 X-37.9813 Y9.5631 
G00 Z2.5400 
G00 X-38.0448 Y9.7409 
G01 Z-0.0800 F254.00 
G01 X-41.7364 Y9.7409 F2000.00 
G01 X-44.0309 Y7.4464 
G01 X-44.0309 Y6.1473 
G01 X-44.0012 Y6.1377 
G01 X-43.8449 Y6.0580 
G01 X-43.7030 Y5.9549 
G01 X-43.5790 Y5.8309 
G01 X-43.4759 Y5.6890 
G01 X-43.3962 Y5.5327 
G01 X-43.3420 Y5.3659 
G01 X-43.3146 Y5.1927 
G01 X-43.3146 Y5.0173 
G01 X-43.3420 Y4.8441 
G01 X-43.3962 Y4.6773 
G01 X-43.4759 Y4.5210 
G01 X-43.5790 Y4.3791 
G01 X-43.7030 Y4.2551 
G01 X-43.8449 Y4.1520 
G01 X-44.0012 Y4.0723 
G01 X-44.1680 Y4.0181 
G01 X-44.3412 Y3.9907 
G01 X-44.5166 Y3.9907 
G01 X-44.6898 Y4.0181 
G01 X-44.8566 Y4.0723 
G01 X-45.0129 Y4.1520 
G01 X-45.1548 Y4.2551 
G01 X-45.2788 Y4.3791 
G01 X-45.3819 Y4.5210 
G01 X-45.4616 Y4.6773 
G01 X-45.5158 Y4.8441 
G01 X-45.5432 Y5.0173 
G01 X-45.5432 Y5.1927 
G01 X-45.5158 Y5.3659 
G01 X-45.4616 Y5.5327 
G01 X-45.3819 Y5.6890 
G01 X-45.2788 Y5.8309 
G01 X-45.1548 Y5.9549 
G01 X-45.0129 Y6.0580 
G01 X-44.8691 Y6.1313 
G01 X-44.8691 Y7.6752 
G01 X-44.8405 Y7.7818 
G01 X-44.7854 Y7.8773 
G01 X-44.7073 Y7.9554 
G01 X-42.2454 Y10.4173 
G01 X-42.1673 Y10.4954 
G01 X-42.0718 Y10.5505 
G01 X-41.9652 Y10.5791 
G01 X-38.2736 Y10.5791 
G01 X-32.2893 Y16.5634 
G01 X-32.3517 Y16.6258 
G01 X-32.4365 Y16.7526 
G01 X-32.4949 Y16.8936 
G01 X-32.5247 Y17.0433 
G01 X-32.5247 Y18.5167 
G01 X-32.4949 Y18.6664 
G01 X-32.4365 Y18.8074 
G01 X-32.3517 Y18.9342 
G01 X-32.2438 Y19.0421 
G01 X-32.1170 Y19.1269 
G01 X-31.9760 Y19.1853 
G01 X-31.8263 Y19.2151 
G01 X-31.6737 Y19.2151 
G01 X-31.5240 Y19.1853 
G01 X-31.3830 Y19.1269 
G01 X-31.2562 Y19.0421 
G01 X-31.1483 Y18.9342 
G01 X-31.0635 Y18.8074 
G01 X-31.0051 Y18.6664 
G01 X-30.9753 Y18.5167 
G01 X-30.9753 Y17.0433 
G01 X-31.0051 Y16.8936 
G01 X-31.0635 Y16.7526 
G01 X-31.1483 Y16.6258 
G01 X-31.2562 Y16.5178 
G01 X-31.3309 Y16.4679 
G01 X-31.3309 Y16.4548 
G01 X-31.3595 Y16.3482 
G01 X-31.4146 Y16.2527 
G01 X-31.4927 Y16.1746 
G01 X-37.7646 Y9.9027 
G01 X-37.8427 Y9.8246 
G01 X-37.9382 Y9.7695 
G01 X-38.0448 Y9.7409 
G00 Z2.5400 
G00 X-37.6638 Y12.6619 
G01 Z-0.0800 F254.00 
G01 X-60.3632 Y12.6619 F2000.00 
G01 X-61.4553 Y11.5698 
G01 X-61.4553 Y11.1091 
G01 X-61.4596 Y11.1048 
G01 X-61.4596 Y5.9316 
G01 X-61.3590 Y5.8309 
G01 X-61.2559 Y5.6890 
G01 X-61.1762 Y5.5327 
G01 X-61.1220 Y5.3659 
G01 X-61.0946 Y5.1927 
G01 X-61.0946 Y5.0173 
G01 X-61.1220 Y4.8441 
G01 X-61.1762 Y4.6773 
G01 X-61.2559 Y4.5210 
G01 X-61.3590 Y4.3791 
G01 X-61.4830 Y4.2551 
G01 X-61.6249 Y4.1520 
G01 X-61.7812 Y4.0723 
G01 X-61.9480 Y4.0181 
G01 X-62.1212 Y3.9907 
G01 X-62.2966 Y3.9907 
G01 X-62.4698 Y4.0181 
G01 X-62.6366 Y4.0723 
G01 X-62.7929 Y4.1520 
G01 X-62.9348 Y4.2551 
G01 X-63.0588 Y4.3791 
G01 X-63.1619 Y4.5210 
G01 X-63.2416 Y4.6773 
G01 X-63.2958 Y4.8441 
G01 X-63.3232 Y5.0173 
G01 X-63.3232 Y5.1927 
G01 X-63.2958 Y5.3659 
G01 X-63.2416 Y5.5327 
G01 X-63.1619 Y5.6890 
G01 X-63.0588 Y5.8309 
G01 X-62.9582 Y5.9316 
G01 X-62.9582 Y11.0626 
G01 X-63.0047 Y11.1091 
G01 X-63.0047 Y11.7509 
G01 X-62.5509 Y12.2047 
G01 X-62.0058 Y12.2047 
G01 X-60.8722 Y13.3383 
G01 X-60.7941 Y13.4164 
G01 X-60.6986 Y13.4715 
G01 X-60.5920 Y13.5001 
G01 X-37.8926 Y13.5001 
G01 X-34.8293 Y16.5634 
G01 X-34.8917 Y16.6258 
G01 X-34.9765 Y16.7526 
G01 X-35.0349 Y16.8936 
G01 X-35.0647 Y17.0433 
G01 X-35.0647 Y18.5167 
G01 X-35.0349 Y18.6664 
G01 X-34.9765 Y18.8074 
G01 X-34.8917 Y18.9342 
G01 X-34.7838 Y19.0421 
G01 X-34.6570 Y19.1269 
G01 X-34.5160 Y19.1853 
G01 X-34.3663 Y19.2151 
G01 X-34.2137 Y19.2151 
G01 X-34.0640 Y19.1853 
G01 X-33.9230 Y19.1269 
G01 X-33.7962 Y19.0421 
G01 X-33.6882 Y18.9342 
G01 X-33.6035 Y18.8074 
G01 X-33.5451 Y18.6664 
G01 X-33.5153 Y18.5167 
G01 X-33.5153 Y17.0433 
G01 X-33.5451 Y16.8936 
G01 X-33.6035 Y16.7526 
G01 X-33.6882 Y16.6258 
G01 X-33.7962 Y16.5178 
G01 X-33.8709 Y16.4679 
G01 X-33.8709 Y16.4548 
G01 X-33.8995 Y16.3482 
G01 X-33.9546 Y16.2527 
G01 X-37.3836 Y12.8237 
G01 X-37.4617 Y12.7456 
G01 X-37.5572 Y12.6905 
G01 X-37.6638 Y12.6619 
G00 Z2.5400 
G00 X-37.3238 Y16.5178 
G01 Z-0.0800 F254.00 
G01 X-37.4317 Y16.6258 F2000.00 
G01 X-37.5165 Y16.7526 
G01 X-37.5749 Y16.8936 
G01 X-37.6047 Y17.0433 
G01 X-37.6047 Y18.5167 
G01 X-37.5749 Y18.6664 
G01 X-37.5165 Y18.8074 
G01 X-37.4317 Y18.9342 
G01 X-37.3693 Y18.9966 
G01 X-37.7656 Y19.3929 
G01 X-39.2982 Y19.3929 
G01 X-39.4048 Y19.4215 
G01 X-39.5003 Y19.4766 
G01 X-39.5784 Y19.5547 
G01 X-43.5154 Y23.4917 
G01 X-43.5705 Y23.5872 
G01 X-43.5991 Y23.6938 
G01 X-43.5991 Y29.2652 
G01 X-43.5705 Y29.3718 
G01 X-43.5154 Y29.4673 
G01 X-43.4373 Y29.5454 
G01 X-42.3291 Y30.6536 
G01 X-42.3291 Y51.8964 
G01 X-45.5126 Y55.0799 
G01 X-50.4742 Y55.0799 
G01 X-50.5808 Y55.1085 
G01 X-50.6763 Y55.1636 
G01 X-50.7544 Y55.2417 
G01 X-53.6754 Y58.1627 
G01 X-53.7305 Y58.2582 
G01 X-53.7591 Y58.3648 
G01 X-53.7591 Y60.2167 
G01 X-53.8824 Y60.2991 
G01 X-54.0009 Y60.4176 
G01 X-54.0941 Y60.5569 
G01 X-54.1582 Y60.7118 
G01 X-54.1909 Y60.8762 
G01 X-54.1909 Y61.0438 
G01 X-54.1582 Y61.2082 
G01 X-54.0941 Y61.3631 
G01 X-54.0009 Y61.5024 
G01 X-53.8824 Y61.6209 
G01 X-53.7430 Y61.7141 
G01 X-53.5882 Y61.7782 
G01 X-53.4238 Y61.8109 
G01 X-53.2562 Y61.8109 
G01 X-53.0918 Y61.7782 
G01 X-52.9369 Y61.7141 
G01 X-52.7976 Y61.6209 
G01 X-52.6791 Y61.5024 
G01 X-52.5859 Y61.3631 
G01 X-52.5218 Y61.2082 
G01 X-52.4891 Y61.0438 
G01 X-52.4891 Y60.8762 
G01 X-52.5218 Y60.7118 
G01 X-52.5859 Y60.5569 
G01 X-52.6791 Y60.4176 
G01 X-52.7976 Y60.2991 
G01 X-52.9209 Y60.2167 
G01 X-52.9209 Y58.5936 
G01 X-50.2454 Y55.9181 
G01 X-45.2838 Y55.9181 
G01 X-45.1772 Y55.8895 
G01 X-45.0817 Y55.8344 
G01 X-41.6527 Y52.4054 
G01 X-41.5746 Y52.3273 
G01 X-41.5195 Y52.2318 
G01 X-41.4909 Y52.1252 
G01 X-41.4909 Y30.4248 
G01 X-41.5195 Y30.3182 
G01 X-41.5746 Y30.2227 
G01 X-41.6527 Y30.1446 
G01 X-42.7609 Y29.0364 
G01 X-42.7609 Y23.9226 
G01 X-39.0694 Y20.2311 
G01 X-37.5368 Y20.2311 
G01 X-37.4302 Y20.2025 
G01 X-37.3347 Y20.1474 
G01 X-37.2566 Y20.0693 
G01 X-36.5727 Y19.3854 
G01 X-36.4946 Y19.3073 
G01 X-36.4395 Y19.2118 
G01 X-36.4109 Y19.1052 
G01 X-36.4109 Y19.0921 
G01 X-36.3362 Y19.0421 
G01 X-36.2283 Y18.9342 
G01 X-36.1435 Y18.8074 
G01 X-36.0851 Y18.6664 
G01 X-36.0553 Y18.5167 
G01 X-36.0553 Y17.0433 
G01 X-36.0851 Y16.8936 
G01 X-36.1435 Y16.7526 
G01 X-36.2283 Y16.6258 
G01 X-36.3362 Y16.5178 
G01 X-36.4630 Y16.4331 
G01 X-36.6040 Y16.3747 
G01 X-36.7537 Y16.3449 
G01 X-36.9063 Y16.3449 
G01 X-37.0560 Y16.3747 
G01 X-37.1970 Y16.4331 
G01 X-37.3238 Y16.5178 
G00 Z2.5400 
G00 X-38.7683 Y16.6258 
G01 Z-0.0800 F254.00 
G01 X-38.8762 Y16.5178 F2000.00 
G01 X-39.0030 Y16.4331 
G01 X-39.1440 Y16.3747 
G01 X-39.2937 Y16.3449 
G01 X-39.4463 Y16.3449 
G01 X-39.5345 Y16.3624 
G01 X-42.1353 Y13.7616 
G01 X-42.2308 Y13.7065 
G01 X-42.3374 Y13.6779 
G01 X-42.4478 Y13.6779 
G01 X-64.7234 Y13.6779 
G01 X-66.5929 Y11.8084 
G01 X-66.5353 Y11.7509 
G01 X-66.5353 Y11.1091 
G01 X-66.5396 Y11.1048 
G01 X-66.5396 Y5.9316 
G01 X-66.4390 Y5.8309 
G01 X-66.3359 Y5.6890 
G01 X-66.2562 Y5.5327 
G01 X-66.2020 Y5.3659 
G01 X-66.1746 Y5.1927 
G01 X-66.1746 Y5.0173 
G01 X-66.2020 Y4.8441 
G01 X-66.2562 Y4.6773 
G01 X-66.3359 Y4.5210 
G01 X-66.4390 Y4.3791 
G01 X-66.5630 Y4.2551 
G01 X-66.7049 Y4.1520 
G01 X-66.8612 Y4.0723 
G01 X-67.0280 Y4.0181 
G01 X-67.2012 Y3.9907 
G01 X-67.3766 Y3.9907 
G01 X-67.5498 Y4.0181 
G01 X-67.7166 Y4.0723 
G01 X-67.8729 Y4.1520 
G01 X-68.0148 Y4.2551 
G01 X-68.1388 Y4.3791 
G01 X-68.2419 Y4.5210 
G01 X-68.3216 Y4.6773 
G01 X-68.3758 Y4.8441 
G01 X-68.4032 Y5.0173 
G01 X-68.4032 Y5.1927 
G01 X-68.3758 Y5.3659 
G01 X-68.3216 Y5.5327 
G01 X-68.2419 Y5.6890 
G01 X-68.1388 Y5.8309 
G01 X-68.0382 Y5.9316 
G01 X-68.0382 Y11.0626 
G01 X-68.0847 Y11.1091 
G01 X-68.0847 Y11.7509 
G01 X-67.6309 Y12.2047 
G01 X-67.3820 Y12.2047 
G01 X-65.1543 Y14.4324 
G01 X-65.0588 Y14.4875 
G01 X-64.9522 Y14.5161 
G01 X-42.5662 Y14.5161 
G01 X-40.1272 Y16.9551 
G01 X-40.1447 Y17.0433 
G01 X-40.1447 Y18.5167 
G01 X-40.1149 Y18.6664 
G01 X-40.0565 Y18.8074 
G01 X-39.9717 Y18.9342 
G01 X-39.8638 Y19.0421 
G01 X-39.7370 Y19.1269 
G01 X-39.5960 Y19.1853 
G01 X-39.4463 Y19.2151 
G01 X-39.2937 Y19.2151 
G01 X-39.1440 Y19.1853 
G01 X-39.0030 Y19.1269 
G01 X-38.8762 Y19.0421 
G01 X-38.7683 Y18.9342 
G01 X-38.6835 Y18.8074 
G01 X-38.6251 Y18.6664 
G01 X-38.5953 Y18.5167 
G01 X-38.5953 Y17.0433 
G01 X-38.6251 Y16.8936 
G01 X-38.6835 Y16.7526 
G01 X-38.7683 Y16.6258 
G00 Z2.5400 
G00 X-41.3083 Y16.6258 
G01 Z-0.0800 F254.00 
G01 X-41.4162 Y16.5178 F2000.00 
G01 X-41.5430 Y16.4331 
G01 X-41.6840 Y16.3747 
G01 X-41.8337 Y16.3449 
G01 X-41.9863 Y16.3449 
G01 X-42.0745 Y16.3624 
G01 X-43.5812 Y14.8557 
G01 X-43.6593 Y14.7776 
G01 X-43.7548 Y14.7225 
G01 X-43.8614 Y14.6939 
G01 X-68.5334 Y14.6939 
G01 X-71.6153 Y11.6120 
G01 X-71.6153 Y11.1091 
G01 X-71.6407 Y11.0837 
G01 X-71.6407 Y5.9527 
G01 X-71.5190 Y5.8309 
G01 X-71.4159 Y5.6890 
G01 X-71.3362 Y5.5327 
G01 X-71.2820 Y5.3659 
G01 X-71.2546 Y5.1927 
G01 X-71.2546 Y5.0173 
G01 X-71.2820 Y4.8441 
G01 X-71.3362 Y4.6773 
G01 X-71.4159 Y4.5210 
G01 X-71.5190 Y4.3791 
G01 X-71.6430 Y4.2551 
G01 X-71.7849 Y4.1520 
G01 X-71.9412 Y4.0723 
G01 X-72.1080 Y4.0181 
G01 X-72.2812 Y3.9907 
G01 X-72.4566 Y3.9907 
G01 X-72.6298 Y4.0181 
G01 X-72.7966 Y4.0723 
G01 X-72.9529 Y4.1520 
G01 X-73.0948 Y4.2551 
G01 X-73.2188 Y4.3791 
G01 X-73.3219 Y4.5210 
G01 X-73.4016 Y4.6773 
G01 X-73.4558 Y4.8441 
G01 X-73.4832 Y5.0173 
G01 X-73.4832 Y5.1927 
G01 X-73.4558 Y5.3659 
G01 X-73.4016 Y5.5327 
G01 X-73.3219 Y5.6890 
G01 X-73.2188 Y5.8309 
G01 X-73.1393 Y5.9105 
G01 X-73.1393 Y11.0837 
G01 X-73.1647 Y11.1091 
G01 X-73.1647 Y11.7509 
G01 X-72.7109 Y12.2047 
G01 X-72.2080 Y12.2047 
G01 X-68.9643 Y15.4484 
G01 X-68.8688 Y15.5035 
G01 X-68.7622 Y15.5321 
G01 X-44.0902 Y15.5321 
G01 X-42.6672 Y16.9551 
G01 X-42.6847 Y17.0433 
G01 X-42.6847 Y18.5167 
G01 X-42.6549 Y18.6664 
G01 X-42.5965 Y18.8074 
G01 X-42.5117 Y18.9342 
G01 X-42.4038 Y19.0421 
G01 X-42.2770 Y19.1269 
G01 X-42.1360 Y19.1853 
G01 X-41.9863 Y19.2151 
G01 X-41.8337 Y19.2151 
G01 X-41.6840 Y19.1853 
G01 X-41.5430 Y19.1269 
G01 X-41.4162 Y19.0421 
G01 X-41.3083 Y18.9342 
G01 X-41.2235 Y18.8074 
G01 X-41.1651 Y18.6664 
G01 X-41.1353 Y18.5167 
G01 X-41.1353 Y17.0433 
G01 X-41.1651 Y16.8936 
G01 X-41.2235 Y16.7526 
G01 X-41.3083 Y16.6258 
G00 Z2.5400 
G00 X-44.7675 Y16.4126 
G01 Z-0.0800 F254.00 
G01 X-44.8170 Y16.4331 F2000.00 
G01 X-44.9438 Y16.5178 
G01 X-45.0517 Y16.6258 
G01 X-45.1365 Y16.7526 
G01 X-45.1949 Y16.8936 
G01 X-45.2247 Y17.0433 
G01 X-45.2247 Y17.4625 
G01 X-45.2501 Y17.4625 
G01 X-45.2501 Y17.0566 
G01 X-45.2304 Y16.9322 
G01 X-45.1915 Y16.8125 
G01 X-45.1343 Y16.7003 
G01 X-45.0603 Y16.5984 
G01 X-44.9712 Y16.5093 
G01 X-44.8693 Y16.4353 
G01 X-44.7675 Y16.3834 
G01 X-44.7675 Y16.4126 
G00 Z2.5400 
G00 X-46.3797 Y16.5984 
G01 Z-0.0800 F254.00 
G01 X-46.3057 Y16.7002 F2000.00 
G01 X-46.2485 Y16.8125 
G01 X-46.2096 Y16.9322 
G01 X-46.1899 Y17.0566 
G01 X-46.1899 Y17.4625 
G01 X-46.2153 Y17.4625 
G01 X-46.2153 Y17.0433 
G01 X-46.2451 Y16.8936 
G01 X-46.3035 Y16.7526 
G01 X-46.3882 Y16.6258 
G01 X-46.4962 Y16.5178 
G01 X-46.6230 Y16.4331 
G01 X-46.6725 Y16.4126 
G01 X-46.6725 Y16.3834 
G01 X-46.5707 Y16.4353 
G01 X-46.4688 Y16.5093 
G01 X-46.3797 Y16.5984 
G00 Z2.5400 
G00 X-47.3075 Y16.4126 
G01 Z-0.0800 F254.00 
G01 X-47.3570 Y16.4331 F2000.00 
G01 X-47.4838 Y16.5178 
G01 X-47.5917 Y16.6258 
G01 X-47.6765 Y16.7526 
G01 X-47.7349 Y16.8936 
G01 X-47.7647 Y17.0433 
G01 X-47.7647 Y17.4625 
G01 X-47.7901 Y17.4625 
G01 X-47.7901 Y17.0566 
G01 X-47.7704 Y16.9322 
G01 X-47.7315 Y16.8125 
G01 X-47.6743 Y16.7003 
G01 X-47.6003 Y16.5984 
G01 X-47.5112 Y16.5093 
G01 X-47.4093 Y16.4353 
G01 X-47.3075 Y16.3834 
G01 X-47.3075 Y16.4126 
G00 Z2.5400 
G00 X-49.0088 Y16.5093 
G01 Z-0.0800 F254.00 
G01 X-48.9197 Y16.5984 F2000.00 
G01 X-48.8457 Y16.7003 
G01 X-48.7885 Y16.8125 
G01 X-48.7496 Y16.9322 
G01 X-48.7299 Y17.0566 
G01 X-48.7299 Y17.4625 
G01 X-48.7553 Y17.4625 
G01 X-48.7553 Y17.0433 
G01 X-48.7851 Y16.8936 
G01 X-48.8435 Y16.7526 
G01 X-48.9282 Y16.6258 
G01 X-49.0362 Y16.5178 
G01 X-49.1630 Y16.4331 
G01 X-49.2125 Y16.4126 
G01 X-49.2125 Y16.3834 
G01 X-49.1107 Y16.4353 
G01 X-49.0088 Y16.5093 
G00 Z2.5400 
G00 X-49.8475 Y16.4126 
G01 Z-0.0800 F254.00 
G01 X-49.8970 Y16.4331 F2000.00 
G01 X-50.0238 Y16.5178 
G01 X-50.1317 Y16.6258 
G01 X-50.2165 Y16.7526 
G01 X-50.2749 Y16.8936 
G01 X-50.3047 Y17.0433 
G01 X-50.3047 Y17.4625 
G01 X-50.3301 Y17.4625 
G01 X-50.3301 Y17.0566 
G01 X-50.3104 Y16.9322 
G01 X-50.2715 Y16.8125 
G01 X-50.2143 Y16.7003 
G01 X-50.1403 Y16.5984 
G01 X-50.0512 Y16.5093 
G01 X-49.9493 Y16.4353 
G01 X-49.8475 Y16.3834 
G01 X-49.8475 Y16.4126 
G00 Z2.5400 
G00 X-50.3047 Y18.0975 
G01 Z-0.0800 F254.00 
G01 X-50.3047 Y18.5167 F2000.00 
G01 X-50.2749 Y18.6664 
G01 X-50.2165 Y18.8074 
G01 X-50.1317 Y18.9342 
G01 X-50.0238 Y19.0421 
G01 X-49.8970 Y19.1269 
G01 X-49.8475 Y19.1474 
G01 X-49.8475 Y19.1766 
G01 X-49.9493 Y19.1247 
G01 X-50.0512 Y19.0507 
G01 X-50.1403 Y18.9616 
G01 X-50.2143 Y18.8597 
G01 X-50.2715 Y18.7475 
G01 X-50.3104 Y18.6278 
G01 X-50.3301 Y18.5034 
G01 X-50.3301 Y18.0975 
G01 X-50.3047 Y18.0975 
G00 Z2.5400 
G00 X-48.7553 Y18.0975 
G01 Z-0.0800 F254.00 
G01 X-48.7299 Y18.0975 F2000.00 
G01 X-48.7299 Y18.5034 
G01 X-48.7496 Y18.6278 
G01 X-48.7885 Y18.7475 
G01 X-48.8457 Y18.8597 
G01 X-48.9197 Y18.9616 
G01 X-49.0088 Y19.0507 
G01 X-49.1107 Y19.1247 
G01 X-49.2125 Y19.1766 
G01 X-49.2125 Y19.1474 
G01 X-49.1630 Y19.1269 
G01 X-49.0362 Y19.0421 
G01 X-48.9282 Y18.9342 
G01 X-48.8435 Y18.8074 
G01 X-48.7851 Y18.6664 
G01 X-48.7553 Y18.5167 
G01 X-48.7553 Y18.0975 
G00 Z2.5400 
G00 X-47.7901 Y18.0975 
G01 Z-0.0800 F254.00 
G01 X-47.7647 Y18.0975 F2000.00 
G01 X-47.7647 Y18.5167 
G01 X-47.7349 Y18.6664 
G01 X-47.6765 Y18.8074 
G01 X-47.5917 Y18.9342 
G01 X-47.4838 Y19.0421 
G01 X-47.3570 Y19.1269 
G01 X-47.3075 Y19.1474 
G01 X-47.3075 Y19.1766 
G01 X-47.4093 Y19.1247 
G01 X-47.5112 Y19.0507 
G01 X-47.6003 Y18.9616 
G01 X-47.6743 Y18.8597 
G01 X-47.7315 Y18.7475 
G01 X-47.7704 Y18.6278 
G01 X-47.7901 Y18.5034 
G01 X-47.7901 Y18.0975 
G00 Z2.5400 
G00 X-46.2153 Y18.0975 
G01 Z-0.0800 F254.00 
G01 X-46.1899 Y18.0975 F2000.00 
G01 X-46.1899 Y18.5034 
G01 X-46.2096 Y18.6278 
G01 X-46.2485 Y18.7475 
G01 X-46.3057 Y18.8597 
G01 X-46.3797 Y18.9616 
G01 X-46.4688 Y19.0507 
G01 X-46.5707 Y19.1247 
G01 X-46.6725 Y19.1766 
G01 X-46.6725 Y19.1474 
G01 X-46.6230 Y19.1269 
G01 X-46.4962 Y19.0421 
G01 X-46.3882 Y18.9342 
G01 X-46.3035 Y18.8074 
G01 X-46.2451 Y18.6664 
G01 X-46.2153 Y18.5167 
G01 X-46.2153 Y18.0975 
G00 Z2.5400 
G00 X-45.2501 Y18.0975 
G01 Z-0.0800 F254.00 
G01 X-45.2247 Y18.0975 F2000.00 
G01 X-45.2247 Y18.5167 
G01 X-45.1949 Y18.6664 
G01 X-45.1365 Y18.8074 
G01 X-45.0517 Y18.9342 
G01 X-44.9438 Y19.0421 
G01 X-44.8170 Y19.1269 
G01 X-44.7675 Y19.1474 
G01 X-44.7675 Y19.1766 
G01 X-44.8693 Y19.1247 
G01 X-44.9712 Y19.0507 
G01 X-45.0603 Y18.9616 
G01 X-45.1343 Y18.8597 
G01 X-45.1915 Y18.7475 
G01 X-45.2304 Y18.6278 
G01 X-45.2501 Y18.5034 
G01 X-45.2501 Y18.0975 
G00 Z2.5400 
G00 X-43.6753 Y18.0975 
G01 Z-0.0800 F254.00 
G01 X-43.6499 Y18.0975 F2000.00 
G01 X-43.6499 Y18.5034 
G01 X-43.6696 Y18.6278 
G01 X-43.7085 Y18.7475 
G01 X-43.7657 Y18.8597 
G01 X-43.8397 Y18.9616 
G01 X-43.9288 Y19.0507 
G01 X-44.0307 Y19.1247 
G01 X-44.1325 Y19.1766 
G01 X-44.1325 Y19.1474 
G01 X-44.0830 Y19.1269 
G01 X-43.9562 Y19.0421 
G01 X-43.8483 Y18.9342 
G01 X-43.7635 Y18.8074 
G01 X-43.7051 Y18.6664 
G01 X-43.6753 Y18.5167 
G01 X-43.6753 Y18.0975 
G00 Z2.5400 
G00 X-43.8483 Y24.2458 
G01 Z-0.0800 F254.00 
G01 X-43.9562 Y24.1379 F2000.00 
G01 X-44.0830 Y24.0531 
G01 X-44.2240 Y23.9947 
G01 X-44.3737 Y23.9649 
G01 X-44.5263 Y23.9649 
G01 X-44.6760 Y23.9947 
G01 X-44.8170 Y24.0531 
G01 X-44.9438 Y24.1379 
G01 X-45.0517 Y24.2458 
G01 X-45.1365 Y24.3726 
G01 X-45.1949 Y24.5136 
G01 X-45.2247 Y24.6633 
G01 X-45.2247 Y26.1367 
G01 X-45.1949 Y26.2864 
G01 X-45.1365 Y26.4274 
G01 X-45.0517 Y26.5542 
G01 X-44.9438 Y26.6621 
G01 X-44.8691 Y26.7121 
G01 X-44.8691 Y29.9256 
G01 X-44.8405 Y30.0322 
G01 X-44.7854 Y30.1277 
G01 X-43.5991 Y31.3140 
G01 X-43.5991 Y47.5167 
G01 X-43.7224 Y47.5991 
G01 X-43.8409 Y47.7176 
G01 X-43.9341 Y47.8569 
G01 X-43.9982 Y48.0118 
G01 X-44.0309 Y48.1762 
G01 X-44.0309 Y48.3438 
G01 X-43.9982 Y48.5082 
G01 X-43.9341 Y48.6630 
G01 X-43.8409 Y48.8024 
G01 X-43.7224 Y48.9209 
G01 X-43.5831 Y49.0141 
G01 X-43.4282 Y49.0782 
G01 X-43.2638 Y49.1109 
G01 X-43.0962 Y49.1109 
G01 X-42.9318 Y49.0782 
G01 X-42.7769 Y49.0141 
G01 X-42.6376 Y48.9209 
G01 X-42.5191 Y48.8024 
G01 X-42.4259 Y48.6630 
G01 X-42.3618 Y48.5082 
G01 X-42.3291 Y48.3438 
G01 X-42.3291 Y48.1762 
G01 X-42.3618 Y48.0118 
G01 X-42.4259 Y47.8569 
G01 X-42.5191 Y47.7176 
G01 X-42.6376 Y47.5991 
G01 X-42.7609 Y47.5167 
G01 X-42.7609 Y31.0852 
G01 X-42.7895 Y30.9786 
G01 X-42.8446 Y30.8831 
G01 X-42.9227 Y30.8050 
G01 X-44.0309 Y29.6968 
G01 X-44.0309 Y26.7121 
G01 X-43.9562 Y26.6621 
G01 X-43.8483 Y26.5542 
G01 X-43.7635 Y26.4274 
G01 X-43.7051 Y26.2864 
G01 X-43.6753 Y26.1367 
G01 X-43.6753 Y24.6633 
G01 X-43.7051 Y24.5136 
G01 X-43.7635 Y24.3726 
G01 X-43.8483 Y24.2458 
G00 Z2.5400 
G00 X-46.1825 Y24.2001 
G01 Z-0.0800 F254.00 
G01 X-46.0375 Y24.5501 F2000.00 
G01 X-46.0375 Y26.2499 
G01 X-46.1825 Y26.5999 
G01 X-46.3564 Y26.7738 
G01 X-46.3931 Y26.8625 
G01 X-46.3931 Y30.5872 
G01 X-46.3564 Y30.6759 
G01 X-46.2885 Y30.7438 
G01 X-45.3819 Y31.6504 
G01 X-45.2140 Y31.8183 
G01 X-45.1231 Y32.0377 
G01 X-45.1231 Y47.3501 
G01 X-45.1126 Y47.3754 
G01 X-45.0864 Y47.4388 
G01 X-45.0185 Y47.5067 
G01 X-44.8479 Y47.6773 
G01 X-44.6913 Y48.0554 
G01 X-44.6913 Y48.4646 
G01 X-44.8479 Y48.8427 
G01 X-45.1373 Y49.1321 
G01 X-45.5154 Y49.2887 
G01 X-45.9246 Y49.2887 
G01 X-46.3027 Y49.1321 
G01 X-46.5921 Y48.8427 
G01 X-46.7487 Y48.4646 
G01 X-46.7487 Y48.0554 
G01 X-46.5921 Y47.6773 
G01 X-46.4215 Y47.5067 
G01 X-46.3536 Y47.4388 
G01 X-46.3280 Y47.3769 
G01 X-46.3169 Y47.3501 
G01 X-46.3169 Y32.4556 
G01 X-46.3536 Y32.3669 
G01 X-46.4215 Y32.2990 
G01 X-47.4960 Y31.2245 
G01 X-47.5869 Y31.0051 
G01 X-47.5869 Y26.8625 
G01 X-47.6236 Y26.7738 
G01 X-47.6915 Y26.7059 
G01 X-47.7975 Y26.5999 
G01 X-47.9425 Y26.2499 
G01 X-47.9425 Y24.5501 
G01 X-47.7975 Y24.2001 
G01 X-47.5295 Y23.9321 
G01 X-47.1795 Y23.7871 
G01 X-46.8005 Y23.7871 
G01 X-46.4504 Y23.9321 
G01 X-46.1825 Y24.2001 
G00 Z2.5400 
G00 X-46.3882 Y24.2458 
G01 Z-0.0800 F254.00 
G01 X-46.4962 Y24.1379 F2000.00 
G01 X-46.6230 Y24.0531 
G01 X-46.7640 Y23.9947 
G01 X-46.9137 Y23.9649 
G01 X-47.0663 Y23.9649 
G01 X-47.2160 Y23.9947 
G01 X-47.3570 Y24.0531 
G01 X-47.4838 Y24.1379 
G01 X-47.5917 Y24.2458 
G01 X-47.6765 Y24.3726 
G01 X-47.7349 Y24.5136 
G01 X-47.7647 Y24.6633 
G01 X-47.7647 Y26.1367 
G01 X-47.7349 Y26.2864 
G01 X-47.6765 Y26.4274 
G01 X-47.5917 Y26.5542 
G01 X-47.4838 Y26.6621 
G01 X-47.4091 Y26.7121 
G01 X-47.4091 Y30.9416 
G01 X-47.3805 Y31.0482 
G01 X-47.3254 Y31.1437 
G01 X-46.1391 Y32.3300 
G01 X-46.1391 Y47.5167 
G01 X-46.2624 Y47.5991 
G01 X-46.3809 Y47.7176 
G01 X-46.4741 Y47.8569 
G01 X-46.5382 Y48.0118 
G01 X-46.5709 Y48.1762 
G01 X-46.5709 Y48.3438 
G01 X-46.5382 Y48.5082 
G01 X-46.4741 Y48.6630 
G01 X-46.3809 Y48.8024 
G01 X-46.2624 Y48.9209 
G01 X-46.1230 Y49.0141 
G01 X-45.9682 Y49.0782 
G01 X-45.8038 Y49.1109 
G01 X-45.6362 Y49.1109 
G01 X-45.4718 Y49.0782 
G01 X-45.3169 Y49.0141 
G01 X-45.1776 Y48.9209 
G01 X-45.0591 Y48.8024 
G01 X-44.9659 Y48.6630 
G01 X-44.9018 Y48.5082 
G01 X-44.8691 Y48.3438 
G01 X-44.8691 Y48.1762 
G01 X-44.9018 Y48.0118 
G01 X-44.9659 Y47.8569 
G01 X-45.0591 Y47.7176 
G01 X-45.1776 Y47.5991 
G01 X-45.3009 Y47.5167 
G01 X-45.3009 Y32.1012 
G01 X-45.3295 Y31.9946 
G01 X-45.3846 Y31.8991 
G01 X-45.4627 Y31.8210 
G01 X-46.5709 Y30.7128 
G01 X-46.5709 Y26.7121 
G01 X-46.4962 Y26.6621 
G01 X-46.3882 Y26.5542 
G01 X-46.3035 Y26.4274 
G01 X-46.2451 Y26.2864 
G01 X-46.2153 Y26.1367 
G01 X-46.2153 Y24.6633 
G01 X-46.2451 Y24.5136 
G01 X-46.3035 Y24.3726 
G01 X-46.3882 Y24.2458 
G00 Z2.5400 
G00 X-48.7225 Y24.2001 
G01 Z-0.0800 F254.00 
G01 X-48.5775 Y24.5501 F2000.00 
G01 X-48.5775 Y26.2499 
G01 X-48.7225 Y26.5999 
G01 X-48.8964 Y26.7738 
G01 X-48.9331 Y26.8625 
G01 X-48.9331 Y31.6032 
G01 X-48.8964 Y31.6919 
G01 X-48.8285 Y31.7598 
G01 X-47.9219 Y32.6664 
G01 X-47.7540 Y32.8343 
G01 X-47.6631 Y33.0537 
G01 X-47.6631 Y47.3501 
G01 X-47.6264 Y47.4388 
G01 X-47.5585 Y47.5067 
G01 X-47.3879 Y47.6773 
G01 X-47.2313 Y48.0554 
G01 X-47.2313 Y48.4646 
G01 X-47.3879 Y48.8427 
G01 X-47.6773 Y49.1321 
G01 X-48.0554 Y49.2887 
G01 X-48.4646 Y49.2887 
G01 X-48.8427 Y49.1321 
G01 X-49.1321 Y48.8427 
G01 X-49.2887 Y48.4646 
G01 X-49.2887 Y48.0554 
G01 X-49.1321 Y47.6773 
G01 X-48.8936 Y47.4388 
G01 X-48.8569 Y47.3501 
G01 X-48.8569 Y33.4716 
G01 X-48.8936 Y33.3829 
G01 X-48.9615 Y33.3150 
G01 X-50.0360 Y32.2405 
G01 X-50.1269 Y32.0211 
G01 X-50.1269 Y26.8625 
G01 X-50.1636 Y26.7738 
G01 X-50.2315 Y26.7059 
G01 X-50.3375 Y26.5999 
G01 X-50.4825 Y26.2499 
G01 X-50.4825 Y24.5501 
G01 X-50.3375 Y24.2001 
G01 X-50.0695 Y23.9321 
G01 X-49.7195 Y23.7871 
G01 X-49.3405 Y23.7871 
G01 X-48.9905 Y23.9321 
G01 X-48.7225 Y24.2001 
G00 Z2.5400 
G00 X-48.9282 Y24.2458 
G01 Z-0.0800 F254.00 
G01 X-49.0362 Y24.1379 F2000.00 
G01 X-49.1630 Y24.0531 
G01 X-49.3040 Y23.9947 
G01 X-49.4537 Y23.9649 
G01 X-49.6063 Y23.9649 
G01 X-49.7560 Y23.9947 
G01 X-49.8970 Y24.0531 
G01 X-50.0238 Y24.1379 
G01 X-50.1317 Y24.2458 
G01 X-50.2165 Y24.3726 
G01 X-50.2749 Y24.5136 
G01 X-50.3047 Y24.6633 
G01 X-50.3047 Y26.1367 
G01 X-50.2749 Y26.2864 
G01 X-50.2165 Y26.4274 
G01 X-50.1317 Y26.5542 
G01 X-50.0238 Y26.6621 
G01 X-49.9491 Y26.7121 
G01 X-49.9491 Y31.9576 
G01 X-49.9205 Y32.0642 
G01 X-49.8654 Y32.1597 
G01 X-48.6791 Y33.3460 
G01 X-48.6791 Y47.5167 
G01 X-48.8024 Y47.5991 
G01 X-48.9209 Y47.7176 
G01 X-49.0141 Y47.8569 
G01 X-49.0782 Y48.0118 
G01 X-49.1109 Y48.1762 
G01 X-49.1109 Y48.3438 
G01 X-49.0782 Y48.5082 
G01 X-49.0141 Y48.6630 
G01 X-48.9209 Y48.8024 
G01 X-48.8024 Y48.9209 
G01 X-48.6630 Y49.0141 
G01 X-48.5082 Y49.0782 
G01 X-48.3438 Y49.1109 
G01 X-48.1762 Y49.1109 
G01 X-48.0118 Y49.0782 
G01 X-47.8569 Y49.0141 
G01 X-47.7176 Y48.9209 
G01 X-47.5991 Y48.8024 
G01 X-47.5059 Y48.6630 
G01 X-47.4418 Y48.5082 
G01 X-47.4091 Y48.3438 
G01 X-47.4091 Y48.1762 
G01 X-47.4418 Y48.0118 
G01 X-47.5059 Y47.8569 
G01 X-47.5991 Y47.7176 
G01 X-47.7176 Y47.5991 
G01 X-47.8409 Y47.5167 
G01 X-47.8409 Y33.1172 
G01 X-47.8695 Y33.0106 
G01 X-47.9246 Y32.9151 
G01 X-48.0027 Y32.8370 
G01 X-49.1109 Y31.7288 
G01 X-49.1109 Y26.7121 
G01 X-49.0362 Y26.6621 
G01 X-48.9282 Y26.5542 
G01 X-48.8435 Y26.4274 
G01 X-48.7851 Y26.2864 
G01 X-48.7553 Y26.1367 
G01 X-48.7553 Y24.6633 
G01 X-48.7851 Y24.5136 
G01 X-48.8435 Y24.3726 
G01 X-48.9282 Y24.2458 
G00 Z2.5400 
G00 X-52.7497 Y25.7865 
G01 Z-0.0800 F254.00 
G01 X-52.4565 Y26.0797 F2000.00 
G01 X-52.3415 Y26.3573 
G01 X-52.2737 Y26.4252 
G01 X-51.5448 Y27.1540 
G01 X-51.2840 Y27.4148 
G01 X-51.1429 Y27.7556 
G01 X-51.1429 Y32.5351 
G01 X-51.1062 Y32.6238 
G01 X-51.0279 Y32.8127 
G01 X-51.0279 Y33.2273 
G01 X-51.1865 Y33.6103 
G01 X-51.4797 Y33.9034 
G01 X-51.8627 Y34.0621 
G01 X-52.2773 Y34.0621 
G01 X-52.6603 Y33.9034 
G01 X-52.9534 Y33.6103 
G01 X-53.1121 Y33.2273 
G01 X-53.1121 Y32.8127 
G01 X-53.0338 Y32.6238 
G01 X-52.9982 Y32.5377 
G01 X-52.9971 Y32.5351 
G01 X-52.9971 Y28.3760 
G01 X-53.0338 Y28.2873 
G01 X-53.1017 Y28.2194 
G01 X-53.6527 Y27.6684 
G01 X-53.6562 Y27.6670 
G01 X-53.9303 Y27.5535 
G01 X-54.2234 Y27.2603 
G01 X-54.3017 Y27.0714 
G01 X-54.3384 Y26.9827 
G01 X-61.3073 Y20.0138 
G01 X-61.3960 Y19.9771 
G01 X-61.7581 Y19.9771 
G01 X-61.8194 Y20.0025 
G01 X-62.6406 Y20.0025 
G01 X-62.7019 Y19.9771 
G01 X-66.8381 Y19.9771 
G01 X-66.8994 Y20.0025 
G01 X-67.7206 Y20.0025 
G01 X-67.7819 Y19.9771 
G01 X-71.9181 Y19.9771 
G01 X-71.9794 Y20.0025 
G01 X-72.8006 Y20.0025 
G01 X-72.8619 Y19.9771 
G01 X-75.7151 Y19.9771 
G01 X-75.8038 Y20.0138 
G01 X-75.9927 Y20.0921 
G01 X-76.4073 Y20.0921 
G01 X-76.7903 Y19.9335 
G01 X-77.0834 Y19.6403 
G01 X-77.1984 Y19.3627 
G01 X-77.2663 Y19.2948 
G01 X-84.1419 Y12.4192 
G01 X-84.2032 Y12.3938 
G01 X-84.7725 Y11.8245 
G01 X-84.7725 Y11.0194 
G01 X-84.7471 Y10.9581 
G01 X-84.7471 Y6.0361 
G01 X-84.7838 Y5.9474 
G01 X-84.8943 Y5.8369 
G01 X-85.0910 Y5.3620 
G01 X-85.0910 Y4.8480 
G01 X-84.8943 Y4.3731 
G01 X-84.5308 Y4.0096 
G01 X-84.0559 Y3.8129 
G01 X-83.5419 Y3.8129 
G01 X-83.0670 Y4.0096 
G01 X-82.7035 Y4.3731 
G01 X-82.5068 Y4.8480 
G01 X-82.5068 Y5.3620 
G01 X-82.7035 Y5.8369 
G01 X-82.8562 Y5.9896 
G01 X-82.8929 Y6.0783 
G01 X-82.8929 Y10.9581 
G01 X-82.8562 Y11.0468 
G01 X-82.8308 Y11.1081 
G01 X-82.7629 Y11.1760 
G01 X-75.8873 Y18.0515 
G01 X-75.8038 Y18.0862 
G01 X-75.7151 Y18.1229 
G01 X-72.8619 Y18.1229 
G01 X-72.8006 Y18.0975 
G01 X-71.9794 Y18.0975 
G01 X-71.9181 Y18.1229 
G01 X-67.7819 Y18.1229 
G01 X-67.7206 Y18.0975 
G01 X-66.8994 Y18.0975 
G01 X-66.8381 Y18.1229 
G01 X-62.7019 Y18.1229 
G01 X-62.6406 Y18.0975 
G01 X-61.8194 Y18.0975 
G01 X-61.7581 Y18.1229 
G01 X-60.7756 Y18.1229 
G01 X-60.4348 Y18.2640 
G01 X-60.1062 Y18.5927 
G01 X-53.0273 Y25.6715 
G01 X-52.9386 Y25.7083 
G01 X-52.7497 Y25.7865 
G00 Z2.5400 
G00 X-52.7890 Y25.9987 
G01 Z-0.0800 F254.00 
G01 X-52.9306 Y25.9041 F2000.00 
G01 X-53.0879 Y25.8389 
G01 X-53.1173 Y25.8331 
G01 X-60.3780 Y18.5723 
G01 X-60.4823 Y18.4680 
G01 X-60.6051 Y18.3860 
G01 X-60.7414 Y18.3295 
G01 X-60.8862 Y18.3007 
G01 X-61.8837 Y18.3007 
G01 X-61.9091 Y18.2753 
G01 X-62.5509 Y18.2753 
G01 X-62.5763 Y18.3007 
G01 X-66.9637 Y18.3007 
G01 X-66.9891 Y18.2753 
G01 X-67.6309 Y18.2753 
G01 X-67.6563 Y18.3007 
G01 X-72.0437 Y18.3007 
G01 X-72.0691 Y18.2753 
G01 X-72.7109 Y18.2753 
G01 X-72.7363 Y18.3007 
G01 X-75.7657 Y18.3007 
G01 X-75.7906 Y18.2841 
G01 X-75.9479 Y18.2189 
G01 X-75.9773 Y18.2131 
G01 X-83.0453 Y11.1450 
G01 X-83.0453 Y11.1091 
G01 X-83.0707 Y11.0837 
G01 X-83.0707 Y5.9527 
G01 X-82.9490 Y5.8309 
G01 X-82.8459 Y5.6890 
G01 X-82.7662 Y5.5327 
G01 X-82.7120 Y5.3659 
G01 X-82.6846 Y5.1927 
G01 X-82.6846 Y5.0173 
G01 X-82.7120 Y4.8441 
G01 X-82.7662 Y4.6773 
G01 X-82.8459 Y4.5210 
G01 X-82.9490 Y4.3791 
G01 X-83.0730 Y4.2551 
G01 X-83.2149 Y4.1520 
G01 X-83.3712 Y4.0723 
G01 X-83.5380 Y4.0181 
G01 X-83.7112 Y3.9907 
G01 X-83.8866 Y3.9907 
G01 X-84.0598 Y4.0181 
G01 X-84.2266 Y4.0723 
G01 X-84.3829 Y4.1520 
G01 X-84.5248 Y4.2551 
G01 X-84.6488 Y4.3791 
G01 X-84.7519 Y4.5210 
G01 X-84.8316 Y4.6773 
G01 X-84.8858 Y4.8441 
G01 X-84.9132 Y5.0173 
G01 X-84.9132 Y5.1927 
G01 X-84.8858 Y5.3659 
G01 X-84.8316 Y5.5327 
G01 X-84.7519 Y5.6890 
G01 X-84.6488 Y5.8309 
G01 X-84.5693 Y5.9105 
G01 X-84.5693 Y11.0837 
G01 X-84.5947 Y11.1091 
G01 X-84.5947 Y11.7509 
G01 X-84.1409 Y12.2047 
G01 X-84.1050 Y12.2047 
G01 X-77.0369 Y19.2727 
G01 X-77.0311 Y19.3021 
G01 X-76.9659 Y19.4594 
G01 X-76.8713 Y19.6010 
G01 X-76.7510 Y19.7213 
G01 X-76.6094 Y19.8159 
G01 X-76.4521 Y19.8811 
G01 X-76.2851 Y19.9143 
G01 X-76.1149 Y19.9143 
G01 X-75.9479 Y19.8811 
G01 X-75.7906 Y19.8159 
G01 X-75.7657 Y19.7993 
G01 X-72.7363 Y19.7993 
G01 X-72.7109 Y19.8247 
G01 X-72.0691 Y19.8247 
G01 X-72.0437 Y19.7993 
G01 X-67.6563 Y19.7993 
G01 X-67.6309 Y19.8247 
G01 X-66.9891 Y19.8247 
G01 X-66.9637 Y19.7993 
G01 X-62.5763 Y19.7993 
G01 X-62.5509 Y19.8247 
G01 X-61.9091 Y19.8247 
G01 X-61.8837 Y19.7993 
G01 X-61.2704 Y19.7993 
G01 X-54.1769 Y26.8927 
G01 X-54.1711 Y26.9221 
G01 X-54.1059 Y27.0794 
G01 X-54.0113 Y27.2210 
G01 X-53.8910 Y27.3413 
G01 X-53.7494 Y27.4359 
G01 X-53.5921 Y27.5011 
G01 X-53.5627 Y27.5069 
G01 X-52.8193 Y28.2504 
G01 X-52.8193 Y32.5857 
G01 X-52.8359 Y32.6106 
G01 X-52.9011 Y32.7679 
G01 X-52.9343 Y32.9349 
G01 X-52.9343 Y33.1051 
G01 X-52.9011 Y33.2721 
G01 X-52.8359 Y33.4294 
G01 X-52.7413 Y33.5710 
G01 X-52.6210 Y33.6913 
G01 X-52.4794 Y33.7859 
G01 X-52.3221 Y33.8511 
G01 X-52.1551 Y33.8843 
G01 X-51.9849 Y33.8843 
G01 X-51.8179 Y33.8511 
G01 X-51.6606 Y33.7859 
G01 X-51.5190 Y33.6913 
G01 X-51.3987 Y33.5710 
G01 X-51.3041 Y33.4294 
G01 X-51.2389 Y33.2721 
G01 X-51.2057 Y33.1051 
G01 X-51.2057 Y32.9349 
G01 X-51.2389 Y32.7679 
G01 X-51.3041 Y32.6106 
G01 X-51.3207 Y32.5857 
G01 X-51.3207 Y27.8662 
G01 X-51.3495 Y27.7214 
G01 X-51.4060 Y27.5851 
G01 X-51.4880 Y27.4623 
G01 X-51.5923 Y27.3580 
G01 X-52.5031 Y26.4473 
G01 X-52.5089 Y26.4179 
G01 X-52.5741 Y26.2606 
G01 X-52.6687 Y26.1190 
G01 X-52.7890 Y25.9987 
G00 Z2.5400 
G00 X-42.4785 Y26.9691 
G01 Z-0.0800 F254.00 
G01 X-42.5453 Y27.0360 F2000.00 
G01 X-42.5674 Y27.0879 
G01 X-42.5831 Y27.1257 
G01 X-42.5831 Y28.9108 
G01 X-42.5464 Y28.9995 
G01 X-42.4785 Y29.0674 
G01 X-41.5719 Y29.9740 
G01 X-41.4040 Y30.1419 
G01 X-41.3131 Y30.3613 
G01 X-41.3131 Y47.1876 
G01 X-41.3161 Y47.1970 
G01 X-41.3131 Y47.2353 
G01 X-41.3131 Y47.2503 
G01 X-41.3133 Y47.2532 
G01 X-41.3131 Y47.2737 
G01 X-41.3093 Y47.2828 
G01 X-41.3085 Y47.2927 
G01 X-41.2911 Y47.3269 
G01 X-41.2764 Y47.3624 
G01 X-41.2694 Y47.3694 
G01 X-41.2649 Y47.3782 
G01 X-41.2357 Y47.4031 
G01 X-41.2216 Y47.4171 
G01 X-41.2085 Y47.4303 
G01 X-41.1993 Y47.4340 
G01 X-41.1918 Y47.4405 
G01 X-41.1553 Y47.4523 
G01 X-41.1430 Y47.4574 
G01 X-41.1358 Y47.4611 
G01 X-41.1198 Y47.4670 
G01 X-41.1099 Y47.4670 
G01 X-41.1005 Y47.4700 
G01 X-41.0622 Y47.4670 
G01 X-41.0401 Y47.4686 
G01 X-41.0352 Y47.4670 
G01 X-41.0238 Y47.4670 
G01 X-41.0147 Y47.4632 
G01 X-41.0048 Y47.4624 
G01 X-40.9956 Y47.4577 
G01 X-40.9956 Y47.4863 
G01 X-41.0431 Y47.5059 
G01 X-41.1824 Y47.5991 
G01 X-41.3009 Y47.7176 
G01 X-41.3941 Y47.8569 
G01 X-41.4582 Y48.0118 
G01 X-41.4909 Y48.1762 
G01 X-41.4909 Y48.3438 
G01 X-41.4582 Y48.5082 
G01 X-41.3941 Y48.6630 
G01 X-41.3009 Y48.8024 
G01 X-41.1824 Y48.9209 
G01 X-41.0431 Y49.0141 
G01 X-40.9956 Y49.0337 
G01 X-40.9956 Y49.0623 
G01 X-41.0048 Y49.0576 
G01 X-41.0147 Y49.0568 
G01 X-41.0238 Y49.0530 
G01 X-41.0352 Y49.0530 
G01 X-41.0401 Y49.0514 
G01 X-41.0604 Y49.0530 
G01 X-41.1005 Y49.0499 
G01 X-41.1099 Y49.0530 
G01 X-41.1198 Y49.0530 
G01 X-41.1337 Y49.0588 
G01 X-41.1430 Y49.0626 
G01 X-41.1553 Y49.0677 
G01 X-41.1918 Y49.0795 
G01 X-41.1993 Y49.0859 
G01 X-41.2085 Y49.0897 
G01 X-41.2212 Y49.1024 
G01 X-41.2357 Y49.1169 
G01 X-41.2649 Y49.1418 
G01 X-41.2694 Y49.1506 
G01 X-41.2764 Y49.1576 
G01 X-41.2911 Y49.1931 
G01 X-41.3085 Y49.2273 
G01 X-41.3093 Y49.2372 
G01 X-41.3131 Y49.2463 
G01 X-41.3131 Y49.2661 
G01 X-41.3131 Y49.2697 
G01 X-41.3131 Y49.2847 
G01 X-41.3161 Y49.3230 
G01 X-41.3131 Y49.3324 
G01 X-41.3131 Y52.1887 
G01 X-41.4040 Y52.4081 
G01 X-41.6398 Y52.6439 
G01 X-45.0009 Y56.0050 
G01 X-45.2203 Y56.0959 
G01 X-50.1198 Y56.0959 
G01 X-50.2085 Y56.1326 
G01 X-50.2764 Y56.2005 
G01 X-52.7064 Y58.6305 
G01 X-52.7431 Y58.7192 
G01 X-52.7431 Y60.0502 
G01 X-52.7326 Y60.0754 
G01 X-52.7064 Y60.1388 
G01 X-52.6385 Y60.2067 
G01 X-52.4679 Y60.3773 
G01 X-52.3113 Y60.7554 
G01 X-52.3113 Y61.1646 
G01 X-52.3488 Y61.2551 
G01 X-52.3673 Y61.2998 
G01 X-52.3855 Y61.3438 
G01 X-52.3855 Y61.4398 
G01 X-52.3488 Y61.5285 
G01 X-52.2820 Y61.5953 
G01 X-52.2300 Y61.6174 
G01 X-52.1922 Y61.6331 
G01 X-51.9478 Y61.6331 
G01 X-51.9121 Y61.6183 
G01 X-51.8591 Y61.5964 
G01 X-51.7912 Y61.5285 
G01 X-51.7545 Y61.4398 
G01 X-51.7545 Y61.3438 
G01 X-51.7717 Y61.3022 
G01 X-51.7912 Y61.2551 
G01 X-51.8287 Y61.1646 
G01 X-51.8287 Y60.7554 
G01 X-51.6721 Y60.3773 
G01 X-51.5015 Y60.2067 
G01 X-51.4336 Y60.1388 
G01 X-51.4080 Y60.0769 
G01 X-51.3969 Y60.0502 
G01 X-51.3969 Y59.5713 
G01 X-51.3060 Y59.3519 
G01 X-51.1381 Y59.1840 
G01 X-51.0702 Y59.1161 
G01 X-50.0360 Y58.0819 
G01 X-49.8681 Y57.9140 
G01 X-49.6487 Y57.8231 
G01 X-41.7913 Y57.8231 
G01 X-41.5719 Y57.9140 
G01 X-36.4919 Y62.9940 
G01 X-36.3240 Y63.1619 
G01 X-36.2331 Y63.3813 
G01 X-36.2331 Y69.6948 
G01 X-36.1964 Y69.7835 
G01 X-36.1285 Y69.8514 
G01 X-36.0398 Y69.8881 
G01 X-35.7271 Y69.8881 
G01 X-35.6384 Y69.8514 
G01 X-35.5705 Y69.7835 
G01 X-35.3195 Y69.5325 
G01 X-34.5305 Y69.5325 
G01 X-33.9725 Y70.0905 
G01 X-33.9725 Y70.8795 
G01 X-34.5305 Y71.4375 
G01 X-35.3195 Y71.4375 
G01 X-35.6384 Y71.1186 
G01 X-35.7271 Y71.0819 
G01 X-38.5679 Y71.0819 
G01 X-38.6566 Y71.1186 
G01 X-38.7245 Y71.1865 
G01 X-38.9755 Y71.4375 
G01 X-39.7645 Y71.4375 
G01 X-40.3225 Y70.8795 
G01 X-40.3225 Y70.0905 
G01 X-39.7645 Y69.5325 
G01 X-38.9755 Y69.5325 
G01 X-38.6566 Y69.8514 
G01 X-38.5679 Y69.8881 
G01 X-37.6202 Y69.8881 
G01 X-37.5315 Y69.8514 
G01 X-37.4636 Y69.7835 
G01 X-37.4269 Y69.6948 
G01 X-37.4269 Y63.7992 
G01 X-37.4636 Y63.7105 
G01 X-37.5315 Y63.6426 
G01 X-42.1205 Y59.0536 
G01 X-42.2092 Y59.0169 
G01 X-49.2308 Y59.0169 
G01 X-49.3195 Y59.0536 
G01 X-49.3874 Y59.1215 
G01 X-50.1488 Y59.8830 
G01 X-50.1856 Y59.9717 
G01 X-50.1856 Y60.0677 
G01 X-50.1751 Y60.0929 
G01 X-50.1488 Y60.1564 
G01 X-50.0810 Y60.2242 
G01 X-49.9279 Y60.3773 
G01 X-49.7713 Y60.7554 
G01 X-49.7713 Y61.1646 
G01 X-49.8088 Y61.2551 
G01 X-49.8273 Y61.2998 
G01 X-49.8455 Y61.3438 
G01 X-49.8455 Y61.4398 
G01 X-49.8088 Y61.5285 
G01 X-49.7420 Y61.5953 
G01 X-49.6900 Y61.6174 
G01 X-49.6522 Y61.6331 
G01 X-49.4078 Y61.6331 
G01 X-49.3721 Y61.6183 
G01 X-49.3191 Y61.5964 
G01 X-49.2512 Y61.5285 
G01 X-49.2145 Y61.4398 
G01 X-49.2145 Y61.3438 
G01 X-49.2317 Y61.3022 
G01 X-49.2512 Y61.2551 
G01 X-49.2887 Y61.1646 
G01 X-49.2887 Y60.7554 
G01 X-49.1321 Y60.3773 
G01 X-48.8427 Y60.0879 
G01 X-48.4646 Y59.9313 
G01 X-48.0554 Y59.9313 
G01 X-47.6773 Y60.0879 
G01 X-47.3879 Y60.3773 
G01 X-47.2313 Y60.7554 
G01 X-47.2313 Y61.1646 
G01 X-47.3210 Y61.3813 
G01 X-47.3390 Y61.4247 
G01 X-47.3578 Y61.4699 
G01 X-47.3578 Y61.5180 
G01 X-47.3578 Y61.5659 
G01 X-47.3392 Y61.6108 
G01 X-47.3210 Y61.6546 
G01 X-47.2853 Y61.6904 
G01 X-47.2532 Y61.7225 
G01 X-47.2495 Y61.7240 
G01 X-46.4840 Y62.4895 
G01 X-46.4826 Y62.4931 
G01 X-46.4505 Y62.5252 
G01 X-46.4147 Y62.5610 
G01 X-46.3709 Y62.5791 
G01 X-46.3260 Y62.5977 
G01 X-46.2781 Y62.5978 
G01 X-46.2300 Y62.5978 
G01 X-46.1848 Y62.5791 
G01 X-46.1413 Y62.5611 
G01 X-45.9246 Y62.4713 
G01 X-45.5154 Y62.4713 
G01 X-45.1373 Y62.6279 
G01 X-44.8479 Y62.9173 
G01 X-44.6913 Y63.2954 
G01 X-44.6913 Y63.7046 
G01 X-44.7562 Y63.8612 
G01 X-44.7748 Y63.9062 
G01 X-44.7929 Y63.9499 
G01 X-44.7929 Y70.2824 
G01 X-44.7562 Y70.3711 
G01 X-44.6883 Y70.4390 
G01 X-43.2784 Y71.8489 
G01 X-43.1897 Y71.8856 
G01 X-43.0937 Y71.8856 
G01 X-43.0580 Y71.8709 
G01 X-43.0050 Y71.8489 
G01 X-42.9371 Y71.7810 
G01 X-42.9004 Y71.6923 
G01 X-42.9004 Y71.5963 
G01 X-42.9175 Y71.5551 
G01 X-42.9371 Y71.5076 
G01 X-42.9721 Y71.4232 
G01 X-42.9721 Y69.1656 
G01 X-42.8310 Y68.8248 
G01 X-42.5023 Y68.4962 
G01 X-41.6038 Y67.5977 
G01 X-41.5671 Y67.5090 
G01 X-41.5671 Y63.9499 
G01 X-41.6038 Y63.8612 
G01 X-41.6687 Y63.7046 
G01 X-41.6687 Y63.2954 
G01 X-41.5121 Y62.9173 
G01 X-41.2227 Y62.6279 
G01 X-40.8446 Y62.4713 
G01 X-40.4354 Y62.4713 
G01 X-40.0573 Y62.6279 
G01 X-39.7679 Y62.9173 
G01 X-39.6113 Y63.2954 
G01 X-39.6113 Y63.7046 
G01 X-39.6762 Y63.8612 
G01 X-39.7118 Y63.9472 
G01 X-39.7129 Y63.9499 
G01 X-39.7129 Y68.1294 
G01 X-39.8540 Y68.4702 
G01 X-41.0812 Y69.6973 
G01 X-41.1179 Y69.7860 
G01 X-41.1179 Y70.8028 
G01 X-41.0812 Y70.8915 
G01 X-41.0133 Y70.9594 
G01 X-39.7846 Y72.1881 
G01 X-39.6959 Y72.2248 
G01 X-34.3703 Y72.2248 
G01 X-34.2816 Y72.1881 
G01 X-34.2137 Y72.1202 
G01 X-33.1712 Y71.0777 
G01 X-33.1345 Y70.9890 
G01 X-33.1345 Y58.8004 
G01 X-33.1712 Y58.7117 
G01 X-33.2391 Y58.6438 
G01 X-33.3278 Y58.6071 
G01 X-33.7470 Y58.6071 
G01 X-33.8357 Y58.6438 
G01 X-33.9036 Y58.7117 
G01 X-34.7514 Y59.5596 
G01 X-36.3085 Y59.5596 
G01 X-37.4096 Y58.4586 
G01 X-37.4096 Y56.9014 
G01 X-36.3085 Y55.8004 
G01 X-34.7514 Y55.8004 
G01 X-33.9036 Y56.6483 
G01 X-33.8514 Y56.7004 
G01 X-33.8357 Y56.7162 
G01 X-33.7470 Y56.7529 
G01 X-33.3278 Y56.7529 
G01 X-33.2391 Y56.7162 
G01 X-33.1712 Y56.6483 
G01 X-33.1345 Y56.5596 
G01 X-33.1345 Y50.7786 
G01 X-33.1712 Y50.6899 
G01 X-33.2391 Y50.6220 
G01 X-39.6827 Y44.1784 
G01 X-39.6862 Y44.1770 
G01 X-39.9603 Y44.0635 
G01 X-40.2535 Y43.7703 
G01 X-40.4121 Y43.3873 
G01 X-40.4121 Y42.9727 
G01 X-40.2535 Y42.5897 
G01 X-39.9603 Y42.2965 
G01 X-39.5773 Y42.1379 
G01 X-39.1627 Y42.1379 
G01 X-38.7797 Y42.2965 
G01 X-38.4865 Y42.5897 
G01 X-38.3715 Y42.8673 
G01 X-38.3642 Y42.8747 
G01 X-37.9631 Y43.2758 
G01 X-37.9025 Y43.3364 
G01 X-37.8952 Y43.3437 
G01 X-37.8065 Y43.3804 
G01 X-37.7105 Y43.3804 
G01 X-37.6218 Y43.3437 
G01 X-37.5539 Y43.2758 
G01 X-37.5172 Y43.1871 
G01 X-37.5172 Y42.8383 
G01 X-37.4918 Y42.8383 
G01 X-37.4918 Y43.1749 
G01 X-36.4949 Y44.1718 
G01 X-36.1583 Y44.1718 
G01 X-36.1583 Y44.1972 
G01 X-36.5071 Y44.1972 
G01 X-36.5958 Y44.2339 
G01 X-36.6637 Y44.3018 
G01 X-36.6994 Y44.3880 
G01 X-36.7004 Y44.4865 
G01 X-36.6637 Y44.5752 
G01 X-31.7851 Y49.4538 
G01 X-31.6964 Y49.4905 
G01 X-31.6004 Y49.4905 
G01 X-31.5117 Y49.4538 
G01 X-31.4438 Y49.3859 
G01 X-31.4071 Y49.2972 
G01 X-31.4071 Y35.9960 
G01 X-31.4438 Y35.9073 
G01 X-31.5117 Y35.8394 
G01 X-32.5360 Y34.8152 
G01 X-32.6771 Y34.4744 
G01 X-32.6771 Y33.5049 
G01 X-32.7138 Y33.4162 
G01 X-32.7921 Y33.2273 
G01 X-32.7921 Y32.8127 
